P3
255 143
255
220 235 255 220 235 255 220 235 255 220 235 255 220 235 255 220 235 255 220 235 255 220 235 255 220 235 255 220 235 255 220 235 255 220 235 255 220 235 255 220 235 255 220 235 255 220 235 255 220 235 255 220 235 255 220 235 255 220 235 255 220 235 255 220 235 255 220 235 255 220 235 255 220 235 255 220 235 255 220 235 255 220 235 255 220 235 255 220 235 255 220 235 255 220 235 255 220 235 255 220 235 255 220 235 255 220 235 255 220 235 255 220 235 255 220 235 255 220 235 255 220 235 255 220 235 255 220 235 255 220 235 255 220 235 255 220 235 255 220 235 255 220 235 255 220 235 255 220 235 255 220 235 255 220 235 255 220 235 255 220 235 255 220 235 255 220 235 255 220 235 255 220 235 255 220 235 255 220 235 255 220 235 255 220 235 255 220 235 255 220 235 255 220 235 255 220 235 255 220 235 255 220 235 255 220 235 255 220 235 255 220 235 255 220 235 255 220 235 255 220 235 255 220 235 255 220 235 255 220 235 255 220 235 255 220 235 255 220 235 255 220 235 255 220 235 255 220 235 255 220 235 255 220 235 255 220 235 255 220 235 255 220 235 255 220 235 255 220 235 255 220 235 255 220 235 255 220 235 255 220 235 255 220 235 255 220 235 255 220 235 255 220 235 255 220 235 255 220 235 255 220 235 255 220 235 255 220 235 255 220 235 255 220 235 255 220 235 255 220 235 255 220 235 255 220 235 255 220 235 255 220 235 255 220 235 255 220 235 255 220 235 255 220 235 255 220 235 255 220 235 255 220 235 255 220 235 255 220 235 255 220 235 255 220 235 255 220 235 255 220 235 255 220 235 255 220 235 255 220 235 255 220 235 255 220 235 255 220 235 255 220 235 255 220 235 255 220 235 255 220 235 255 220 235 255 220 235 255 220 235 255 220 235 255 220 235 255 220 235 255 220 235 255 220 235 255 220 235 255 220 235 255 220 235 255 220 235 255 220 235 255 220 235 255 220 235 255 220 235 255 220 235 255 220 235 255 220 235 255 220 235 255 220 235 255 220 235 255 220 235 255 220 235 255 220 235 255 220 235 255 220 235 255 220 235 255 220 235 255 220 235 255 220 235 255 220 235 255 220 235 255 220 235 255 220 235 255 220 235 255 220 235 255 220 235 255 220 235 255 220 235 255 220 235 255 220 235 255 220 235 255 220 235 255 220 235 255 220 235 255 220 235 255 220 235 255 220 235 255 220 235 255 220 235 255 220 235 255 220 235 255 220 235 255 220 235 255 220 235 255 220 235 255 220 235 255 220 235 255 220 235 255 220 235 255 220 235 255 220 235 255 220 235 255 220 235 255 220 235 255 220 235 255 220 235 255 220 235 255 220 235 255 220 235 255 220 235 255 220 235 255 220 235 255 220 235 255 220 235 255 220 235 255 220 235 255 220 235 255 220 235 255 220 235 255 220 235 255 220 235 255 220 235 255 220 235 255 220 235 255 220 235 255 220 235 255 220 235 255 220 235 255 220 235 255 220 235 255 220 235 255 220 235 255 220 235 255 220 235 255 220 235 255 220 235 255 220 235 255 220 235 255 220 235 255 220 235 255 220 235 255 220 235 255 220 235 255 220 235 255 220 235 255 220 235 255 220 235 255 220 235 255 220 235 255 220 235 255 220 235 255 220 235 255 220 235 255 220 235 255 220 235 255 220 235 255 220 235 255 220 235 255 220 235 255 
220 235 255 220 235 255 220 235 255 220 235 255 220 235 255 220 235 255 220 235 255 220 235 255 220 235 255 220 235 255 220 235 255 220 235 255 220 235 255 220 235 255 220 235 255 220 235 255 220 235 255 220 235 255 220 235 255 220 235 255 220 235 255 220 235 255 220 235 255 220 235 255 220 235 255 220 235 255 220 235 255 220 235 255 220 235 255 220 235 255 220 235 255 220 235 255 220 235 255 220 235 255 220 235 255 220 235 255 220 235 255 220 235 255 220 235 255 220 235 255 220 235 255 220 235 255 220 235 255 220 235 255 220 235 255 220 235 255 220 235 255 220 235 255 220 235 255 220 235 255 220 235 255 220 235 255 220 235 255 220 235 255 220 235 255 220 235 255 220 235 255 220 235 255 220 235 255 220 235 255 220 235 255 220 235 255 220 235 255 220 235 255 220 235 255 220 235 255 220 235 255 220 235 255 220 235 255 220 235 255 220 235 255 220 235 255 220 235 255 220 235 255 220 235 255 220 235 255 220 235 255 220 235 255 220 235 255 220 235 255 220 235 255 220 235 255 220 235 255 220 235 255 220 235 255 220 235 255 220 235 255 220 235 255 220 235 255 220 235 255 220 235 255 220 235 255 220 235 255 220 235 255 220 235 255 220 235 255 220 235 255 220 235 255 220 235 255 220 235 255 220 235 255 220 235 255 220 235 255 220 235 255 220 235 255 220 235 255 220 235 255 220 235 255 220 235 255 220 235 255 220 235 255 220 235 255 220 235 255 220 235 255 220 235 255 220 235 255 220 235 255 220 235 255 220 235 255 220 235 255 220 235 255 220 235 255 220 235 255 220 235 255 220 235 255 220 235 255 220 235 255 220 235 255 220 235 255 220 235 255 220 235 255 220 235 255 220 235 255 220 235 255 220 235 255 220 235 255 220 235 255 220 235 255 220 235 255 220 235 255 220 235 255 220 235 255 220 235 255 220 235 255 220 235 255 220 235 255 220 235 255 220 235 255 220 235 255 220 235 255 220 235 255 220 235 255 220 235 255 220 235 255 220 235 255 220 235 255 220 235 255 220 235 255 220 235 255 220 235 255 220 235 255 220 235 255 220 235 255 220 235 255 220 235 255 220 235 255 220 235 255 220 235 255 220 235 255 220 235 255 220 235 255 220 235 255 220 235 255 220 235 255 220 235 255 220 235 255 220 235 255 220 235 255 220 235 255 220 235 255 220 235 255 220 235 255 220 235 255 220 235 255 220 235 255 220 235 255 220 235 255 220 235 255 220 235 255 220 235 255 220 235 255 220 235 255 220 235 255 220 235 255 220 235 255 220 235 255 220 235 255 220 235 255 220 235 255 220 235 255 220 235 255 220 235 255 220 235 255 220 235 255 220 235 255 220 235 255 220 235 255 220 235 255 220 235 255 220 235 255 220 235 255 220 235 255 220 235 255 220 235 255 220 235 255 220 235 255 220 235 255 220 235 255 220 235 255 220 235 255 220 235 255 220 235 255 220 235 255 220 235 255 220 235 255 220 235 255 220 235 255 220 235 255 220 235 255 220 235 255 220 235 255 220 235 255 220 235 255 220 235 255 220 235 255 220 235 255 220 235 255 220 235 255 220 235 255 220 235 255 220 235 255 220 235 255 220 235 255 220 235 255 220 235 255 220 235 255 220 235 255 220 235 255 220 235 255 220 235 255 220 235 255 220 235 255 220 235 255 220 235 255 220 235 255 
221 235 255 221 235 255 221 235 255 220 235 255 221 235 255 221 235 255 221 235 255 220 235 255 221 235 255 220 235 255 221 235 255 220 235 255 220 235 255 220 235 255 220 235 255 220 235 255 220 235 255 220 235 255 220 235 255 221 235 255 220 235 255 220 235 255 220 235 255 220 235 255 220 235 255 220 235 255 220 235 255 220 235 255 220 235 255 220 235 255 220 235 255 220 235 255 220 235 255 220 235 255 220 235 255 220 235 255 220 235 255 220 235 255 220 235 255 220 235 255 220 235 255 220 235 255 220 235 255 220 235 255 220 235 255 220 235 255 220 235 255 220 235 255 220 235 255 220 235 255 220 235 255 220 235 255 220 235 255 220 235 255 220 235 255 220 235 255 220 235 255 220 235 255 220 235 255 220 235 255 220 235 255 220 235 255 220 235 255 220 235 255 220 235 255 220 235 255 220 235 255 220 235 255 220 235 255 220 235 255 220 235 255 220 235 255 220 235 255 220 235 255 220 235 255 220 235 255 220 235 255 220 235 255 220 235 255 220 235 255 220 235 255 220 235 255 220 235 255 220 235 255 220 235 255 220 235 255 220 235 255 220 235 255 220 235 255 220 235 255 220 235 255 220 235 255 220 235 255 220 235 255 220 235 255 220 235 255 220 235 255 220 235 255 220 235 255 220 235 255 220 235 255 220 235 255 220 235 255 220 235 255 220 235 255 220 235 255 220 235 255 220 235 255 220 235 255 220 235 255 220 235 255 220 235 255 220 235 255 220 235 255 220 235 255 220 235 255 220 235 255 220 235 255 220 235 255 220 235 255 220 235 255 220 235 255 220 235 255 220 235 255 220 235 255 220 235 255 220 235 255 220 235 255 220 235 255 220 235 255 220 235 255 220 235 255 220 235 255 220 235 255 220 235 255 220 235 255 220 235 255 220 235 255 220 235 255 220 235 255 220 235 255 220 235 255 220 235 255 220 235 255 220 235 255 220 235 255 220 235 255 220 235 255 220 235 255 220 235 255 220 235 255 220 235 255 220 235 255 220 235 255 220 235 255 220 235 255 220 235 255 220 235 255 220 235 255 220 235 255 220 235 255 220 235 255 220 235 255 220 235 255 220 235 255 220 235 255 220 235 255 220 235 255 220 235 255 220 235 255 220 235 255 220 235 255 220 235 255 220 235 255 220 235 255 220 235 255 220 235 255 220 235 255 220 235 255 220 235 255 220 235 255 220 235 255 220 235 255 220 235 255 220 235 255 220 235 255 220 235 255 220 235 255 220 235 255 220 235 255 220 235 255 220 235 255 220 235 255 220 235 255 220 235 255 220 235 255 220 235 255 220 235 255 220 235 255 220 235 255 220 235 255 220 235 255 220 235 255 220 235 255 220 235 255 220 235 255 220 235 255 220 235 255 220 235 255 220 235 255 220 235 255 220 235 255 220 235 255 220 235 255 220 235 255 220 235 255 220 235 255 220 235 255 220 235 255 220 235 255 220 235 255 220 235 255 220 235 255 220 235 255 220 235 255 220 235 255 220 235 255 220 235 255 220 235 255 220 235 255 220 235 255 220 235 255 220 235 255 220 235 255 220 235 255 220 235 255 220 235 255 220 235 255 220 235 255 220 235 255 220 235 255 220 235 255 220 235 255 220 235 255 220 235 255 221 235 255 220 235 255 221 235 255 221 235 255 220 235 255 220 235 255 221 235 255 221 235 255 221 235 255 221 235 255 
221 235 255 221 235 255 221 235 255 221 235 255 221 235 255 221 235 255 221 235 255 221 235 255 221 235 255 221 235 255 221 235 255 221 235 255 221 235 255 221 235 255 221 235 255 221 235 255 221 235 255 221 235 255 221 235 255 221 235 255 221 235 255 221 235 255 221 235 255 221 235 255 221 235 255 221 235 255 221 235 255 221 235 255 221 235 255 221 235 255 221 235 255 221 235 255 221 235 255 221 235 255 221 235 255 221 235 255 221 235 255 221 235 255 221 235 255 221 235 255 221 235 255 221 235 255 221 235 255 221 235 255 221 235 255 221 235 255 221 235 255 221 235 255 221 235 255 221 235 255 221 235 255 221 235 255 221 235 255 221 235 255 221 235 255 221 235 255 221 235 255 221 235 255 221 235 255 221 235 255 221 235 255 221 235 255 221 235 255 221 235 255 221 235 255 221 235 255 221 235 255 221 235 255 221 235 255 221 235 255 221 235 255 221 235 255 221 235 255 221 235 255 221 235 255 221 235 255 221 235 255 221 235 255 221 235 255 221 235 255 221 235 255 221 235 255 221 235 255 221 235 255 221 235 255 221 235 255 221 235 255 221 235 255 221 235 255 221 235 255 221 235 255 221 235 255 221 235 255 221 235 255 221 235 255 221 235 255 221 235 255 221 235 255 221 235 255 221 235 255 221 235 255 221 235 255 221 235 255 221 235 255 221 235 255 221 235 255 221 235 255 221 235 255 221 235 255 221 235 255 221 235 255 221 235 255 221 235 255 221 235 255 221 235 255 221 235 255 221 235 255 221 235 255 221 235 255 221 235 255 221 235 255 221 235 255 221 235 255 221 235 255 221 235 255 221 235 255 221 235 255 221 235 255 221 235 255 221 235 255 221 235 255 221 235 255 221 235 255 221 235 255 221 235 255 221 235 255 221 235 255 221 235 255 221 235 255 221 235 255 221 235 255 221 235 255 221 235 255 221 235 255 221 235 255 221 235 255 221 235 255 221 235 255 221 235 255 221 235 255 221 235 255 221 235 255 221 235 255 221 235 255 221 235 255 221 235 255 221 235 255 221 235 255 221 235 255 221 235 255 221 235 255 221 235 255 221 235 255 221 235 255 221 235 255 221 235 255 221 235 255 221 235 255 221 235 255 221 235 255 221 235 255 221 235 255 221 235 255 221 235 255 221 235 255 221 235 255 221 235 255 221 235 255 221 235 255 221 235 255 221 235 255 221 235 255 221 235 255 221 235 255 221 235 255 221 235 255 221 235 255 221 235 255 221 235 255 221 235 255 221 235 255 221 235 255 221 235 255 221 235 255 221 235 255 221 235 255 221 235 255 221 235 255 221 235 255 221 235 255 221 235 255 221 235 255 221 235 255 221 235 255 221 235 255 221 235 255 221 235 255 221 235 255 221 235 255 221 235 255 221 235 255 221 235 255 221 235 255 221 235 255 221 235 255 221 235 255 221 235 255 221 235 255 221 235 255 221 235 255 221 235 255 221 235 255 221 235 255 221 235 255 221 235 255 221 235 255 221 235 255 221 235 255 221 235 255 221 235 255 221 235 255 221 235 255 221 235 255 221 235 255 221 235 255 221 235 255 221 235 255 221 235 255 221 235 255 221 235 255 221 235 255 221 235 255 221 235 255 221 235 255 221 235 255 221 235 255 221 235 255 221 235 255 221 235 255 221 235 255 221 235 255 221 235 255 221 235 255 221 235 255 221 235 255 
221 235 255 221 235 255 221 235 255 221 235 255 221 235 255 221 235 255 221 235 255 221 235 255 221 235 255 221 235 255 221 235 255 221 235 255 221 235 255 221 235 255 221 235 255 221 235 255 221 235 255 221 235 255 221 235 255 221 235 255 221 235 255 221 235 255 221 235 255 221 235 255 221 235 255 221 235 255 221 235 255 221 235 255 221 235 255 221 235 255 221 235 255 221 235 255 221 235 255 221 235 255 221 235 255 221 235 255 221 235 255 221 235 255 221 235 255 221 235 255 221 235 255 221 235 255 221 235 255 221 235 255 221 235 255 221 235 255 221 235 255 221 235 255 221 235 255 221 235 255 221 235 255 221 235 255 221 235 255 221 235 255 221 235 255 221 235 255 221 235 255 221 235 255 221 235 255 221 235 255 221 235 255 221 235 255 221 235 255 221 235 255 221 235 255 221 235 255 221 235 255 221 235 255 221 235 255 221 235 255 221 235 255 221 235 255 221 235 255 221 235 255 221 235 255 221 235 255 221 235 255 221 235 255 221 235 255 221 235 255 221 235 255 221 235 255 221 235 255 221 235 255 221 235 255 221 235 255 221 235 255 221 235 255 221 235 255 221 235 255 221 235 255 221 235 255 221 235 255 221 235 255 221 235 255 221 235 255 221 235 255 221 235 255 221 235 255 221 235 255 221 235 255 221 235 255 221 235 255 221 235 255 221 235 255 221 235 255 221 235 255 221 235 255 221 235 255 221 235 255 221 235 255 221 235 255 221 235 255 221 235 255 221 235 255 221 235 255 221 235 255 221 235 255 221 235 255 221 235 255 221 235 255 221 235 255 221 235 255 221 235 255 221 235 255 221 235 255 221 235 255 221 235 255 221 235 255 221 235 255 221 235 255 221 235 255 221 235 255 221 235 255 221 235 255 221 235 255 221 235 255 221 235 255 221 235 255 221 235 255 221 235 255 221 235 255 221 235 255 221 235 255 221 235 255 221 235 255 221 235 255 221 235 255 221 235 255 221 235 255 221 235 255 221 235 255 221 235 255 221 235 255 221 235 255 221 235 255 221 235 255 221 235 255 221 235 255 221 235 255 221 235 255 221 235 255 221 235 255 221 235 255 221 235 255 221 235 255 221 235 255 221 235 255 221 235 255 221 235 255 221 235 255 221 235 255 221 235 255 221 235 255 221 235 255 221 235 255 221 235 255 221 235 255 221 235 255 221 235 255 221 235 255 221 235 255 221 235 255 221 235 255 221 235 255 221 235 255 221 235 255 221 235 255 221 235 255 221 235 255 221 235 255 221 235 255 221 235 255 221 235 255 221 235 255 221 235 255 221 235 255 221 235 255 221 235 255 221 235 255 221 235 255 221 235 255 221 235 255 221 235 255 221 235 255 221 235 255 221 235 255 221 235 255 221 235 255 221 235 255 221 235 255 221 235 255 221 235 255 221 235 255 221 235 255 221 235 255 221 235 255 221 235 255 221 235 255 221 235 255 221 235 255 221 235 255 221 235 255 221 235 255 221 235 255 221 235 255 221 235 255 221 235 255 221 235 255 221 235 255 221 235 255 221 235 255 221 235 255 221 235 255 221 235 255 221 235 255 221 235 255 221 235 255 221 235 255 221 235 255 221 235 255 221 235 255 221 235 255 221 235 255 221 235 255 221 235 255 221 235 255 221 235 255 221 235 255 221 235 255 221 235 255 221 235 255 221 235 255 221 235 255 221 235 255 
221 235 255 221 235 255 221 235 255 221 235 255 221 235 255 221 235 255 221 235 255 221 235 255 221 235 255 221 235 255 221 235 255 221 235 255 221 235 255 221 235 255 221 235 255 221 235 255 221 235 255 221 235 255 221 235 255 221 235 255 221 235 255 221 235 255 221 235 255 221 235 255 221 235 255 221 235 255 221 235 255 221 235 255 221 235 255 221 235 255 221 235 255 221 235 255 221 235 255 221 235 255 221 235 255 221 235 255 221 235 255 221 235 255 221 235 255 221 235 255 221 235 255 221 235 255 221 235 255 221 235 255 221 235 255 221 235 255 221 235 255 221 235 255 221 235 255 221 235 255 221 235 255 221 235 255 221 235 255 221 235 255 221 235 255 221 235 255 221 235 255 221 235 255 221 235 255 221 235 255 221 235 255 221 235 255 221 235 255 221 235 255 221 235 255 221 235 255 221 235 255 221 235 255 221 235 255 221 235 255 221 235 255 221 235 255 221 235 255 221 235 255 221 235 255 221 235 255 221 235 255 221 235 255 221 235 255 221 235 255 221 235 255 221 235 255 221 235 255 221 235 255 221 235 255 221 235 255 221 235 255 221 235 255 221 235 255 221 235 255 221 235 255 221 235 255 221 235 255 221 235 255 221 235 255 221 235 255 221 235 255 221 235 255 221 235 255 221 235 255 221 235 255 221 235 255 221 235 255 221 235 255 221 235 255 221 235 255 221 235 255 221 235 255 221 235 255 221 235 255 221 235 255 221 235 255 221 235 255 221 235 255 221 235 255 221 235 255 221 235 255 221 235 255 221 235 255 221 235 255 221 235 255 221 235 255 221 235 255 221 235 255 221 235 255 221 235 255 221 235 255 221 235 255 221 235 255 221 235 255 221 235 255 221 235 255 221 235 255 221 235 255 221 235 255 221 235 255 221 235 255 221 235 255 221 235 255 221 235 255 221 235 255 221 235 255 221 235 255 221 235 255 221 235 255 221 235 255 221 235 255 221 235 255 221 235 255 221 235 255 221 235 255 221 235 255 221 235 255 221 235 255 221 235 255 221 235 255 221 235 255 221 235 255 221 235 255 221 235 255 221 235 255 221 235 255 221 235 255 221 235 255 221 235 255 221 235 255 221 235 255 221 235 255 221 235 255 221 235 255 221 235 255 221 235 255 221 235 255 221 235 255 221 235 255 221 235 255 221 235 255 221 235 255 221 235 255 221 235 255 221 235 255 221 235 255 221 235 255 221 235 255 221 235 255 221 235 255 221 235 255 221 235 255 221 235 255 221 235 255 221 235 255 221 235 255 221 235 255 221 235 255 221 235 255 221 235 255 221 235 255 221 235 255 221 235 255 221 235 255 221 235 255 221 235 255 221 235 255 221 235 255 221 235 255 221 235 255 221 235 255 221 235 255 221 235 255 221 235 255 221 235 255 221 235 255 221 235 255 221 235 255 221 235 255 221 235 255 221 235 255 221 235 255 221 235 255 221 235 255 221 235 255 221 235 255 221 235 255 221 235 255 221 235 255 221 235 255 221 235 255 221 235 255 221 235 255 221 235 255 221 235 255 221 235 255 221 235 255 221 235 255 221 235 255 221 235 255 221 235 255 221 235 255 221 235 255 221 235 255 221 235 255 221 235 255 221 235 255 221 235 255 221 235 255 221 235 255 221 235 255 221 235 255 221 235 255 221 235 255 221 235 255 221 235 255 221 235 255 221 235 255 221 235 255 
221 235 255 221 235 255 221 235 255 221 235 255 221 235 255 221 235 255 221 235 255 221 235 255 221 235 255 221 235 255 221 235 255 221 235 255 221 235 255 221 235 255 221 235 255 221 235 255 221 235 255 221 235 255 221 235 255 221 235 255 221 235 255 221 235 255 221 235 255 221 235 255 221 235 255 221 235 255 221 235 255 221 235 255 221 235 255 221 235 255 221 235 255 221 235 255 221 235 255 221 235 255 221 235 255 221 235 255 221 235 255 221 235 255 221 235 255 221 235 255 221 235 255 221 235 255 221 235 255 221 235 255 221 235 255 221 235 255 221 235 255 221 235 255 221 235 255 221 235 255 221 235 255 221 235 255 221 235 255 221 235 255 221 235 255 221 235 255 221 235 255 221 235 255 221 235 255 221 235 255 221 235 255 221 235 255 221 235 255 221 235 255 221 235 255 221 235 255 221 235 255 221 235 255 221 235 255 221 235 255 221 235 255 221 235 255 221 235 255 221 235 255 221 235 255 221 235 255 221 235 255 221 235 255 221 235 255 221 235 255 221 235 255 221 235 255 221 235 255 221 235 255 221 235 255 221 235 255 221 235 255 221 235 255 221 235 255 221 235 255 221 235 255 221 235 255 221 235 255 221 235 255 221 235 255 221 235 255 221 235 255 221 235 255 221 235 255 221 235 255 221 235 255 221 235 255 221 235 255 221 235 255 221 235 255 221 235 255 221 235 255 221 235 255 221 235 255 221 235 255 221 235 255 221 235 255 221 235 255 221 235 255 221 235 255 221 235 255 221 235 255 221 235 255 221 235 255 221 235 255 221 235 255 221 235 255 221 235 255 221 235 255 221 235 255 221 235 255 221 235 255 221 235 255 221 235 255 221 235 255 221 235 255 221 235 255 221 235 255 221 235 255 221 235 255 221 235 255 221 235 255 221 235 255 221 235 255 221 235 255 221 235 255 221 235 255 221 235 255 221 235 255 221 235 255 221 235 255 221 235 255 221 235 255 221 235 255 221 235 255 221 235 255 221 235 255 221 235 255 221 235 255 221 235 255 221 235 255 221 235 255 221 235 255 221 235 255 221 235 255 221 235 255 221 235 255 221 235 255 221 235 255 221 235 255 221 235 255 221 235 255 221 235 255 221 235 255 221 235 255 221 235 255 221 235 255 221 235 255 221 235 255 221 235 255 221 235 255 221 235 255 221 235 255 221 235 255 221 235 255 221 235 255 221 235 255 221 235 255 221 235 255 221 235 255 221 235 255 221 235 255 221 235 255 221 235 255 221 235 255 221 235 255 221 235 255 221 235 255 221 235 255 221 235 255 221 235 255 221 235 255 221 235 255 221 235 255 221 235 255 221 235 255 221 235 255 221 235 255 221 235 255 221 235 255 221 235 255 221 235 255 221 235 255 221 235 255 221 235 255 221 235 255 221 235 255 221 235 255 221 235 255 221 235 255 221 235 255 221 235 255 221 235 255 221 235 255 221 235 255 221 235 255 221 235 255 221 235 255 221 235 255 221 235 255 221 235 255 221 235 255 221 235 255 221 235 255 221 235 255 221 235 255 221 235 255 221 235 255 221 235 255 221 235 255 221 235 255 221 235 255 221 235 255 221 235 255 221 235 255 221 235 255 221 235 255 221 235 255 221 235 255 221 235 255 221 235 255 221 235 255 221 235 255 221 235 255 221 235 255 221 235 255 221 235 255 221 235 255 221 235 255 221 235 255 
221 235 255 221 235 255 221 235 255 221 235 255 221 235 255 221 235 255 221 235 255 221 235 255 221 235 255 221 235 255 221 235 255 221 235 255 221 235 255 221 235 255 221 235 255 221 235 255 221 235 255 221 235 255 221 235 255 221 235 255 221 235 255 221 235 255 221 235 255 221 235 255 221 235 255 221 235 255 221 235 255 221 235 255 221 235 255 221 235 255 221 235 255 221 235 255 221 235 255 221 235 255 221 235 255 221 235 255 221 235 255 221 235 255 221 235 255 221 235 255 221 235 255 221 235 255 221 235 255 221 235 255 221 235 255 221 235 255 221 235 255 221 235 255 221 235 255 221 235 255 221 235 255 221 235 255 221 235 255 221 235 255 221 235 255 221 235 255 221 235 255 221 235 255 221 235 255 221 235 255 221 235 255 221 235 255 221 235 255 221 235 255 221 235 255 221 235 255 221 235 255 221 235 255 221 235 255 221 235 255 221 235 255 221 235 255 221 235 255 221 235 255 221 235 255 221 235 255 221 235 255 221 235 255 221 235 255 221 235 255 221 235 255 221 235 255 221 235 255 221 235 255 221 235 255 221 235 255 221 235 255 221 235 255 221 235 255 221 235 255 221 235 255 221 235 255 221 235 255 221 235 255 221 235 255 221 235 255 221 235 255 221 235 255 221 235 255 221 235 255 221 235 255 221 235 255 221 235 255 221 235 255 221 235 255 221 235 255 221 235 255 221 235 255 221 235 255 221 235 255 221 235 255 221 235 255 221 235 255 221 235 255 221 235 255 221 235 255 221 235 255 221 235 255 221 235 255 221 235 255 221 235 255 221 235 255 221 235 255 221 235 255 221 235 255 221 235 255 221 235 255 221 235 255 221 235 255 221 235 255 221 235 255 221 235 255 221 235 255 221 235 255 221 235 255 221 235 255 221 235 255 221 235 255 221 235 255 221 235 255 221 235 255 221 235 255 221 235 255 221 235 255 221 235 255 221 235 255 221 235 255 221 235 255 221 235 255 221 235 255 221 235 255 221 235 255 221 235 255 221 235 255 221 235 255 221 235 255 221 235 255 221 235 255 221 235 255 221 235 255 221 235 255 221 235 255 221 235 255 221 235 255 221 235 255 221 235 255 221 235 255 221 235 255 221 235 255 221 235 255 221 235 255 221 235 255 221 235 255 221 235 255 221 235 255 221 235 255 221 235 255 221 235 255 221 235 255 221 235 255 221 235 255 221 235 255 221 235 255 221 235 255 221 235 255 221 235 255 221 235 255 221 235 255 221 235 255 221 235 255 221 235 255 221 235 255 221 235 255 221 235 255 221 235 255 221 235 255 221 235 255 221 235 255 221 235 255 221 235 255 221 235 255 221 235 255 221 235 255 221 235 255 221 235 255 221 235 255 221 235 255 221 235 255 221 235 255 221 235 255 221 235 255 221 235 255 221 235 255 221 235 255 221 235 255 221 235 255 221 235 255 221 235 255 221 235 255 221 235 255 221 235 255 221 235 255 221 235 255 221 235 255 221 235 255 221 235 255 221 235 255 221 235 255 221 235 255 221 235 255 221 235 255 221 235 255 221 235 255 221 235 255 221 235 255 221 235 255 221 235 255 221 235 255 221 235 255 221 235 255 221 235 255 221 235 255 221 235 255 221 235 255 221 235 255 221 235 255 221 235 255 221 235 255 221 235 255 221 235 255 221 235 255 221 235 255 221 235 255 221 235 255 221 235 255 
221 235 255 221 235 255 221 235 255 221 235 255 221 235 255 221 235 255 221 235 255 221 235 255 221 235 255 221 235 255 221 235 255 221 235 255 221 235 255 221 235 255 221 235 255 221 235 255 221 235 255 221 235 255 221 235 255 221 235 255 221 235 255 221 235 255 221 235 255 221 235 255 221 235 255 221 235 255 221 235 255 221 235 255 221 235 255 221 235 255 221 235 255 221 235 255 221 235 255 221 235 255 221 235 255 221 235 255 221 235 255 221 235 255 221 235 255 221 235 255 221 235 255 221 235 255 221 235 255 221 235 255 221 235 255 221 235 255 221 235 255 221 235 255 221 235 255 221 235 255 221 235 255 221 235 255 221 235 255 221 235 255 221 235 255 221 235 255 221 235 255 221 235 255 221 235 255 221 235 255 221 235 255 221 235 255 221 235 255 221 235 255 221 235 255 221 235 255 221 235 255 221 235 255 221 235 255 221 235 255 221 235 255 221 235 255 221 235 255 221 235 255 221 235 255 221 235 255 221 235 255 221 235 255 221 235 255 221 235 255 221 235 255 221 235 255 221 235 255 221 235 255 221 235 255 221 235 255 221 235 255 221 235 255 221 235 255 221 235 255 221 235 255 221 235 255 221 235 255 221 235 255 221 235 255 221 235 255 221 235 255 221 235 255 221 235 255 221 235 255 221 235 255 221 235 255 221 235 255 221 235 255 221 235 255 221 235 255 221 235 255 221 235 255 221 235 255 221 235 255 221 235 255 221 235 255 221 235 255 221 235 255 221 235 255 221 235 255 221 235 255 221 235 255 221 235 255 221 235 255 221 235 255 221 235 255 221 235 255 221 235 255 221 235 255 221 235 255 221 235 255 221 235 255 221 235 255 221 235 255 221 235 255 221 235 255 221 235 255 221 235 255 221 235 255 221 235 255 221 235 255 221 235 255 221 235 255 221 235 255 221 235 255 221 235 255 221 235 255 221 235 255 221 235 255 221 235 255 221 235 255 221 235 255 221 235 255 221 235 255 221 235 255 221 235 255 221 235 255 221 235 255 221 235 255 221 235 255 221 235 255 221 235 255 221 235 255 221 235 255 221 235 255 221 235 255 221 235 255 221 235 255 221 235 255 221 235 255 221 235 255 221 235 255 221 235 255 221 235 255 221 235 255 221 235 255 221 235 255 221 235 255 221 235 255 221 235 255 221 235 255 221 235 255 221 235 255 221 235 255 221 235 255 221 235 255 221 235 255 221 235 255 221 235 255 221 235 255 221 235 255 221 235 255 221 235 255 221 235 255 221 235 255 221 235 255 221 235 255 221 235 255 221 235 255 221 235 255 221 235 255 221 235 255 221 235 255 221 235 255 221 235 255 221 235 255 221 235 255 221 235 255 221 235 255 221 235 255 221 235 255 221 235 255 221 235 255 221 235 255 221 235 255 221 235 255 221 235 255 221 235 255 221 235 255 221 235 255 221 235 255 221 235 255 221 235 255 221 235 255 221 235 255 221 235 255 221 235 255 221 235 255 221 235 255 221 235 255 221 235 255 221 235 255 221 235 255 221 235 255 221 235 255 221 235 255 221 235 255 221 235 255 221 235 255 221 235 255 221 235 255 221 235 255 221 235 255 221 235 255 221 235 255 221 235 255 221 235 255 221 235 255 221 235 255 221 235 255 221 235 255 221 235 255 221 235 255 221 235 255 221 235 255 221 235 255 221 235 255 221 235 255 221 235 255 
221 235 255 221 235 255 221 235 255 221 235 255 221 235 255 221 235 255 221 235 255 221 235 255 221 235 255 221 235 255 221 235 255 221 235 255 221 235 255 221 235 255 221 235 255 221 235 255 221 235 255 221 235 255 221 235 255 221 235 255 221 235 255 221 235 255 221 235 255 221 235 255 221 235 255 221 235 255 221 235 255 221 235 255 221 235 255 221 235 255 221 235 255 221 235 255 221 235 255 221 235 255 221 235 255 221 235 255 221 235 255 221 235 255 221 235 255 221 235 255 221 235 255 221 235 255 221 235 255 221 235 255 221 235 255 221 235 255 221 235 255 221 235 255 221 235 255 221 235 255 221 235 255 221 235 255 221 235 255 221 235 255 221 235 255 221 235 255 221 235 255 221 235 255 221 235 255 221 235 255 221 235 255 221 235 255 221 235 255 221 235 255 221 235 255 221 235 255 221 235 255 221 235 255 221 235 255 221 235 255 221 235 255 221 235 255 221 235 255 221 235 255 221 235 255 221 235 255 221 235 255 221 235 255 221 235 255 221 235 255 221 235 255 221 235 255 221 235 255 221 235 255 221 235 255 221 235 255 221 235 255 221 235 255 221 235 255 221 235 255 221 235 255 221 235 255 221 235 255 221 235 255 221 235 255 221 235 255 221 235 255 221 235 255 221 235 255 221 235 255 221 235 255 221 235 255 221 235 255 221 235 255 221 235 255 221 235 255 221 235 255 221 235 255 221 235 255 221 235 255 221 235 255 221 235 255 221 235 255 221 235 255 221 235 255 221 235 255 221 235 255 221 235 255 221 235 255 221 235 255 221 235 255 221 235 255 221 235 255 221 235 255 221 235 255 221 235 255 221 235 255 221 235 255 221 235 255 221 235 255 221 235 255 221 235 255 221 235 255 221 235 255 221 235 255 221 235 255 221 235 255 221 235 255 221 235 255 221 235 255 221 235 255 221 235 255 221 235 255 221 235 255 221 235 255 221 235 255 221 235 255 221 235 255 221 235 255 221 235 255 221 235 255 221 235 255 221 235 255 221 235 255 221 235 255 221 235 255 221 235 255 221 235 255 221 235 255 221 235 255 221 235 255 221 235 255 221 235 255 221 235 255 221 235 255 221 235 255 221 235 255 221 235 255 221 235 255 221 235 255 221 235 255 221 235 255 221 235 255 221 235 255 221 235 255 221 235 255 221 235 255 221 235 255 221 235 255 221 235 255 221 235 255 221 235 255 221 235 255 221 235 255 221 235 255 221 235 255 221 235 255 221 235 255 221 235 255 221 235 255 221 235 255 221 235 255 221 235 255 221 235 255 221 235 255 221 235 255 221 235 255 221 235 255 221 235 255 221 235 255 221 235 255 221 235 255 221 235 255 221 235 255 221 235 255 221 235 255 221 235 255 221 235 255 221 235 255 221 235 255 221 235 255 221 235 255 221 235 255 221 235 255 221 235 255 221 235 255 221 235 255 221 235 255 221 235 255 221 235 255 221 235 255 221 235 255 221 235 255 221 235 255 221 235 255 221 235 255 221 235 255 221 235 255 221 235 255 221 235 255 221 235 255 221 235 255 221 235 255 221 235 255 221 235 255 221 235 255 221 235 255 221 235 255 221 235 255 221 235 255 221 235 255 221 235 255 221 235 255 221 235 255 221 235 255 221 235 255 221 235 255 221 235 255 221 235 255 221 235 255 221 235 255 221 235 255 221 235 255 221 235 255 221 235 255 
221 236 255 221 236 255 221 236 255 221 236 255 221 236 255 221 236 255 221 236 255 221 236 255 221 236 255 221 236 255 221 236 255 221 236 255 221 236 255 221 236 255 221 236 255 221 236 255 221 236 255 221 236 255 221 236 255 221 236 255 221 236 255 221 236 255 221 236 255 221 236 255 221 236 255 221 236 255 221 236 255 221 236 255 221 236 255 221 236 255 221 236 255 221 236 255 221 236 255 221 236 255 221 236 255 221 236 255 221 236 255 221 236 255 221 236 255 221 236 255 221 236 255 221 236 255 221 236 255 221 236 255 221 236 255 221 236 255 221 236 255 221 236 255 221 236 255 221 236 255 221 236 255 221 236 255 221 236 255 221 236 255 221 236 255 221 236 255 221 236 255 221 236 255 221 236 255 221 236 255 221 236 255 221 236 255 221 236 255 221 236 255 221 236 255 221 236 255 221 236 255 221 236 255 221 236 255 221 236 255 221 236 255 221 236 255 221 236 255 221 236 255 221 236 255 221 236 255 221 236 255 221 236 255 221 236 255 221 236 255 221 236 255 221 236 255 221 236 255 221 236 255 221 236 255 221 236 255 221 236 255 221 236 255 221 236 255 221 236 255 221 236 255 221 236 255 221 236 255 221 236 255 221 236 255 221 236 255 221 236 255 221 236 255 221 236 255 220 235 254 218 232 251 212 224 242 205 215 231 200 208 223 199 208 222 191 197 209 195 202 215 194 201 214 198 205 220 204 214 230 211 223 240 216 229 248 220 234 254 221 235 255 221 236 255 221 236 255 221 236 255 221 236 255 221 236 255 221 236 255 221 235 255 221 235 255 220 234 254 218 233 253 215 230 250 214 229 249 212 227 248 211 226 247 213 228 249 214 229 250 214 229 250 218 232 253 220 234 254 221 235 255 221 236 255 221 236 255 221 236 255 221 236 255 221 236 255 221 236 255 221 236 255 221 236 255 221 236 255 221 236 255 221 236 255 221 236 255 221 236 255 221 236 255 221 236 255 221 236 255 221 236 255 221 236 255 221 236 255 221 236 255 221 236 255 221 236 255 221 236 255 221 236 255 221 236 255 221 236 255 221 235 255 220 234 254 218 231 250 215 227 245 213 225 242 211 222 238 211 221 237 211 221 237 211 222 238 214 226 244 217 230 249 220 234 254 221 236 255 221 236 255 221 236 255 221 236 255 221 236 255 221 236 255 221 236 255 221 236 255 221 236 255 221 236 255 221 236 255 221 236 255 221 236 255 221 236 255 221 236 255 221 236 255 221 236 255 221 236 255 221 236 255 221 236 255 221 236 255 221 236 255 221 236 255 221 236 255 221 236 255 221 236 255 221 236 255 221 236 255 221 236 255 221 236 255 221 236 255 221 236 255 221 236 255 221 236 255 221 236 255 221 236 255 221 236 255 221 236 255 221 236 255 221 236 255 221 236 255 221 236 255 221 236 255 221 236 255 221 236 255 221 236 255 221 236 255 221 236 255 221 236 255 221 236 255 221 236 255 221 236 255 221 236 255 221 236 255 221 236 255 221 236 255 221 236 255 221 236 255 221 236 255 221 236 255 221 236 255 221 236 255 221 236 255 221 236 255 221 236 255 221 236 255 221 236 255 221 236 255 221 236 255 221 236 255 221 236 255 221 236 255 221 236 255 221 236 255 221 236 255 221 236 255 221 236 255 221 236 255 221 236 255 221 236 255 221 236 255 221 236 255 221 236 255 
221 236 255 221 236 255 221 236 255 221 236 255 221 236 255 221 236 255 221 236 255 221 236 255 221 236 255 221 236 255 221 236 255 221 236 255 221 236 255 221 236 255 221 236 255 221 236 255 221 236 255 221 236 255 221 236 255 221 236 255 221 236 255 221 236 255 221 236 255 221 236 255 221 236 255 221 236 255 221 236 255 221 236 255 221 236 255 221 236 255 221 236 255 221 236 255 221 236 255 221 236 255 221 236 255 221 236 255 221 236 255 221 236 255 221 236 255 221 236 255 221 236 255 221 236 255 221 236 255 221 236 255 221 236 255 221 236 255 221 236 255 221 236 255 221 236 255 221 236 255 221 236 255 221 236 255 221 236 255 221 236 255 221 236 255 221 236 255 221 236 255 221 236 255 221 236 255 221 236 255 221 236 255 221 236 255 221 236 255 221 236 255 221 236 255 221 236 255 221 236 255 221 236 255 221 236 255 221 236 255 221 236 255 221 236 255 221 236 255 221 236 255 221 236 255 221 236 255 221 236 255 221 236 255 221 236 255 221 236 255 221 236 255 221 236 255 221 236 255 221 236 255 221 236 255 221 236 255 221 236 255 221 236 255 221 236 255 221 236 255 221 236 255 221 236 255 221 236 255 221 236 255 221 236 255 221 236 255 220 234 254 216 229 247 207 217 234 188 192 204 175 175 183 158 152 153 144 132 127 139 124 118 134 117 107 133 114 103 133 114 103 136 118 109 139 124 117 144 131 127 156 149 149 170 169 175 187 191 202 202 210 226 215 227 246 221 235 254 221 236 255 221 235 255 219 233 253 213 228 249 206 221 243 193 209 232 183 201 224 176 194 218 169 187 211 167 186 211 164 183 208 163 182 206 165 183 208 168 186 211 169 188 212 176 194 218 181 198 222 193 209 231 204 220 242 214 229 249 219 233 254 221 235 255 221 236 255 221 236 255 221 236 255 221 236 255 221 236 255 221 236 255 221 236 255 221 236 255 221 236 255 221 236 255 221 236 255 221 236 255 221 236 255 221 236 255 221 236 255 221 236 255 221 236 255 221 235 255 217 230 248 207 217 231 201 208 220 192 198 207 183 187 192 178 180 184 176 178 181 174 177 181 174 177 181 174 176 181 174 176 181 174 176 181 174 177 181 174 177 181 176 178 181 178 180 183 183 187 192 191 196 204 197 204 215 208 218 232 216 229 247 221 235 255 221 236 255 221 236 255 221 236 255 221 236 255 221 236 255 221 236 255 221 236 255 221 236 255 221 236 255 221 236 255 221 236 255 221 236 255 221 236 255 221 236 255 221 236 255 221 236 255 221 236 255 221 236 255 221 236 255 221 236 255 221 236 255 221 236 255 221 236 255 221 236 255 221 236 255 221 236 255 221 236 255 221 236 255 221 236 255 221 236 255 221 236 255 221 236 255 221 236 255 221 236 255 221 236 255 221 236 255 221 236 255 221 236 255 221 236 255 221 236 255 221 236 255 221 236 255 221 236 255 221 236 255 221 236 255 221 236 255 221 236 255 221 236 255 221 236 255 221 236 255 221 236 255 221 236 255 221 236 255 221 236 255 221 236 255 221 236 255 221 236 255 221 236 255 221 236 255 221 236 255 221 236 255 221 236 255 221 236 255 221 236 255 221 236 255 221 236 255 221 236 255 221 236 255 221 236 255 221 236 255 221 236 255 221 236 255 221 236 255 221 236 255 221 236 255 221 236 255 221 236 255 
221 236 255 221 236 255 221 236 255 221 236 255 221 236 255 221 236 255 221 236 255 221 236 255 221 236 255 221 236 255 221 236 255 221 236 255 221 236 255 221 236 255 221 236 255 221 236 255 221 236 255 221 236 255 221 236 255 221 236 255 221 236 255 221 236 255 221 236 255 221 236 255 221 236 255 221 236 255 221 236 255 221 236 255 221 236 255 221 236 255 221 236 255 221 236 255 221 236 255 221 236 255 221 236 255 221 236 255 221 236 255 221 236 255 221 236 255 221 236 255 221 236 255 221 236 255 221 236 255 221 236 255 221 236 255 221 236 255 221 236 255 221 236 255 221 236 255 221 236 255 221 236 255 221 236 255 221 236 255 221 236 255 221 236 255 221 236 255 221 236 255 221 236 255 221 236 255 221 236 255 221 236 255 221 236 255 221 236 255 221 236 255 221 236 255 221 236 255 221 236 255 221 236 255 221 236 255 221 236 255 221 236 255 221 236 255 221 236 255 221 236 255 221 236 255 221 236 255 221 236 255 221 236 255 221 236 255 221 236 255 221 236 255 221 236 255 221 236 255 221 236 255 221 236 255 221 236 255 221 236 255 221 236 255 221 236 255 221 236 255 221 236 255 221 236 255 221 236 255 221 236 255 220 234 254 213 225 243 195 201 214 169 167 172 147 135 133 131 111 100 125 102 86 123 98 80 123 98 80 123 98 80 123 98 80 123 98 80 123 98 80 124 99 80 123 98 80 123 98 80 123 98 80 125 101 84 129 108 94 144 131 127 164 160 164 192 198 211 209 223 242 198 214 237 180 197 220 169 188 212 160 179 204 155 175 200 152 171 196 148 167 192 149 168 193 148 167 192 148 167 193 148 167 192 148 167 192 149 168 193 149 169 194 150 169 194 151 170 196 157 176 202 159 178 203 167 185 210 182 199 222 199 214 236 213 228 248 220 235 255 221 236 255 221 236 255 221 236 255 221 236 255 221 236 255 221 236 255 221 236 255 221 236 255 221 236 255 221 236 255 221 236 255 221 236 255 220 234 254 210 221 236 197 204 214 185 188 194 176 178 181 174 177 181 172 176 181 171 175 181 170 175 181 169 174 181 169 174 181 168 174 181 168 174 181 168 173 181 168 173 181 168 173 181 168 174 181 168 174 181 169 174 181 169 174 181 170 175 181 171 175 181 172 176 181 174 176 181 175 178 181 183 186 191 198 205 215 209 220 235 220 234 253 221 236 255 221 236 255 221 236 255 221 236 255 221 236 255 221 236 255 221 236 255 221 236 255 221 236 255 221 236 255 221 236 255 221 236 255 221 236 255 221 236 255 221 236 255 221 236 255 221 236 255 221 236 255 221 236 255 221 236 255 221 236 255 221 236 255 221 236 255 221 236 255 221 236 255 221 236 255 221 236 255 221 236 255 221 236 255 221 236 255 221 236 255 221 236 255 221 236 255 221 236 255 221 236 255 221 236 255 221 236 255 221 236 255 221 236 255 221 236 255 221 236 255 221 236 255 221 236 255 221 236 255 221 236 255 221 236 255 221 236 255 221 236 255 221 236 255 221 236 255 221 236 255 221 236 255 221 236 255 221 236 255 221 236 255 221 236 255 221 236 255 221 236 255 221 236 255 221 236 255 221 236 255 221 236 255 221 236 255 221 236 255 221 236 255 221 236 255 221 236 255 221 236 255 221 236 255 221 236 255 221 236 255 221 236 255 221 236 255 221 236 255 
221 236 255 221 236 255 221 236 255 221 236 255 221 236 255 221 236 255 221 236 255 221 236 255 221 236 255 221 236 255 221 236 255 221 236 255 221 236 255 221 236 255 221 236 255 221 236 255 221 236 255 221 236 255 221 236 255 221 236 255 221 236 255 221 236 255 221 236 255 221 236 255 221 236 255 221 236 255 221 236 255 221 236 255 221 236 255 221 236 255 221 236 255 221 236 255 221 236 255 221 236 255 221 236 255 221 236 255 221 236 255 221 236 255 221 236 255 221 236 255 221 236 255 221 236 255 221 236 255 221 236 255 221 236 255 221 236 255 221 236 255 221 236 255 221 236 255 221 236 255 221 236 255 221 236 255 221 236 255 221 236 255 221 236 255 221 236 255 221 236 255 221 236 255 221 236 255 221 236 255 221 236 255 221 236 255 221 236 255 221 236 255 221 236 255 221 236 255 221 236 255 221 236 255 221 236 255 221 236 255 221 236 255 221 236 255 221 236 255 221 236 255 221 236 255 221 236 255 221 236 255 221 236 255 221 236 255 221 236 255 221 236 255 221 236 255 221 236 255 221 236 255 221 236 255 221 236 255 221 236 255 221 236 255 221 236 255 221 236 255 221 236 255 221 236 255 221 235 255 214 227 245 194 201 214 167 164 169 137 121 113 124 100 83 123 98 80 123 98 80 123 98 80 123 98 79 123 98 80 123 98 79 123 98 80 123 98 80 122 98 79 123 98 80 123 98 80 123 98 79 123 98 80 123 98 80 122 98 79 129 110 99 149 145 150 169 181 201 169 187 211 156 175 199 154 173 198 149 168 193 146 164 189 146 165 190 144 164 189 144 163 188 140 159 184 143 162 187 143 162 187 141 160 185 142 161 186 143 163 188 141 160 185 143 162 187 143 161 186 145 164 189 146 165 190 149 167 192 150 169 194 159 178 203 168 186 211 188 205 228 207 223 244 219 233 254 221 236 255 221 236 255 221 236 255 221 236 255 221 236 255 221 236 255 221 236 255 221 235 255 213 225 241 198 205 216 181 184 188 174 177 181 172 176 181 171 175 181 169 174 181 168 174 181 167 173 181 166 173 181 166 172 181 165 172 181 164 172 181 164 172 181 164 172 181 164 171 181 164 172 181 164 172 181 164 172 181 164 172 181 164 172 181 165 172 181 166 172 181 166 173 181 167 173 181 168 174 181 169 174 181 171 175 181 172 176 181 174 177 181 180 183 187 195 202 211 213 225 241 221 235 255 221 236 255 221 236 255 221 236 255 221 236 255 221 236 255 221 236 255 221 236 255 221 236 255 221 236 255 221 236 255 221 236 255 221 236 255 221 236 255 221 236 255 221 236 255 221 236 255 221 236 255 221 236 255 221 236 255 221 236 255 221 236 255 221 236 255 221 236 255 221 236 255 221 236 255 221 236 255 221 236 255 221 236 255 221 236 255 221 236 255 221 236 255 221 236 255 221 236 255 221 236 255 221 236 255 221 236 255 221 236 255 221 236 255 221 236 255 221 236 255 221 236 255 221 236 255 221 236 255 221 236 255 221 236 255 221 236 255 221 236 255 221 236 255 221 236 255 221 236 255 221 236 255 221 236 255 221 236 255 221 236 255 221 236 255 221 236 255 221 236 255 221 236 255 221 236 255 221 236 255 221 236 255 221 236 255 221 236 255 221 236 255 221 236 255 221 236 255 221 236 255 221 236 255 221 236 255 221 236 255 221 236 255 
222 236 255 222 236 255 222 236 255 222 236 255 222 236 255 222 236 255 222 236 255 222 236 255 222 236 255 222 236 255 222 236 255 222 236 255 222 236 255 222 236 255 222 236 255 222 236 255 222 236 255 222 236 255 222 236 255 222 236 255 222 236 255 222 236 255 222 236 255 222 236 255 222 236 255 222 236 255 222 236 255 222 236 255 222 236 255 222 236 255 222 236 255 222 236 255 222 236 255 222 236 255 222 236 255 222 236 255 222 236 255 222 236 255 222 236 255 222 236 255 222 236 255 222 236 255 222 236 255 222 236 255 222 236 255 222 236 255 222 236 255 222 236 255 222 236 255 222 236 255 222 236 255 222 236 255 222 236 255 222 236 255 222 236 255 222 236 255 222 236 255 222 236 255 222 236 255 222 236 255 222 236 255 222 236 255 222 236 255 222 236 255 222 236 255 222 236 255 222 236 255 222 236 255 222 236 255 222 236 255 222 236 255 222 236 255 222 236 255 222 236 255 222 236 255 222 236 255 222 236 255 222 236 255 222 236 255 222 236 255 222 236 255 222 236 255 222 236 255 222 236 255 222 236 255 222 236 255 222 236 255 222 236 255 222 236 255 222 236 255 222 236 255 221 234 254 207 217 233 172 171 178 140 124 118 124 100 83 123 98 79 123 98 79 122 97 79 122 97 79 123 98 79 122 97 79 122 97 79 123 98 79 122 97 79 123 98 79 122 97 79 122 97 79 123 98 79 122 97 79 123 98 79 125 104 90 146 141 146 166 177 196 166 183 207 157 176 202 150 169 194 146 165 189 146 165 190 142 161 186 142 161 185 141 160 184 139 157 182 139 158 183 138 157 181 139 158 183 139 158 183 139 158 183 140 158 183 139 157 182 140 158 183 138 157 181 140 158 183 140 159 183 142 161 186 143 162 187 143 162 186 146 165 189 148 166 191 156 174 199 168 186 210 188 205 228 210 225 246 221 235 255 222 236 255 222 236 255 222 236 255 221 234 254 209 220 234 186 190 196 176 178 181 173 176 181 171 175 181 169 174 181 168 173 181 166 173 181 165 172 181 164 172 181 163 171 181 163 171 181 162 171 181 162 171 181 161 170 181 161 170 181 161 170 181 161 170 181 161 170 181 161 170 181 161 170 181 161 170 181 161 170 181 162 171 181 162 171 181 163 171 181 164 171 181 164 172 181 165 172 181 166 173 181 168 173 181 169 174 181 171 175 181 173 176 181 175 177 181 187 191 197 206 215 228 220 234 253 222 236 255 222 236 255 222 236 255 222 236 255 222 236 255 222 236 255 222 236 255 222 236 255 222 236 255 222 236 255 222 236 255 222 236 255 222 236 255 222 236 255 222 236 255 222 236 255 222 236 255 222 236 255 222 236 255 222 236 255 222 236 255 222 236 255 222 236 255 222 236 255 222 236 255 222 236 255 222 236 255 222 236 255 222 236 255 222 236 255 222 236 255 222 236 255 222 236 255 222 236 255 222 236 255 222 236 255 222 236 255 222 236 255 222 236 255 222 236 255 222 236 255 222 236 255 222 236 255 222 236 255 222 236 255 222 236 255 222 236 255 222 236 255 222 236 255 222 236 255 222 236 255 222 236 255 222 236 255 222 236 255 222 236 255 222 236 255 222 236 255 222 236 255 222 236 255 222 236 255 222 236 255 222 236 255 222 236 255 222 236 255 222 236 255 222 236 255 222 236 255 222 236 255 222 236 255 
222 236 255 222 236 255 222 236 255 222 236 255 222 236 255 222 236 255 222 236 255 222 236 255 222 236 255 222 236 255 222 236 255 222 236 255 222 236 255 222 236 255 222 236 255 222 236 255 222 236 255 222 236 255 222 236 255 222 236 255 222 236 255 222 236 255 222 236 255 222 236 255 222 236 255 222 236 255 222 236 255 222 236 255 222 236 255 222 236 255 222 236 255 222 236 255 222 236 255 222 236 255 222 236 255 222 236 255 222 236 255 222 236 255 222 236 255 222 236 255 222 236 255 222 236 255 222 236 255 222 236 255 222 236 255 222 236 255 222 236 255 222 236 255 222 236 255 222 236 255 222 236 255 222 236 255 222 236 255 222 236 255 222 236 255 222 236 255 222 236 255 222 236 255 222 236 255 222 236 255 222 236 255 222 236 255 222 236 255 222 236 255 222 236 255 222 236 255 222 236 255 222 236 255 222 236 255 222 236 255 222 236 255 222 236 255 222 236 255 222 236 255 222 236 255 222 236 255 222 236 255 222 236 255 222 236 255 222 236 255 222 236 255 222 236 255 222 236 255 222 236 255 222 236 255 222 236 255 222 236 255 222 236 255 222 236 255 222 236 255 218 231 250 193 199 212 156 149 150 126 103 89 122 97 79 123 98 79 122 97 79 122 97 79 122 97 79 122 97 79 122 97 79 122 97 78 123 98 79 122 97 79 123 97 79 122 97 79 122 97 78 122 97 79 122 97 79 123 98 80 138 127 124 161 170 186 165 183 206 154 172 197 150 169 194 146 164 189 144 163 187 142 161 185 140 158 183 140 158 183 139 158 183 138 157 181 137 155 179 138 157 182 136 154 179 138 156 181 139 158 183 137 155 179 137 155 180 137 156 180 137 155 179 138 157 181 137 156 180 138 156 181 139 158 182 139 157 181 141 159 184 142 160 184 143 161 186 146 165 189 148 166 191 156 175 199 166 184 208 193 209 231 215 229 250 221 235 255 207 217 230 185 188 193 175 177 181 172 176 181 170 175 181 168 174 181 167 173 181 165 172 181 164 172 181 163 171 181 162 171 181 161 170 181 161 170 181 160 170 181 160 170 181 159 169 181 159 169 181 159 169 181 158 169 181 158 169 181 158 169 181 158 169 181 158 169 181 159 169 181 159 169 181 159 169 181 160 170 181 160 170 181 161 170 181 161 170 181 162 171 181 163 171 181 164 172 181 165 172 181 167 173 181 168 174 181 170 175 181 172 176 181 175 177 181 185 188 193 207 216 230 220 234 253 222 236 255 222 236 255 222 236 255 222 236 255 222 236 255 222 236 255 222 236 255 222 236 255 222 236 255 222 236 255 222 236 255 222 236 255 222 236 255 222 236 255 222 236 255 222 236 255 222 236 255 222 236 255 222 236 255 222 236 255 222 236 255 222 236 255 222 236 255 222 236 255 222 236 255 222 236 255 222 236 255 222 236 255 222 236 255 222 236 255 222 236 255 222 236 255 222 236 255 222 236 255 222 236 255 222 236 255 222 236 255 222 236 255 222 236 255 222 236 255 222 236 255 222 236 255 222 236 255 222 236 255 222 236 255 222 236 255 222 236 255 222 236 255 222 236 255 222 236 255 222 236 255 222 236 255 222 236 255 222 236 255 222 236 255 222 236 255 222 236 255 222 236 255 222 236 255 222 236 255 222 236 255 222 236 255 222 236 255 222 236 255 222 236 255 222 236 255 222 236 255 
222 236 255 222 236 255 222 236 255 222 236 255 222 236 255 222 236 255 222 236 255 222 236 255 222 236 255 222 236 255 222 236 255 222 236 255 222 236 255 222 236 255 222 236 255 222 236 255 222 236 255 222 236 255 222 236 255 222 236 255 222 236 255 222 236 255 222 236 255 222 236 255 222 236 255 222 236 255 222 236 255 222 236 255 222 236 255 222 236 255 222 236 255 222 236 255 222 236 255 222 236 255 222 236 255 222 236 255 222 236 255 222 236 255 222 236 255 222 236 255 222 236 255 222 236 255 222 236 255 222 236 255 222 236 255 222 236 255 222 236 255 222 236 255 222 236 255 222 236 255 222 236 255 222 236 255 222 236 255 222 236 255 222 236 255 222 236 255 222 236 255 222 236 255 222 236 255 222 236 255 222 236 255 222 236 255 222 236 255 222 236 255 222 236 255 222 236 255 222 236 255 222 236 255 222 236 255 222 236 255 222 236 255 222 236 255 222 236 255 222 236 255 222 236 255 222 236 255 222 236 255 222 236 255 222 236 255 222 236 255 222 236 255 222 236 255 222 236 255 222 236 255 222 236 255 222 236 255 222 236 255 222 236 255 222 236 255 217 230 248 186 190 201 143 130 125 123 99 82 122 97 78 122 97 78 122 97 79 122 97 78 121 97 78 122 97 79 122 97 78 122 97 78 122 97 78 122 97 78 122 97 78 121 96 78 122 97 78 122 97 78 122 97 78 124 101 85 146 143 148 167 180 201 159 178 202 152 171 197 147 166 191 143 161 185 141 159 183 140 158 182 140 159 183 138 157 182 138 156 181 137 155 180 136 154 177 136 154 179 137 155 179 136 154 178 136 154 178 135 153 177 136 155 179 136 154 178 136 154 178 135 153 177 135 153 177 136 155 179 135 153 177 137 155 179 137 155 179 138 156 180 138 156 180 139 157 181 140 158 183 143 161 186 147 165 190 151 169 193 158 176 201 182 194 211 185 189 194 175 177 181 172 176 181 170 175 181 168 174 181 167 173 181 165 172 181 164 172 181 163 171 181 162 171 181 161 170 181 160 170 181 159 169 181 159 169 181 158 169 181 158 169 181 157 168 181 157 168 181 157 168 181 156 168 181 156 168 181 156 168 181 156 168 181 156 168 181 157 168 181 157 168 181 157 168 181 158 169 181 158 169 181 159 169 181 159 169 181 160 170 181 161 170 181 162 171 181 163 171 181 164 172 181 165 172 181 167 173 181 168 174 181 170 175 181 172 176 181 175 177 181 186 189 194 211 221 236 222 236 255 222 236 255 222 236 255 222 236 255 222 236 255 222 236 255 222 236 255 222 236 255 222 236 255 222 236 255 222 236 255 222 236 255 222 236 255 222 236 255 222 236 255 222 236 255 222 236 255 222 236 255 222 236 255 222 236 255 222 236 255 222 236 255 222 236 255 222 236 255 222 236 255 222 236 255 222 236 255 222 236 255 222 236 255 222 236 255 222 236 255 222 236 255 222 236 255 222 236 255 222 236 255 222 236 255 222 236 255 222 236 255 222 236 255 222 236 255 222 236 255 222 236 255 222 236 255 222 236 255 222 236 255 222 236 255 222 236 255 222 236 255 222 236 255 222 236 255 222 236 255 222 236 255 222 236 255 222 236 255 222 236 255 222 236 255 222 236 255 222 236 255 222 236 255 222 236 255 222 236 255 222 236 255 222 236 255 222 236 255 222 236 255 222 236 255 
222 236 255 222 236 255 222 236 255 222 236 255 222 236 255 222 236 255 222 236 255 222 236 255 222 236 255 222 236 255 222 236 255 222 236 255 222 236 255 222 236 255 222 236 255 222 236 255 222 236 255 222 236 255 222 236 255 222 236 255 222 236 255 222 236 255 222 236 255 222 236 255 222 236 255 222 236 255 222 236 255 222 236 255 222 236 255 222 236 255 222 236 255 222 236 255 222 236 255 222 236 255 222 236 255 222 236 255 222 236 255 222 236 255 222 236 255 222 236 255 222 236 255 222 236 255 222 236 255 222 236 255 222 236 255 222 236 255 222 236 255 222 236 255 222 236 255 222 236 255 222 236 255 222 236 255 222 236 255 222 236 255 222 236 255 222 236 255 222 236 255 222 236 255 222 236 255 222 236 255 222 236 255 222 236 255 222 236 255 222 236 255 222 236 255 222 236 255 222 236 255 222 236 255 222 236 255 222 236 255 222 236 255 222 236 255 222 236 255 222 236 255 222 236 255 222 236 255 222 236 255 222 236 255 222 236 255 222 236 255 222 236 255 222 236 255 222 236 255 222 236 255 222 236 255 222 236 255 222 236 255 222 236 255 215 228 246 186 190 201 138 123 116 123 98 80 121 96 78 122 97 78 122 97 78 121 96 77 121 96 78 122 97 78 122 97 78 121 96 78 121 96 78 121 96 78 122 97 78 121 96 78 122 97 78 121 96 78 121 96 78 128 108 98 155 159 172 162 179 202 154 172 197 148 167 191 144 162 187 142 160 185 141 159 184 139 157 181 138 156 180 138 157 181 137 155 179 137 156 180 137 155 179 135 152 176 135 152 176 135 153 177 135 153 177 135 152 176 135 153 177 134 151 175 133 150 173 133 150 173 134 152 175 132 149 172 133 151 174 134 152 175 134 151 174 136 153 177 135 152 176 138 156 180 137 154 178 138 156 180 139 157 181 142 160 184 148 164 185 169 175 184 176 178 181 173 176 181 171 175 181 169 174 181 167 173 181 165 172 181 164 172 181 163 171 181 161 170 181 160 170 181 160 170 181 159 169 181 158 169 181 157 168 181 157 168 181 156 168 181 156 168 181 156 168 181 155 167 181 155 167 181 155 167 181 155 167 181 155 167 181 155 167 181 155 167 181 155 167 181 155 167 181 156 168 181 156 168 181 156 168 181 157 168 181 158 169 181 158 169 181 159 169 181 160 170 181 161 170 181 162 170 181 163 171 181 164 172 181 165 172 181 167 173 181 169 174 181 171 175 181 173 176 181 177 178 181 195 200 208 218 231 249 222 236 255 222 236 255 222 236 255 222 236 255 222 236 255 222 236 255 222 236 255 222 236 255 222 236 255 222 236 255 222 236 255 222 236 255 222 236 255 222 236 255 222 236 255 222 236 255 222 236 255 222 236 255 222 236 255 222 236 255 222 236 255 222 236 255 222 236 255 222 236 255 222 236 255 222 236 255 222 236 255 222 236 255 222 236 255 222 236 255 222 236 255 222 236 255 222 236 255 222 236 255 222 236 255 222 236 255 222 236 255 222 236 255 222 236 255 222 236 255 222 236 255 222 236 255 222 236 255 222 236 255 222 236 255 222 236 255 222 236 255 222 236 255 222 236 255 222 236 255 222 236 255 222 236 255 222 236 255 222 236 255 222 236 255 222 236 255 222 236 255 222 236 255 222 236 255 222 236 255 222 236 255 222 236 255 222 236 255 222 236 255 
222 236 255 222 236 255 222 236 255 222 236 255 222 236 255 222 236 255 222 236 255 222 236 255 222 236 255 222 236 255 222 236 255 222 236 255 222 236 255 222 236 255 222 236 255 222 236 255 222 236 255 222 236 255 222 236 255 222 236 255 222 236 255 222 236 255 222 236 255 222 236 255 222 236 255 222 236 255 222 236 255 222 236 255 222 236 255 222 236 255 222 236 255 222 236 255 222 236 255 222 236 255 222 236 255 222 236 255 222 236 255 222 236 255 222 236 255 222 236 255 222 236 255 222 236 255 222 236 255 222 236 255 222 236 255 222 236 255 222 236 255 222 236 255 222 236 255 222 236 255 222 236 255 222 236 255 222 236 255 222 236 255 222 236 255 222 236 255 222 236 255 222 236 255 222 236 255 222 236 255 222 236 255 222 236 255 222 236 255 222 236 255 222 236 255 222 236 255 222 236 255 222 236 255 222 236 255 222 236 255 222 236 255 222 236 255 222 236 255 222 236 255 222 236 255 222 236 255 222 236 255 222 236 255 222 236 255 222 236 255 222 236 255 222 236 255 222 236 255 222 236 255 222 236 255 222 236 255 222 236 255 218 231 250 188 192 203 138 122 116 122 96 78 122 96 78 121 96 77 121 96 78 121 96 78 121 96 78 122 96 78 122 96 78 122 96 78 122 97 78 121 96 78 121 96 77 121 96 77 120 95 77 120 96 77 121 96 77 130 112 104 159 168 184 162 179 203 151 170 195 147 165 190 144 162 187 141 159 183 141 160 184 137 155 179 139 157 182 136 154 178 137 154 178 136 154 177 134 152 176 135 153 177 134 152 175 134 151 175 134 152 175 134 151 175 133 151 174 135 153 177 134 152 175 132 148 171 134 151 174 132 150 173 132 149 172 133 150 173 133 150 172 132 149 172 134 151 174 132 149 172 134 152 175 136 153 177 136 154 177 136 154 177 154 164 179 175 177 180 175 177 181 172 176 181 170 174 181 168 173 181 166 173 181 164 172 181 163 171 181 162 171 181 161 170 181 160 170 181 159 169 181 158 169 181 157 168 181 157 168 181 156 168 181 155 168 181 155 167 181 155 167 181 154 167 181 154 167 181 154 167 181 154 167 181 154 167 181 154 167 181 154 167 181 154 167 181 154 167 181 154 167 181 154 167 181 155 167 181 155 167 181 156 168 181 156 168 181 157 168 181 157 168 181 158 169 181 159 169 181 160 170 181 161 170 181 162 171 181 163 171 181 164 172 181 166 173 181 168 173 181 170 174 181 172 176 181 175 177 181 182 184 188 208 218 232 222 236 255 222 236 255 222 236 255 222 236 255 222 236 255 222 236 255 222 236 255 222 236 255 222 236 255 222 236 255 222 236 255 222 236 255 222 236 255 222 236 255 222 236 255 222 236 255 222 236 255 222 236 255 222 236 255 222 236 255 222 236 255 222 236 255 222 236 255 222 236 255 222 236 255 222 236 255 222 236 255 222 236 255 222 236 255 222 236 255 222 236 255 222 236 255 222 236 255 222 236 255 222 236 255 222 236 255 222 236 255 222 236 255 222 236 255 222 236 255 222 236 255 222 236 255 222 236 255 222 236 255 222 236 255 222 236 255 222 236 255 222 236 255 222 236 255 222 236 255 222 236 255 222 236 255 222 236 255 222 236 255 222 236 255 222 236 255 222 236 255 222 236 255 222 236 255 222 236 255 222 236 255 222 236 255 222 236 255 
222 236 255 222 236 255 222 236 255 222 236 255 222 236 255 222 236 255 222 236 255 222 236 255 222 236 255 222 236 255 222 236 255 222 236 255 222 236 255 222 236 255 222 236 255 222 236 255 222 236 255 222 236 255 222 236 255 222 236 255 222 236 255 222 236 255 222 236 255 222 236 255 222 236 255 222 236 255 222 236 255 222 236 255 222 236 255 222 236 255 222 236 255 222 236 255 222 236 255 222 236 255 222 236 255 222 236 255 222 236 255 222 236 255 222 236 255 222 236 255 222 236 255 222 236 255 222 236 255 222 236 255 222 236 255 222 236 255 222 236 255 222 236 255 222 236 255 222 236 255 222 236 255 222 236 255 222 236 255 222 236 255 222 236 255 222 236 255 222 236 255 222 236 255 222 236 255 222 236 255 222 236 255 222 236 255 222 236 255 222 236 255 222 236 255 222 236 255 222 236 255 222 236 255 222 236 255 222 236 255 222 236 255 222 236 255 222 236 255 222 236 255 222 236 255 222 236 255 222 236 255 222 236 255 222 236 255 222 236 255 222 236 255 222 236 255 222 236 255 222 236 255 222 236 255 222 236 255 220 234 253 195 201 214 143 130 126 120 95 77 121 96 78 121 96 77 122 96 78 121 96 78 121 96 77 121 96 77 121 96 77 121 95 77 120 95 77 119 95 77 121 95 77 121 96 77 121 96 77 120 95 77 121 96 77 130 113 105 162 170 187 164 182 206 151 169 194 146 165 190 142 161 185 141 159 183 141 159 184 138 156 180 137 155 179 136 154 178 136 153 177 135 152 176 136 153 177 135 153 177 134 151 174 134 151 174 131 148 171 133 150 174 131 147 170 131 148 171 132 149 172 131 148 171 131 148 171 132 149 173 131 148 171 130 147 169 131 148 171 131 148 170 132 148 171 133 150 173 133 150 173 132 149 172 133 150 173 135 152 174 160 167 176 177 178 180 174 176 181 171 175 181 169 174 181 167 173 181 165 172 181 164 172 181 162 171 181 161 170 181 160 170 181 159 169 181 158 169 181 157 168 181 157 168 181 156 168 181 155 168 181 155 167 181 154 167 181 154 167 181 154 167 181 153 167 181 153 166 181 153 166 181 153 166 181 153 166 181 153 166 181 153 166 181 153 166 181 153 166 181 153 166 181 153 167 181 154 167 181 154 167 181 154 167 181 155 167 181 156 168 181 156 168 181 157 168 181 158 169 181 158 169 181 159 169 181 160 170 181 161 170 181 163 171 181 164 172 181 165 172 181 167 173 181 169 174 181 171 175 181 174 176 181 177 178 181 198 204 213 220 234 253 222 236 255 222 236 255 222 236 255 222 236 255 222 236 255 222 236 255 222 236 255 222 236 255 222 236 255 222 236 255 222 236 255 222 236 255 222 236 255 222 236 255 222 236 255 222 236 255 222 236 255 222 236 255 222 236 255 222 236 255 222 236 255 222 236 255 222 236 255 222 236 255 222 236 255 222 236 255 222 236 255 222 236 255 222 236 255 222 236 255 222 236 255 222 236 255 222 236 255 222 236 255 222 236 255 222 236 255 222 236 255 222 236 255 222 236 255 222 236 255 222 236 255 222 236 255 222 236 255 222 236 255 222 236 255 222 236 255 222 236 255 222 236 255 222 236 255 222 236 255 222 236 255 222 236 255 222 236 255 222 236 255 222 236 255 222 236 255 222 236 255 222 236 255 222 236 255 222 236 255 222 236 255 
222 236 255 222 236 255 222 236 255 222 236 255 222 236 255 222 236 255 222 236 255 222 236 255 222 236 255 222 236 255 222 236 255 222 236 255 222 236 255 222 236 255 222 236 255 222 236 255 222 236 255 222 236 255 222 236 255 222 236 255 222 236 255 222 236 255 222 236 255 222 236 255 222 236 255 222 236 255 222 236 255 222 236 255 222 236 255 222 236 255 222 236 255 222 236 255 222 236 255 222 236 255 222 236 255 222 236 255 222 236 255 222 236 255 222 236 255 222 236 255 222 236 255 222 236 255 222 236 255 222 236 255 222 236 255 222 236 255 222 236 255 222 236 255 222 236 255 222 236 255 222 236 255 222 236 255 222 236 255 222 236 255 222 236 255 222 236 255 222 236 255 222 236 255 222 236 255 222 236 255 222 236 255 222 236 255 222 236 255 222 236 255 222 236 255 222 236 255 222 236 255 222 236 255 222 236 255 222 236 255 222 236 255 222 236 255 222 236 255 222 236 255 222 236 255 222 236 255 222 236 255 222 236 255 222 236 255 222 236 255 222 236 255 222 236 255 222 236 255 222 236 255 222 236 255 222 236 255 205 215 230 151 143 142 122 97 80 120 95 77 120 95 77 120 95 77 121 95 77 120 95 77 120 95 77 120 95 76 120 95 77 120 95 77 119 94 76 120 95 77 120 95 77 120 95 77 120 95 76 119 94 76 126 107 97 160 168 184 160 177 201 151 169 194 145 163 187 142 161 185 140 158 182 140 158 183 137 155 178 137 155 179 137 155 180 136 154 178 135 152 175 135 153 176 135 152 176 133 150 174 132 149 171 134 151 175 132 149 172 132 149 172 131 147 169 131 148 171 131 147 170 130 146 169 130 146 168 131 147 170 130 147 169 129 144 166 129 144 165 129 145 167 129 145 167 129 145 167 131 147 169 131 147 169 135 149 169 168 171 177 176 178 181 173 176 181 170 175 181 168 174 181 167 173 181 165 172 181 163 171 181 162 171 181 161 170 181 160 170 181 159 169 181 158 169 181 157 168 181 156 168 181 156 168 181 155 167 181 155 167 181 154 167 181 154 167 181 153 166 181 153 166 181 153 166 181 152 166 181 152 166 181 152 166 181 152 166 181 152 166 181 152 166 181 152 166 181 152 166 181 152 166 181 153 166 181 153 166 181 153 166 181 154 167 181 154 167 181 155 167 181 155 167 181 156 168 181 157 168 181 157 168 181 158 169 181 159 169 181 160 170 181 161 170 181 162 171 181 164 171 181 165 172 181 167 173 181 168 174 181 170 175 181 173 176 181 176 178 181 189 192 198 217 230 247 222 236 255 222 236 255 222 236 255 222 236 255 222 236 255 222 236 255 222 236 255 222 236 255 222 236 255 222 236 255 222 236 255 222 236 255 222 236 255 222 236 255 222 236 255 222 236 255 222 236 255 222 236 255 222 236 255 222 236 255 222 236 255 222 236 255 222 236 255 222 236 255 222 236 255 222 236 255 222 236 255 222 236 255 222 236 255 222 236 255 222 236 255 222 236 255 222 236 255 222 236 255 222 236 255 222 236 255 222 236 255 222 236 255 222 236 255 222 236 255 222 236 255 222 236 255 222 236 255 222 236 255 222 236 255 222 236 255 222 236 255 222 236 255 222 236 255 222 236 255 222 236 255 222 236 255 222 236 255 222 236 255 222 236 255 222 236 255 222 236 255 222 236 255 222 236 255 222 236 255 
222 236 255 222 236 255 222 236 255 222 236 255 222 236 255 222 236 255 222 236 255 222 236 255 222 236 255 222 236 255 222 236 255 222 236 255 222 236 255 222 236 255 222 236 255 222 236 255 222 236 255 222 236 255 222 236 255 222 236 255 222 236 255 222 236 255 222 236 255 222 236 255 222 236 255 222 236 255 222 236 255 222 236 255 222 236 255 222 236 255 222 236 255 222 236 255 222 236 255 222 236 255 222 236 255 222 236 255 222 236 255 222 236 255 222 236 255 222 236 255 222 236 255 222 236 255 222 236 255 222 236 255 222 236 255 222 236 255 222 236 255 222 236 255 222 236 255 222 236 255 222 236 255 222 236 255 222 236 255 222 236 255 222 236 255 222 236 255 222 236 255 222 236 255 222 236 255 222 236 255 222 236 255 222 236 255 222 236 255 222 236 255 222 236 255 222 236 255 222 236 255 222 236 255 222 236 255 222 236 255 222 236 255 222 236 255 222 236 255 222 236 255 222 236 255 222 236 255 222 236 255 222 236 255 222 236 255 222 236 255 222 236 255 222 236 255 222 236 255 222 236 255 222 236 255 214 226 244 167 165 170 124 101 86 119 94 76 121 95 77 120 95 76 120 95 77 120 95 76 119 94 76 120 95 77 120 95 76 120 95 77 118 94 76 119 94 76 120 95 76 119 94 76 120 95 76 120 95 76 124 103 90 156 162 176 162 179 202 151 170 194 146 164 188 144 162 186 140 158 182 139 157 181 138 155 179 137 155 179 137 155 179 135 152 176 136 154 177 134 151 174 134 152 176 133 150 173 132 149 172 133 150 173 131 147 170 132 149 172 131 148 170 129 146 168 130 146 168 131 147 170 130 146 168 128 144 166 128 143 164 128 144 165 127 142 163 128 143 164 128 143 164 126 140 161 128 143 164 128 143 164 137 150 168 171 173 177 176 177 181 173 176 181 170 175 181 168 174 181 166 173 181 165 172 181 163 171 181 162 171 181 161 170 181 160 170 181 159 169 181 158 169 181 157 168 181 156 168 181 156 168 181 155 167 181 154 167 181 154 167 181 153 167 181 153 166 181 153 166 181 152 166 181 152 166 181 152 166 181 152 166 181 152 166 181 151 166 181 151 166 181 151 166 181 152 166 181 152 166 181 152 166 181 152 166 181 152 166 181 153 166 181 153 166 181 153 167 181 154 167 181 154 167 181 155 167 181 156 168 181 156 168 181 157 168 181 158 169 181 159 169 181 160 170 181 161 170 181 162 171 181 164 171 181 165 172 181 167 173 181 168 174 181 170 175 181 173 176 181 176 177 181 184 186 189 215 226 243 222 236 255 222 236 255 222 236 255 222 236 255 222 236 255 222 236 255 222 236 255 222 236 255 222 236 255 222 236 255 222 236 255 222 236 255 222 236 255 222 236 255 222 236 255 222 236 255 222 236 255 222 236 255 222 236 255 222 236 255 222 236 255 222 236 255 222 236 255 222 236 255 222 236 255 222 236 255 222 236 255 222 236 255 222 236 255 222 236 255 222 236 255 222 236 255 222 236 255 222 236 255 222 236 255 222 236 255 222 236 255 222 236 255 222 236 255 222 236 255 222 236 255 222 236 255 222 236 255 222 236 255 222 236 255 222 236 255 222 236 255 222 236 255 222 236 255 222 236 255 222 236 255 222 236 255 222 236 255 222 236 255 222 236 255 222 236 255 222 236 255 222 236 255 222 236 255 
222 236 255 222 236 255 222 236 255 222 236 255 222 236 255 222 236 255 222 236 255 222 236 255 222 236 255 222 236 255 222 236 255 222 236 255 222 236 255 222 236 255 222 236 255 222 236 255 222 236 255 222 236 255 222 236 255 222 236 255 222 236 255 222 236 255 222 236 255 222 236 255 222 236 255 222 236 255 222 236 255 222 236 255 222 236 255 222 236 255 222 236 255 222 236 255 222 236 255 222 236 255 222 236 255 222 236 255 222 236 255 222 236 255 222 236 255 222 236 255 222 236 255 222 236 255 222 236 255 222 236 255 222 236 255 222 236 255 222 236 255 222 236 255 222 236 255 222 236 255 222 236 255 222 236 255 222 236 255 222 236 255 222 236 255 222 236 255 222 236 255 222 236 255 222 236 255 222 236 255 222 236 255 222 236 255 222 236 255 222 236 255 222 236 255 222 236 255 222 236 255 222 236 255 222 236 255 222 236 255 222 236 255 222 236 255 222 236 255 222 236 255 222 236 255 222 236 255 222 236 255 222 236 255 222 236 255 222 236 255 222 236 255 222 236 255 222 236 255 222 236 255 221 235 254 190 195 207 134 117 108 119 94 76 120 95 76 119 94 76 119 94 76 119 94 76 119 94 76 119 94 76 119 94 76 119 94 76 119 94 76 118 93 75 120 95 76 118 93 75 119 94 76 119 94 76 120 96 79 148 148 156 167 184 207 151 169 193 147 165 190 143 162 186 141 159 183 140 159 183 138 156 180 138 156 180 137 155 179 135 153 176 136 153 177 134 152 175 133 150 174 134 151 174 133 150 173 130 146 168 131 147 169 130 146 168 129 145 167 130 146 169 128 143 164 129 145 167 127 143 164 127 142 164 125 139 160 126 140 162 125 139 160 125 139 160 123 137 158 126 141 162 124 138 159 126 140 161 135 144 159 174 175 178 175 177 181 173 176 181 170 175 181 168 174 181 166 173 181 165 172 181 164 171 181 162 171 181 161 170 181 160 170 181 159 169 181 158 169 181 157 168 181 156 168 181 156 168 181 155 167 181 154 167 181 154 167 181 153 167 181 153 166 181 153 166 181 152 166 181 152 166 181 152 166 181 151 166 181 151 166 181 151 166 181 151 166 181 151 165 181 151 166 181 151 166 181 151 166 181 152 166 181 152 166 181 152 166 181 152 166 181 153 166 181 153 166 181 153 167 181 154 167 181 155 167 181 155 167 181 156 168 181 157 168 181 157 168 181 158 169 181 159 169 181 160 170 181 161 170 181 162 171 181 164 172 181 165 172 181 167 173 181 168 174 181 170 175 181 173 176 181 175 177 181 182 183 186 213 224 239 222 236 255 222 236 255 222 236 255 222 236 255 222 236 255 222 236 255 222 236 255 222 236 255 222 236 255 222 236 255 222 236 255 222 236 255 222 236 255 222 236 255 222 236 255 222 236 255 222 236 255 222 236 255 222 236 255 222 236 255 222 236 255 222 236 255 222 236 255 222 236 255 222 236 255 222 236 255 222 236 255 222 236 255 222 236 255 222 236 255 222 236 255 222 236 255 222 236 255 222 236 255 222 236 255 222 236 255 222 236 255 222 236 255 222 236 255 222 236 255 222 236 255 222 236 255 222 236 255 222 236 255 222 236 255 222 236 255 222 236 255 222 236 255 222 236 255 222 236 255 222 236 255 222 236 255 222 236 255 222 236 255 222 236 255 222 236 255 222 236 255 222 236 255 
222 236 255 222 236 255 222 236 255 222 236 255 222 236 255 222 236 255 222 236 255 222 236 255 222 236 255 222 236 255 222 236 255 222 236 255 222 236 255 222 236 255 222 236 255 222 236 255 222 236 255 222 236 255 222 236 255 222 236 255 222 236 255 222 236 255 222 236 255 222 236 255 222 236 255 222 236 255 222 236 255 222 236 255 222 236 255 222 236 255 222 236 255 222 236 255 222 236 255 222 236 255 222 236 255 222 236 255 222 236 255 222 236 255 222 236 255 222 236 255 222 236 255 222 236 255 222 236 255 222 236 255 222 236 255 222 236 255 222 236 255 222 236 255 222 236 255 222 236 255 222 236 255 222 236 255 222 236 255 222 236 255 222 236 255 222 236 255 222 236 255 222 236 255 222 236 255 222 236 255 222 236 255 222 236 255 222 236 255 222 236 255 222 236 255 222 236 255 222 236 255 222 236 255 222 236 255 222 236 255 222 236 255 222 236 255 222 236 255 222 236 255 222 236 255 222 236 255 222 236 255 222 236 255 222 236 255 222 236 255 222 236 255 222 236 255 222 236 255 222 236 255 211 222 239 160 155 158 120 96 78 119 94 76 120 94 76 119 94 76 119 94 76 119 94 76 118 93 75 119 93 75 119 94 75 119 94 75 118 93 75 119 94 75 119 94 75 118 94 75 118 93 75 118 93 75 138 129 129 164 179 200 151 169 193 148 166 190 142 160 184 141 159 183 140 158 182 137 155 179 137 155 179 137 154 178 137 154 178 135 153 176 135 152 175 133 150 173 134 151 175 132 149 172 131 147 169 130 146 168 130 146 168 130 146 167 129 145 166 128 144 166 127 143 164 125 139 159 127 142 163 126 141 162 124 137 157 122 135 155 122 135 155 120 133 151 121 134 154 121 135 154 121 134 153 135 144 158 174 175 177 175 177 181 173 176 181 170 175 181 168 174 181 167 173 181 165 172 181 164 172 181 163 171 181 161 170 181 160 170 181 159 169 181 158 169 181 157 169 181 157 168 181 156 168 181 155 167 181 155 167 181 154 167 181 154 167 181 153 166 181 153 166 181 152 166 181 152 166 181 152 166 181 151 166 181 151 166 181 151 166 181 151 165 181 151 165 181 151 165 181 151 165 181 151 165 181 151 166 181 151 166 181 152 166 181 152 166 181 152 166 181 152 166 181 153 166 181 153 166 181 154 167 181 154 167 181 155 167 181 155 168 181 156 168 181 157 168 181 158 169 181 158 169 181 159 169 181 160 170 181 161 170 181 163 171 181 164 172 181 165 172 181 167 173 181 169 174 181 171 175 181 173 176 181 176 177 181 182 183 186 214 225 241 222 236 255 222 236 255 222 236 255 222 236 255 222 236 255 222 236 255 222 236 255 222 236 255 222 236 255 222 236 255 222 236 255 222 236 255 222 236 255 222 236 255 222 236 255 222 236 255 222 236 255 222 236 255 222 236 255 222 236 255 222 236 255 222 236 255 222 236 255 222 236 255 222 236 255 222 236 255 222 236 255 222 236 255 222 236 255 222 236 255 222 236 255 222 236 255 222 236 255 222 236 255 222 236 255 222 236 255 222 236 255 222 236 255 222 236 255 222 236 255 222 236 255 222 236 255 222 236 255 222 236 255 222 236 255 222 236 255 222 236 255 222 236 255 222 236 255 222 236 255 222 236 255 222 236 255 222 236 255 222 236 255 222 236 255 222 236 255 222 236 255 
222 236 255 222 236 255 222 236 255 222 236 255 222 236 255 222 236 255 222 236 255 222 236 255 222 236 255 222 236 255 222 236 255 222 236 255 222 236 255 222 236 255 222 236 255 222 236 255 222 236 255 222 236 255 222 236 255 222 236 255 222 236 255 222 236 255 222 236 255 222 236 255 222 236 255 222 236 255 222 236 255 222 236 255 222 236 255 222 236 255 222 236 255 222 236 255 222 236 255 222 236 255 222 236 255 222 236 255 222 236 255 222 236 255 222 236 255 222 236 255 222 236 255 222 236 255 222 236 255 222 236 255 222 236 255 222 236 255 222 236 255 222 236 255 222 236 255 222 236 255 222 236 255 222 236 255 222 236 255 222 236 255 222 236 255 222 236 255 222 236 255 222 236 255 222 236 255 222 236 255 222 236 255 222 236 255 222 236 255 222 236 255 222 236 255 222 236 255 222 236 255 222 236 255 222 236 255 222 236 255 222 236 255 222 236 255 222 236 255 222 236 255 222 236 255 222 236 255 222 236 255 222 236 255 222 236 255 222 236 255 222 236 255 222 236 255 222 236 255 221 235 254 192 197 209 133 116 108 118 93 75 118 93 75 118 93 75 119 94 75 118 93 75 117 93 75 118 93 75 118 94 75 118 93 75 118 93 75 118 93 75 117 92 74 117 92 74 117 93 75 117 92 74 126 109 101 162 173 191 157 174 198 148 166 190 146 164 189 141 159 184 141 159 183 138 156 179 138 155 179 136 153 176 136 154 178 135 152 175 134 150 173 134 151 174 133 150 173 133 150 172 132 149 171 131 147 169 131 147 170 130 146 168 130 145 167 126 141 162 127 142 163 127 141 162 125 139 160 124 138 158 122 135 154 122 135 155 122 135 154 120 132 151 119 132 151 117 129 147 118 131 149 128 137 151 172 173 175 176 178 181 173 176 181 171 175 181 169 174 181 167 173 181 166 172 181 164 172 181 163 171 181 162 171 181 161 170 181 160 170 181 159 169 181 158 169 181 157 168 181 156 168 181 156 168 181 155 167 181 154 167 181 154 167 181 153 167 181 153 166 181 153 166 181 152 166 181 152 166 181 152 166 181 151 166 181 151 166 181 151 165 181 151 165 181 151 165 181 151 165 181 151 165 181 151 165 181 151 166 181 151 166 181 152 166 181 152 166 181 152 166 181 152 166 181 153 166 181 153 166 181 154 167 181 154 167 181 155 167 181 155 167 181 156 168 181 156 168 181 157 168 181 158 169 181 159 169 181 160 170 181 161 170 181 162 171 181 163 171 181 164 172 181 166 173 181 167 173 181 169 174 181 171 175 181 173 176 181 176 178 181 182 183 185 215 226 242 222 236 255 222 236 255 222 236 255 222 236 255 222 236 255 222 236 255 222 236 255 222 236 255 222 236 255 222 236 255 222 236 255 222 236 255 222 236 255 222 236 255 222 236 255 222 236 255 222 236 255 222 236 255 222 236 255 222 236 255 222 236 255 222 236 255 222 236 255 222 236 255 222 236 255 222 236 255 222 236 255 222 236 255 222 236 255 222 236 255 222 236 255 222 236 255 222 236 255 222 236 255 222 236 255 222 236 255 222 236 255 222 236 255 222 236 255 222 236 255 222 236 255 222 236 255 222 236 255 222 236 255 222 236 255 222 236 255 222 236 255 222 236 255 222 236 255 222 236 255 222 236 255 222 236 255 222 236 255 222 236 255 222 236 255 222 236 255 
222 236 255 222 236 255 222 236 255 222 236 255 222 236 255 222 236 255 222 236 255 222 236 255 222 236 255 222 236 255 222 236 255 222 236 255 222 236 255 222 236 255 222 236 255 222 236 255 222 236 255 222 236 255 222 236 255 222 236 255 222 236 255 222 236 255 222 236 255 222 236 255 222 236 255 222 236 255 222 236 255 222 236 255 222 236 255 222 236 255 222 236 255 222 236 255 222 236 255 222 236 255 222 236 255 222 236 255 222 236 255 222 236 255 222 236 255 222 236 255 222 236 255 222 236 255 222 236 255 222 236 255 222 236 255 222 236 255 223 236 255 222 236 255 223 236 255 223 236 255 222 236 255 222 236 255 223 236 255 223 236 255 222 236 255 222 236 255 223 236 255 223 236 255 223 236 255 223 236 255 223 236 255 223 236 255 223 236 255 223 236 255 223 236 255 223 236 255 223 236 255 223 236 255 223 236 255 223 236 255 223 236 255 223 236 255 223 236 255 223 236 255 223 236 255 223 236 255 223 236 255 223 236 255 223 236 255 223 236 255 223 236 255 223 236 255 223 236 255 215 226 244 163 160 164 119 95 77 118 93 75 118 93 75 117 92 74 119 94 75 118 93 75 118 93 75 118 93 74 118 93 74 118 93 75 117 93 74 117 93 74 117 92 74 116 92 74 117 92 74 119 95 79 149 151 161 162 179 202 150 168 192 145 163 187 142 160 184 140 158 182 139 157 181 137 155 179 137 155 179 136 153 177 135 152 176 136 153 177 132 149 171 134 150 173 134 151 174 131 147 169 131 147 169 130 146 168 131 147 169 128 144 165 128 143 164 128 142 163 126 140 160 123 137 157 123 137 156 122 135 155 123 136 155 119 131 148 120 132 150 118 130 148 116 128 145 116 127 144 119 128 142 170 170 172 176 178 181 174 176 181 171 175 181 169 174 181 168 174 181 166 173 181 165 172 181 164 171 181 162 171 181 161 170 181 160 170 181 159 169 181 158 169 181 158 169 181 157 168 181 156 168 181 156 168 181 155 167 181 154 167 181 154 167 181 153 167 181 153 166 181 153 166 181 152 166 181 152 166 181 152 166 181 152 166 181 151 166 181 151 166 181 151 166 181 151 165 181 151 165 181 151 165 181 151 166 181 151 166 181 151 166 181 152 166 181 152 166 181 152 166 181 152 166 181 153 166 181 153 166 181 154 167 181 154 167 181 155 167 181 155 167 181 156 168 181 156 168 181 157 168 181 158 169 181 159 169 181 159 169 181 160 170 181 161 170 181 163 171 181 164 172 181 165 172 181 166 173 181 168 174 181 170 174 181 171 175 181 174 177 181 177 178 181 185 186 189 217 229 246 223 236 255 223 236 255 222 236 255 223 236 255 223 236 255 223 236 255 223 236 255 222 236 255 222 236 255 222 236 255 222 236 255 222 236 255 222 236 255 222 236 255 222 236 255 222 236 255 222 236 255 222 236 255 222 236 255 222 236 255 222 236 255 222 236 255 222 236 255 222 236 255 222 236 255 222 236 255 222 236 255 222 236 255 222 236 255 222 236 255 222 236 255 222 236 255 222 236 255 222 236 255 222 236 255 222 236 255 222 236 255 222 236 255 222 236 255 222 236 255 222 236 255 222 236 255 222 236 255 222 236 255 222 236 255 222 236 255 222 236 255 222 236 255 222 236 255 222 236 255 222 236 255 222 236 255 222 236 255 222 236 255 222 236 255 
223 236 255 223 236 255 223 236 255 223 236 255 223 236 255 223 236 255 223 236 255 223 236 255 223 236 255 223 236 255 223 236 255 223 236 255 223 236 255 223 236 255 223 236 255 223 236 255 223 236 255 223 236 255 223 236 255 223 236 255 223 236 255 223 236 255 223 236 255 223 236 255 223 236 255 223 236 255 223 236 255 223 236 255 223 236 255 223 236 255 223 236 255 223 236 255 223 236 255 223 236 255 223 236 255 223 236 255 223 236 255 223 236 255 223 236 255 223 236 255 223 236 255 223 236 255 223 236 255 223 236 255 223 236 255 223 236 255 223 236 255 223 236 255 223 236 255 223 236 255 223 236 255 223 236 255 223 236 255 223 236 255 223 236 255 223 236 255 223 236 255 223 236 255 223 236 255 223 236 255 223 236 255 223 236 255 223 236 255 223 236 255 223 236 255 223 236 255 223 236 255 223 236 255 223 236 255 223 236 255 223 236 255 223 236 255 223 236 255 223 236 255 223 236 255 223 236 255 223 236 255 223 236 255 223 236 255 223 236 255 223 236 255 223 236 255 222 236 255 199 207 221 140 126 122 116 92 74 116 91 74 116 92 74 117 93 74 116 91 73 116 92 74 116 92 74 117 92 74 116 92 74 116 92 74 117 92 74 116 92 74 117 92 74 116 92 74 116 91 73 130 117 113 165 180 200 155 172 196 147 165 189 143 161 186 141 159 183 139 157 180 138 155 178 136 154 178 135 153 176 135 153 176 135 152 176 134 152 175 133 150 172 133 150 173 131 147 170 131 147 169 132 148 170 131 146 168 130 145 166 128 143 164 126 140 161 126 140 160 126 140 160 123 137 156 124 137 157 117 129 147 120 132 150 118 130 148 117 129 147 113 123 139 110 119 134 113 122 137 162 163 165 177 178 181 174 177 181 172 176 181 170 175 181 168 174 181 167 173 181 165 172 181 164 172 181 163 171 181 162 171 181 161 170 181 160 170 181 159 169 181 158 169 181 158 169 181 157 168 181 156 168 181 156 168 181 155 167 181 154 167 181 154 167 181 154 167 181 153 166 181 153 166 181 153 166 181 152 166 181 152 166 181 152 166 181 152 166 181 152 166 181 151 166 181 151 166 181 151 166 181 151 166 181 151 166 181 152 166 181 152 166 181 152 166 181 152 166 181 152 166 181 153 166 181 153 166 181 153 166 181 154 167 181 154 167 181 155 167 181 155 167 181 156 168 181 156 168 181 157 168 181 158 169 181 158 169 181 159 169 181 160 170 181 161 170 181 162 171 181 163 171 181 164 172 181 166 172 181 167 173 181 169 174 181 170 175 181 172 176 181 174 177 181 177 178 181 188 191 195 220 233 251 223 236 255 223 236 255 223 236 255 223 236 255 223 236 255 223 236 255 223 236 255 223 236 255 223 236 255 223 236 255 223 236 255 223 236 255 223 236 255 223 236 255 223 236 255 223 236 255 223 236 255 223 236 255 223 236 255 223 236 255 223 236 255 223 236 255 223 236 255 223 236 255 223 236 255 223 236 255 223 236 255 223 236 255 223 236 255 223 236 255 223 236 255 223 236 255 223 236 255 223 236 255 223 236 255 223 236 255 223 236 255 223 236 255 223 236 255 223 236 255 223 236 255 223 236 255 223 236 255 223 236 255 223 236 255 223 236 255 223 236 255 223 236 255 223 236 255 223 236 255 223 236 255 223 236 255 223 236 255 223 236 255 
223 236 255 223 236 255 223 236 255 223 236 255 223 236 255 223 236 255 223 236 255 223 236 255 223 236 255 223 236 255 223 236 255 223 236 255 223 236 255 223 236 255 223 236 255 223 236 255 223 236 255 223 236 255 223 236 255 223 236 255 223 236 255 223 236 255 223 236 255 223 236 255 223 236 255 223 236 255 223 236 255 223 236 255 223 236 255 223 236 255 223 236 255 223 236 255 223 236 255 223 236 255 223 236 255 223 236 255 223 236 255 223 236 255 223 236 255 223 236 255 223 236 255 223 236 255 223 236 255 223 236 255 223 236 255 223 236 255 223 236 255 223 236 255 223 236 255 223 236 255 223 236 255 223 236 255 223 236 255 223 236 255 223 236 255 223 236 255 223 236 255 223 236 255 223 236 255 223 236 255 223 236 255 223 236 255 223 236 255 223 236 255 223 236 255 223 236 255 223 236 255 223 236 255 223 236 255 223 236 255 223 236 255 223 236 255 223 236 255 223 236 255 223 236 255 223 236 255 223 236 255 223 236 255 223 236 255 223 236 255 223 236 255 223 236 255 221 234 253 183 187 197 124 104 92 116 91 74 116 91 73 116 91 73 116 92 74 116 91 73 116 91 73 116 92 74 116 91 73 116 91 73 115 91 73 116 92 74 115 91 73 116 91 73 116 91 73 116 93 76 156 162 175 161 179 202 149 167 190 144 162 185 141 159 184 141 159 183 138 155 179 138 156 180 137 155 178 137 154 178 137 154 178 133 150 172 135 152 176 133 150 172 133 149 172 132 149 171 133 149 172 132 148 170 131 147 170 128 143 164 130 145 166 129 144 165 127 141 161 122 134 153 121 134 153 122 135 154 119 131 149 118 130 147 117 128 145 115 125 142 111 121 137 108 117 132 151 153 157 178 179 181 175 177 181 173 176 181 171 175 181 169 174 181 168 173 181 166 173 181 165 172 181 164 172 181 163 171 181 162 171 181 161 170 181 160 170 181 159 169 181 158 169 181 158 169 181 157 168 181 156 168 181 156 168 181 155 167 181 155 167 181 154 167 181 154 167 181 153 167 181 153 166 181 153 166 181 153 166 181 152 166 181 152 166 181 152 166 181 152 166 181 152 166 181 152 166 181 152 166 181 152 166 181 152 166 181 152 166 181 152 166 181 152 166 181 152 166 181 153 166 181 153 166 181 153 166 181 154 167 181 154 167 181 154 167 181 155 167 181 155 167 181 156 168 181 156 168 181 157 168 181 158 169 181 158 169 181 159 169 181 160 170 181 161 170 181 162 171 181 163 171 181 164 172 181 165 172 181 166 173 181 168 174 181 169 174 181 171 175 181 173 176 181 175 177 181 178 179 181 194 198 204 222 236 254 223 236 255 223 236 255 223 236 255 223 236 255 223 236 255 223 236 255 223 236 255 223 236 255 223 236 255 223 236 255 223 236 255 223 236 255 223 236 255 223 236 255 223 236 255 223 236 255 223 236 255 223 236 255 223 236 255 223 236 255 223 236 255 223 236 255 223 236 255 223 236 255 223 236 255 223 236 255 223 236 255 223 236 255 223 236 255 223 236 255 223 236 255 223 236 255 223 236 255 223 236 255 223 236 255 223 236 255 223 236 255 223 236 255 223 236 255 223 236 255 223 236 255 223 236 255 223 236 255 223 236 255 223 236 255 223 236 255 223 236 255 223 236 255 223 236 255 223 236 255 223 236 255 223 236 255 223 236 255 
223 236 255 223 236 255 223 236 255 223 236 255 223 236 255 223 236 255 223 236 255 223 236 255 223 236 255 223 236 255 223 236 255 223 236 255 223 236 255 223 236 255 223 236 255 223 236 255 223 236 255 223 236 255 223 236 255 223 236 255 223 236 255 223 236 255 223 236 255 223 236 255 223 236 255 223 236 255 223 236 255 223 236 255 223 236 255 223 236 255 223 236 255 223 236 255 223 236 255 223 236 255 223 236 255 223 236 255 223 236 255 223 236 255 223 236 255 223 236 255 223 236 255 223 236 255 223 236 255 223 236 255 223 236 255 223 236 255 223 236 255 223 236 255 223 236 255 223 236 255 223 236 255 223 236 255 223 236 255 223 236 255 223 236 255 223 236 255 223 236 255 223 236 255 223 236 255 223 236 255 223 236 255 223 236 255 223 236 255 223 236 255 223 236 255 223 236 255 223 236 255 223 236 255 223 236 255 223 236 255 223 236 255 223 236 255 223 236 255 223 236 255 223 236 255 223 236 255 223 236 255 223 236 255 223 236 255 223 236 255 223 236 255 223 236 255 216 228 246 167 165 170 118 94 76 115 90 72 117 92 74 115 91 73 116 91 73 116 91 73 117 92 74 116 91 73 116 91 73 116 91 73 116 91 73 115 91 73 116 91 73 115 91 73 115 91 73 130 119 117 165 180 200 155 172 196 148 166 190 142 161 185 140 157 181 140 158 181 138 156 180 137 155 179 137 154 178 137 154 178 137 154 178 134 151 175 135 152 175 134 150 173 132 149 171 132 148 170 132 148 170 130 146 167 130 146 167 129 144 166 129 144 165 127 141 162 127 141 162 125 138 158 124 138 158 122 136 155 121 133 151 119 131 148 117 129 146 115 126 143 113 123 139 133 137 145 178 178 180 176 178 181 174 177 181 172 176 181 170 175 181 169 174 181 167 173 181 166 173 181 165 172 181 164 171 181 163 171 181 162 171 181 161 170 181 160 170 181 159 169 181 158 169 181 158 169 181 157 168 181 157 168 181 156 168 181 155 168 181 155 167 181 155 167 181 154 167 181 154 167 181 154 167 181 153 166 181 153 166 181 153 166 181 153 166 181 152 166 181 152 166 181 152 166 181 152 166 181 152 166 181 152 166 181 152 166 181 152 166 181 153 166 181 153 166 181 153 166 181 153 166 181 153 167 181 154 167 181 154 167 181 154 167 181 155 167 181 155 167 181 156 168 181 156 168 181 157 168 181 157 168 181 158 169 181 159 169 181 159 169 181 160 170 181 161 170 181 162 171 181 163 171 181 164 172 181 165 172 181 166 173 181 167 173 181 169 174 181 170 175 181 172 176 181 174 177 181 176 178 181 180 180 181 207 215 227 223 236 255 223 236 255 223 236 255 223 236 255 223 236 255 223 236 255 223 236 255 223 236 255 223 236 255 223 236 255 223 236 255 223 236 255 223 236 255 223 236 255 223 236 255 223 236 255 223 236 255 223 236 255 223 236 255 223 236 255 223 236 255 223 236 255 223 236 255 223 236 255 223 236 255 223 236 255 223 236 255 223 236 255 223 236 255 223 236 255 223 236 255 223 236 255 223 236 255 223 236 255 223 236 255 223 236 255 223 236 255 223 236 255 223 236 255 223 236 255 223 236 255 223 236 255 223 236 255 223 236 255 223 236 255 223 236 255 223 236 255 223 236 255 223 236 255 223 236 255 223 236 255 223 236 255 223 236 255 
223 236 255 223 236 255 223 236 255 223 236 255 223 236 255 223 236 255 223 236 255 223 236 255 223 236 255 223 236 255 223 236 255 223 236 255 223 236 255 223 236 255 223 236 255 223 236 255 223 236 255 223 236 255 223 236 255 223 236 255 223 236 255 223 236 255 223 236 255 223 236 255 223 236 255 223 236 255 223 236 255 223 236 255 223 236 255 223 236 255 223 236 255 223 236 255 223 236 255 223 236 255 223 236 255 223 236 255 223 236 255 223 236 255 223 236 255 223 236 255 223 236 255 223 236 255 223 236 255 223 236 255 223 236 255 223 236 255 223 236 255 223 236 255 223 236 255 223 236 255 223 236 255 223 236 255 223 236 255 223 236 255 223 236 255 223 236 255 223 236 255 223 236 255 223 236 255 223 236 255 223 236 255 223 236 255 223 236 255 223 236 255 223 236 255 223 236 255 223 236 255 223 236 255 223 236 255 223 236 255 223 236 255 223 236 255 223 236 255 223 236 255 223 236 255 223 236 255 223 236 255 223 236 255 223 236 255 223 236 255 223 236 255 223 236 255 211 222 238 147 138 138 116 91 73 115 91 73 115 90 73 116 91 73 115 91 73 115 90 72 115 90 72 115 91 73 116 91 73 114 90 72 113 90 72 115 90 72 115 91 73 115 90 72 115 91 74 150 153 163 160 177 200 149 167 191 143 161 185 142 161 185 141 159 183 139 157 181 139 157 181 138 155 179 138 156 179 136 153 176 134 151 173 136 154 177 135 152 175 134 150 173 132 149 171 132 149 171 133 149 171 133 149 171 130 145 166 131 146 168 130 146 168 130 145 166 129 144 165 128 143 164 126 140 161 125 138 158 124 137 156 122 134 153 118 130 147 117 129 146 121 129 143 173 173 174 177 178 181 175 177 181 173 176 181 171 175 181 170 174 181 168 174 181 167 173 181 166 172 181 165 172 181 164 171 181 163 171 181 162 171 181 161 170 181 160 170 181 159 169 181 159 169 181 158 169 181 157 168 181 157 168 181 156 168 181 156 168 181 155 168 181 155 167 181 155 167 181 154 167 181 154 167 181 154 167 181 154 167 181 153 167 181 153 166 181 153 166 181 153 166 181 153 166 181 153 166 181 153 166 181 153 166 181 153 166 181 153 166 181 153 166 181 153 166 181 153 167 181 154 167 181 154 167 181 154 167 181 154 167 181 155 167 181 155 167 181 156 168 181 156 168 181 156 168 181 157 168 181 158 169 181 158 169 181 159 169 181 159 169 181 160 170 181 161 170 181 162 171 181 163 171 181 164 172 181 165 172 181 166 173 181 167 173 181 168 174 181 170 174 181 171 175 181 173 176 181 175 177 181 177 178 181 183 183 184 216 228 244 223 236 255 223 236 255 223 236 255 223 236 255 223 236 255 223 236 255 223 236 255 223 236 255 223 236 255 223 236 255 223 236 255 223 236 255 223 236 255 223 236 255 223 236 255 223 236 255 223 236 255 223 236 255 223 236 255 223 236 255 223 236 255 223 236 255 223 236 255 223 236 255 223 236 255 223 236 255 223 236 255 223 236 255 223 236 255 223 236 255 223 236 255 223 236 255 223 236 255 223 236 255 223 236 255 223 236 255 223 236 255 223 236 255 223 236 255 223 236 255 223 236 255 223 236 255 223 236 255 223 236 255 223 236 255 223 236 255 223 236 255 223 236 255 223 236 255 223 236 255 223 236 255 223 236 255 
223 236 255 223 236 255 223 236 255 223 236 255 223 236 255 223 236 255 223 236 255 223 236 255 223 236 255 223 236 255 223 236 255 223 236 255 223 236 255 223 236 255 223 236 255 223 236 255 223 236 255 223 236 255 223 236 255 223 236 255 223 236 255 223 236 255 223 236 255 223 236 255 223 236 255 223 236 255 223 236 255 223 236 255 223 236 255 223 236 255 223 236 255 223 236 255 223 236 255 223 236 255 223 236 255 223 236 255 223 236 255 222 236 255 222 236 255 222 236 255 222 236 255 222 236 255 222 236 255 222 236 255 222 236 255 222 235 254 222 236 255 221 235 254 222 235 254 222 235 255 221 235 254 221 235 254 222 235 254 222 235 254 222 235 254 222 235 254 222 235 254 221 235 254 220 234 253 221 235 254 221 234 254 220 234 253 221 235 254 221 234 254 220 234 253 220 234 253 220 234 253 220 234 253 220 234 253 220 234 253 220 233 252 220 233 252 220 233 252 220 233 252 219 233 252 220 234 253 220 233 252 220 233 252 219 233 252 219 233 252 220 234 253 219 233 252 198 206 221 135 121 116 115 90 72 115 90 72 115 90 72 113 89 72 114 89 72 114 90 72 114 89 72 114 90 72 114 90 72 114 89 72 114 89 72 114 89 71 114 89 72 115 90 72 122 104 94 162 174 193 159 176 199 148 166 190 144 162 185 142 159 183 141 159 183 139 156 180 139 157 180 138 155 179 137 154 178 136 153 176 135 153 176 136 153 176 135 151 174 134 151 174 135 152 175 133 150 172 133 149 171 131 147 169 131 147 169 130 146 167 129 144 165 131 146 168 129 144 165 129 143 164 127 142 162 126 141 161 127 140 160 123 136 155 123 135 154 121 133 152 159 161 165 179 179 181 176 178 181 174 177 181 172 176 181 171 175 181 169 174 181 168 174 181 167 173 181 166 172 181 165 172 181 164 171 181 163 171 181 162 171 181 161 170 181 160 170 181 160 170 181 159 169 181 158 169 181 158 169 181 157 168 181 157 168 181 156 168 181 156 168 181 156 168 181 155 167 181 155 167 181 155 167 181 154 167 181 154 167 181 154 167 181 154 167 181 154 167 181 154 167 181 154 167 181 154 167 181 153 167 181 153 167 181 154 167 181 154 167 181 154 167 181 154 167 181 154 167 181 154 167 181 154 167 181 155 167 181 155 167 181 155 167 181 156 168 181 156 168 181 157 168 181 157 168 181 157 168 181 158 169 181 159 169 181 159 169 181 160 170 181 160 170 181 161 170 181 162 171 181 163 171 181 164 172 181 165 172 181 166 172 181 167 173 181 168 174 181 169 174 181 171 175 181 172 176 181 174 177 181 176 178 181 179 179 181 191 194 198 221 234 253 222 236 255 221 235 254 222 236 255 222 236 255 223 236 255 222 236 255 222 236 255 222 236 255 222 236 255 222 236 255 222 236 255 222 236 255 222 236 255 222 236 255 223 236 255 222 236 255 223 236 255 223 236 255 223 236 255 223 236 255 223 236 255 223 236 255 223 236 255 223 236 255 223 236 255 223 236 255 223 236 255 223 236 255 223 236 255 223 236 255 223 236 255 223 236 255 223 236 255 223 236 255 223 236 255 223 236 255 223 236 255 223 236 255 223 236 255 223 236 255 223 236 255 223 236 255 223 236 255 223 236 255 223 236 255 223 236 255 223 236 255 223 236 255 223 236 255 223 236 255 223 236 255 
220 234 253 220 234 253 220 234 253 219 233 252 219 233 252 219 232 252 218 232 251 219 233 252 218 232 251 218 232 251 218 232 251 217 231 250 218 231 251 217 230 250 217 231 250 216 230 249 217 231 250 216 230 249 215 229 248 215 229 248 215 229 249 215 229 248 215 229 248 215 229 248 214 228 247 213 227 246 213 227 246 214 228 247 212 226 245 212 226 245 211 225 245 211 225 245 212 226 245 211 225 245 211 225 244 211 225 245 210 224 244 210 224 244 211 225 244 207 221 241 210 224 244 210 224 244 208 222 242 209 223 243 207 221 241 207 222 241 209 223 242 208 222 241 207 221 241 208 222 241 207 221 241 204 218 238 206 220 240 206 220 240 205 219 239 205 219 239 203 217 237 204 218 238 205 219 239 204 218 238 203 218 237 202 216 236 204 218 238 204 218 238 202 217 237 202 216 236 203 217 237 202 216 236 201 216 236 200 214 234 202 217 237 201 215 235 203 217 237 202 216 236 200 214 234 200 214 234 200 215 235 201 215 235 198 213 233 200 214 234 198 213 233 200 214 234 176 183 196 124 106 96 113 89 72 114 90 72 114 90 72 114 89 72 114 89 72 114 90 72 113 89 71 112 88 71 114 90 72 113 89 71 112 88 70 113 89 71 113 89 71 113 89 71 139 133 135 166 182 204 153 171 194 146 164 188 144 162 185 142 160 184 140 158 182 139 156 180 140 158 182 138 156 180 136 154 177 138 156 180 136 153 177 136 153 176 136 153 177 134 151 174 135 152 174 135 152 176 133 150 173 134 150 172 133 149 172 131 147 169 130 146 168 131 147 169 129 145 166 131 147 168 128 143 164 129 145 166 130 145 167 128 143 163 127 142 162 137 145 157 180 180 180 177 178 181 175 177 181 173 176 181 172 175 181 170 175 181 169 174 181 168 174 181 167 173 181 166 172 181 165 172 181 164 172 181 163 171 181 162 171 181 161 170 181 161 170 181 160 170 181 159 169 181 159 169 181 158 169 181 158 169 181 157 168 181 157 168 181 157 168 181 156 168 181 156 168 181 156 168 181 155 167 181 155 167 181 155 167 181 155 167 181 155 167 181 154 167 181 154 167 181 154 167 181 154 167 181 154 167 181 154 167 181 154 167 181 154 167 181 154 167 181 155 167 181 155 167 181 155 167 181 155 167 181 155 168 181 156 168 181 156 168 181 156 168 181 157 168 181 157 168 181 158 169 181 158 169 181 158 169 181 159 169 181 160 170 181 160 170 181 161 170 181 162 170 181 162 171 181 163 171 181 164 172 181 165 172 181 166 173 181 167 173 181 168 174 181 169 174 181 170 175 181 172 176 181 173 176 181 175 177 181 177 178 181 180 180 181 196 204 216 207 221 241 207 221 241 207 222 241 208 222 241 209 223 243 209 223 242 207 221 241 209 223 242 208 222 242 208 223 242 209 223 243 209 223 242 210 224 244 211 225 244 210 224 244 210 224 244 212 226 245 212 226 246 212 226 246 210 224 244 211 225 245 214 228 247 214 228 247 215 229 248 213 227 246 214 228 247 213 227 247 213 227 246 214 228 247 215 229 248 214 228 248 216 230 249 215 229 248 214 228 248 216 230 249 217 230 250 218 231 251 218 231 250 218 232 251 218 232 251 217 231 250 218 232 251 219 232 251 218 232 251 219 233 252 219 233 252 219 233 252 220 234 253 220 234 253 219 233 252 220 233 252 
203 217 237 201 215 235 201 215 235 200 214 234 197 211 232 201 215 235 198 213 233 198 212 232 196 211 231 195 210 230 197 212 232 193 207 227 196 211 231 195 210 230 196 210 230 194 209 229 193 208 228 194 209 229 193 208 228 194 208 229 190 205 225 190 205 226 192 207 227 189 203 224 190 205 226 189 204 224 188 203 224 188 203 223 188 203 223 189 204 224 187 202 223 188 203 224 185 200 220 182 197 218 185 200 221 185 200 221 184 200 220 183 198 219 181 196 217 183 198 219 182 198 219 182 198 219 181 197 218 180 195 216 182 198 219 183 199 220 177 193 214 181 196 217 180 196 217 182 197 218 180 195 216 181 196 217 179 195 216 178 193 215 179 195 216 178 194 215 176 192 213 177 193 214 175 190 212 178 194 215 176 192 213 176 191 213 173 189 211 175 191 212 175 191 212 175 191 212 173 188 210 173 188 210 172 188 210 173 188 210 175 191 212 171 187 209 170 186 207 172 188 210 173 188 210 172 188 210 170 186 208 169 185 207 171 187 208 173 189 211 171 187 208 170 186 207 153 158 171 118 98 86 114 89 72 113 89 71 113 89 71 115 90 72 114 89 71 113 89 71 112 88 71 113 88 71 112 88 70 112 88 70 113 89 71 113 89 71 113 88 71 113 90 74 154 158 170 166 182 205 153 170 194 144 162 186 143 161 185 141 159 183 140 158 183 140 158 182 139 157 181 139 156 180 139 156 180 138 155 178 138 156 179 137 154 178 137 154 177 137 154 178 136 153 176 134 151 173 134 151 174 135 152 175 132 149 171 134 151 173 134 151 174 132 148 170 132 149 171 132 149 171 133 149 172 134 150 172 133 149 171 131 147 168 131 145 165 172 172 173 179 179 181 176 178 181 174 177 181 173 176 181 171 175 181 170 175 181 169 174 181 168 174 181 167 173 181 166 173 181 165 172 181 164 172 181 163 171 181 163 171 181 162 171 181 161 170 181 161 170 181 160 170 181 159 169 181 159 169 181 159 169 181 158 169 181 158 169 181 157 168 181 157 168 181 157 168 181 156 168 181 156 168 181 156 168 181 156 168 181 156 168 181 155 167 181 155 167 181 155 167 181 155 167 181 155 167 181 155 167 181 155 167 181 155 167 181 155 167 181 155 167 181 155 168 181 156 168 181 156 168 181 156 168 181 156 168 181 156 168 181 157 168 181 157 168 181 157 168 181 158 169 181 158 169 181 159 169 181 159 169 181 160 170 181 160 170 181 161 170 181 161 170 181 162 171 181 163 171 181 163 171 181 164 172 181 165 172 181 166 173 181 167 173 181 168 174 181 169 174 181 170 175 181 172 175 181 173 176 181 175 177 181 176 178 181 179 179 181 182 182 183 178 193 212 177 193 214 181 197 218 181 196 217 179 194 215 180 195 216 181 197 218 182 197 218 181 197 218 183 198 219 182 198 219 184 199 220 183 198 219 187 202 222 186 201 221 186 201 221 187 202 223 186 201 222 186 201 222 186 201 222 186 201 222 187 202 222 187 202 223 189 204 225 187 202 223 189 204 224 192 207 228 190 205 225 192 207 227 191 205 226 190 205 225 193 208 228 192 207 227 192 207 227 196 211 231 193 208 228 196 210 230 193 208 228 196 211 231 195 209 230 196 211 231 197 211 232 198 212 233 198 213 233 196 211 231 199 214 234 201 215 235 201 215 235 199 214 233 201 215 235 202 216 236 
172 188 210 172 188 210 171 187 209 169 185 207 173 189 210 171 187 208 169 185 207 170 186 208 169 185 207 170 186 207 166 182 204 165 182 203 166 182 204 165 181 203 165 182 204 166 183 204 163 180 202 163 180 202 163 180 202 162 178 200 161 178 200 161 177 200 163 179 201 159 176 199 159 176 198 160 176 199 159 175 198 161 178 200 159 176 198 157 174 197 155 172 195 157 174 197 155 172 195 156 173 196 157 174 196 154 171 194 154 171 194 154 171 194 154 171 194 154 171 194 153 170 193 153 170 193 155 172 195 151 168 191 152 170 193 154 171 193 151 168 191 150 167 190 151 168 191 151 168 191 151 168 191 150 167 190 150 167 190 150 167 190 147 164 188 150 168 191 147 165 188 149 166 189 150 167 190 147 165 189 145 163 187 147 165 188 146 164 188 145 163 186 146 163 187 146 164 187 145 163 187 146 164 187 147 165 188 145 163 187 144 162 185 145 163 186 143 161 185 145 163 186 144 162 186 146 163 187 143 161 185 145 162 186 144 163 186 143 161 185 143 161 184 144 161 185 130 132 143 114 92 77 112 88 71 113 89 71 113 89 71 113 88 71 112 88 70 113 88 71 114 89 71 112 88 70 113 89 71 111 88 70 112 88 70 113 88 71 112 88 71 116 98 88 165 176 194 160 177 200 152 169 192 146 164 188 142 160 184 141 159 183 140 159 183 139 157 181 139 157 181 139 157 181 138 157 181 139 157 180 139 156 180 139 157 181 140 158 182 135 153 176 137 155 178 135 152 175 136 153 176 136 153 176 136 153 176 135 152 175 135 152 174 136 153 176 135 152 174 134 151 173 135 151 174 135 152 175 134 151 174 135 152 174 145 151 161 180 180 181 178 179 181 176 178 181 174 177 181 173 176 181 171 175 181 170 175 181 169 174 181 168 174 181 167 173 181 166 173 181 165 172 181 164 172 181 164 172 181 163 171 181 162 171 181 162 171 181 161 170 181 161 170 181 160 170 181 160 170 181 159 169 181 159 169 181 158 169 181 158 169 181 158 169 181 157 169 181 157 168 181 157 168 181 157 168 181 157 168 181 156 168 181 156 168 181 156 168 181 156 168 181 156 168 181 156 168 181 156 168 181 156 168 181 156 168 181 156 168 181 156 168 181 156 168 181 156 168 181 157 168 181 157 168 181 157 168 181 157 168 181 158 169 181 158 169 181 158 169 181 159 169 181 159 169 181 159 169 181 160 170 181 160 170 181 161 170 181 161 170 181 162 171 181 162 171 181 163 171 181 164 172 181 165 172 181 165 172 181 166 173 181 167 173 181 168 174 181 169 174 181 170 175 181 171 175 181 173 176 181 174 177 181 176 178 181 178 179 181 180 180 181 170 177 187 150 167 191 152 169 192 153 170 193 151 168 191 151 168 191 151 168 191 151 168 191 151 168 192 152 170 193 153 170 193 153 170 193 154 172 195 153 170 193 155 172 195 154 171 194 154 171 194 156 173 196 156 173 196 160 176 199 157 174 197 157 174 197 159 175 198 158 175 198 161 177 200 158 175 198 160 177 199 159 175 198 160 177 200 164 180 202 162 178 200 161 178 200 165 181 203 164 180 202 162 179 201 166 182 204 165 181 203 165 181 203 167 184 205 165 182 204 168 184 206 170 186 207 166 182 204 170 186 207 169 185 206 169 185 206 171 187 209 172 187 209 172 188 209 173 189 210 170 186 208 
143 161 185 144 162 186 142 161 184 143 161 184 144 162 186 144 162 185 143 161 185 142 160 184 143 161 184 142 160 183 142 160 184 142 160 184 143 161 184 141 159 183 141 159 183 140 158 182 141 159 183 140 158 182 140 159 183 139 158 182 140 159 182 140 158 182 139 158 182 139 158 182 139 157 181 139 158 182 139 157 181 138 157 181 138 157 181 139 157 181 138 157 181 138 157 181 139 157 181 139 157 181 138 157 181 138 157 181 137 156 181 138 157 181 138 157 181 138 157 181 138 156 181 138 156 181 138 156 181 138 156 181 138 156 181 138 157 181 138 156 181 138 156 181 138 156 181 138 156 181 138 156 181 138 156 181 138 156 181 138 156 181 138 156 181 138 156 181 138 156 181 138 156 181 138 156 181 138 156 181 138 156 181 137 156 181 138 156 181 138 156 181 138 156 181 138 156 181 138 156 181 138 156 181 138 156 181 138 156 181 138 156 181 138 156 181 138 156 181 138 156 181 138 156 181 138 156 181 138 157 181 137 156 181 138 156 181 138 156 181 138 156 181 137 155 179 127 131 144 113 92 79 113 88 71 112 88 70 113 88 71 112 88 70 111 87 70 112 88 70 112 88 70 112 88 70 112 88 70 111 87 70 112 88 70 112 88 70 110 87 69 127 115 112 165 179 200 157 174 197 152 169 193 145 163 187 143 161 185 141 159 183 142 160 183 140 159 182 139 157 181 140 158 182 139 157 181 139 157 181 139 157 181 140 158 181 138 156 180 138 156 179 138 155 178 138 156 179 135 152 175 138 156 179 136 154 177 138 155 179 137 155 178 137 154 178 136 153 176 136 154 177 136 153 176 136 153 176 137 154 177 135 150 171 174 173 174 179 179 181 177 178 181 175 177 181 174 177 181 173 176 181 171 175 181 170 175 181 169 174 181 168 174 181 167 173 181 167 173 181 166 173 181 165 172 181 164 172 181 164 172 181 163 171 181 162 171 181 162 171 181 161 170 181 161 170 181 160 170 181 160 170 181 160 170 181 159 169 181 159 169 181 159 169 181 158 169 181 158 169 181 158 169 181 158 169 181 157 169 181 157 168 181 157 168 181 157 168 181 157 168 181 157 168 181 157 168 181 157 168 181 157 168 181 157 168 181 157 168 181 157 168 181 157 168 181 157 168 181 158 169 181 158 169 181 158 169 181 158 169 181 158 169 181 159 169 181 159 169 181 159 169 181 160 170 181 160 170 181 160 170 181 161 170 181 161 170 181 162 171 181 162 171 181 163 171 181 164 172 181 164 172 181 165 172 181 166 173 181 167 173 181 167 173 181 168 174 181 169 174 181 170 175 181 171 175 181 173 176 181 174 177 181 175 177 181 177 178 181 179 179 181 181 180 180 144 160 181 138 156 181 138 156 181 138 156 181 138 156 181 138 156 181 138 156 181 138 156 181 138 156 181 138 156 181 138 156 180 139 157 181 138 157 181 138 157 181 138 157 181 138 157 181 138 157 181 138 157 181 138 157 181 139 158 182 138 157 181 138 157 181 139 157 181 139 158 182 139 157 181 140 158 182 140 158 182 140 158 182 140 158 182 139 157 182 140 159 183 140 158 182 141 159 183 141 159 183 141 159 183 141 159 183 141 159 183 143 161 184 141 159 183 142 160 184 142 160 184 141 160 184 143 161 185 143 161 185 143 161 185 143 161 185 143 161 185 143 161 185 145 163 187 145 163 186 
138 156 181 138 156 181 137 156 181 138 156 181 138 156 181 138 156 181 138 156 181 138 156 181 138 156 181 138 156 181 138 156 181 138 156 181 137 156 181 138 156 181 138 156 181 138 156 181 138 156 181 138 156 181 138 156 181 138 156 181 138 156 181 138 156 181 138 156 181 138 156 180 138 156 181 138 156 181 138 156 181 138 156 180 137 156 181 138 156 181 138 156 181 137 156 181 138 156 181 138 156 180 138 156 181 138 156 181 138 156 181 138 156 181 138 156 181 138 156 181 138 156 181 137 156 181 138 156 181 138 156 181 138 156 181 138 156 181 138 156 181 138 156 181 138 156 181 138 156 181 138 156 181 138 156 181 138 156 181 138 156 181 138 156 180 138 156 181 138 157 181 138 156 181 138 156 181 138 156 181 138 156 181 138 156 181 138 156 181 138 156 181 138 156 181 138 156 181 137 156 181 138 156 181 138 156 181 138 156 181 138 156 181 138 156 181 138 156 181 137 156 181 138 156 181 138 156 181 138 156 180 138 156 181 138 156 181 138 156 181 138 156 181 137 156 180 126 131 143 112 90 77 110 86 69 111 87 69 111 87 70 111 87 70 111 87 70 112 88 70 111 87 70 111 87 69 112 87 70 111 87 69 110 86 69 111 87 70 110 87 69 138 134 139 167 183 205 155 172 195 151 169 192 149 167 191 145 163 187 145 163 186 142 160 184 141 159 183 140 158 182 140 159 183 140 158 182 141 159 183 140 159 183 140 158 181 140 158 182 138 156 180 139 156 180 138 156 180 139 156 180 138 155 179 139 157 180 139 156 180 138 156 179 138 155 179 136 154 177 138 156 179 138 155 179 138 156 179 137 154 178 150 157 166 181 180 181 179 179 181 177 178 181 175 177 181 174 177 181 173 176 181 172 175 181 170 175 181 170 174 181 169 174 181 168 174 181 167 173 181 166 173 181 166 172 181 165 172 181 164 172 181 164 172 181 163 171 181 163 171 181 162 171 181 162 171 181 161 170 181 161 170 181 161 170 181 160 170 181 160 170 181 160 170 181 159 169 181 159 169 181 159 169 181 159 169 181 158 169 181 158 169 181 158 169 181 158 169 181 158 169 181 158 169 181 158 169 181 158 169 181 158 169 181 158 169 181 158 169 181 158 169 181 158 169 181 158 169 181 158 169 181 159 169 181 159 169 181 159 169 181 159 169 181 160 170 181 160 170 181 160 170 181 161 170 181 161 170 181 161 170 181 162 171 181 162 171 181 163 171 181 163 171 181 164 172 181 164 172 181 165 172 181 166 172 181 166 173 181 167 173 181 168 174 181 169 174 181 170 174 181 171 175 181 172 175 181 173 176 181 174 177 181 175 177 181 177 178 181 179 179 181 181 180 181 165 171 180 138 156 181 138 156 181 138 156 181 138 156 181 138 156 181 138 156 181 138 156 181 138 156 181 138 156 181 138 156 181 138 156 181 138 156 181 138 156 181 138 156 181 138 156 181 138 156 181 137 156 181 138 156 181 138 156 181 138 156 181 138 156 181 138 156 180 137 156 181 138 156 181 138 156 181 138 156 181 137 156 181 138 156 181 138 156 181 137 156 181 138 156 181 138 156 181 138 156 181 138 156 181 138 156 181 138 156 181 138 157 181 138 156 181 138 156 181 138 156 181 138 157 181 138 156 181 137 156 181 138 156 181 137 156 181 138 156 181 138 156 181 138 156 181 138 156 181 
138 156 181 138 156 181 138 156 181 138 156 180 138 156 181 138 156 181 138 156 181 138 156 181 138 156 181 138 156 181 138 156 181 138 156 181 138 156 181 138 156 181 138 156 181 138 156 181 137 156 180 138 156 181 137 156 181 138 156 181 138 156 181 138 156 181 138 156 180 138 156 181 138 156 181 138 156 181 138 156 181 138 156 181 138 156 181 138 156 181 138 156 181 138 156 181 138 156 181 138 156 181 138 156 181 138 156 181 138 156 181 138 156 181 138 156 181 138 156 181 137 156 181 138 156 181 138 156 181 137 156 181 138 156 181 138 156 181 138 156 181 138 156 181 138 156 181 138 156 181 138 156 181 138 156 181 138 156 181 137 156 180 138 156 181 138 156 181 138 156 180 138 156 181 138 156 181 138 156 181 138 156 181 137 156 180 138 156 180 138 156 181 138 156 181 138 156 181 138 156 181 138 156 180 138 156 181 137 156 181 138 156 181 138 156 181 138 156 181 138 156 180 138 156 181 138 156 180 138 156 181 138 156 181 138 156 181 138 156 181 137 156 181 138 156 180 128 134 148 110 91 81 110 86 69 111 87 69 110 86 69 109 86 68 110 87 69 111 87 69 110 86 69 110 86 69 110 86 69 111 87 69 110 86 69 110 86 69 110 86 69 147 149 159 164 181 203 155 172 195 149 167 190 148 166 189 145 163 187 146 163 187 145 163 187 145 163 187 145 163 187 142 160 184 144 162 185 143 161 185 141 159 183 142 160 184 142 160 184 140 158 181 141 159 182 140 158 181 140 158 181 139 157 180 140 157 181 142 159 183 140 158 182 139 157 180 139 157 181 139 157 180 139 157 181 139 156 180 136 152 173 172 172 173 180 180 181 178 179 181 177 178 181 175 177 181 174 177 181 173 176 181 172 176 181 171 175 181 170 175 181 169 174 181 168 174 181 168 173 181 167 173 181 166 173 181 166 172 181 165 172 181 164 172 181 164 172 181 163 171 181 163 171 181 163 171 181 162 171 181 162 171 181 161 170 181 161 170 181 161 170 181 161 170 181 160 170 181 160 170 181 160 170 181 160 170 181 159 169 181 159 169 181 159 169 181 159 169 181 159 169 181 159 169 181 159 169 181 159 169 181 159 169 181 159 169 181 159 169 181 159 169 181 159 169 181 159 169 181 160 169 181 160 170 181 160 170 181 160 170 181 160 170 181 161 170 181 161 170 181 161 170 181 161 170 181 162 171 181 162 171 181 163 171 181 163 171 181 163 171 181 164 172 181 164 172 181 165 172 181 166 172 181 166 173 181 167 173 181 168 173 181 168 174 181 169 174 181 170 175 181 171 175 181 172 176 181 173 176 181 174 177 181 175 177 181 177 178 181 178 179 181 180 180 181 180 180 180 142 158 180 138 156 181 138 156 181 138 156 181 138 156 181 138 156 181 138 156 181 138 156 180 138 156 181 138 156 181 138 156 181 138 156 181 138 156 181 137 156 181 138 156 181 138 156 181 138 156 181 137 156 181 138 156 181 138 156 181 138 156 181 138 156 181 137 156 181 138 156 181 138 156 181 138 156 181 138 156 181 138 156 181 138 156 181 138 156 181 138 156 181 138 156 181 138 156 181 138 156 181 138 156 180 138 156 180 138 156 181 137 156 181 138 156 181 138 156 181 138 156 181 138 156 181 138 156 181 138 156 181 138 156 181 138 156 181 138 156 181 138 156 181 138 156 181 
138 156 181 138 156 180 138 156 181 138 156 181 138 156 181 138 156 181 137 156 180 137 156 181 137 156 181 138 156 180 138 156 181 138 156 181 138 156 181 138 156 181 138 156 181 138 156 181 138 156 181 138 156 181 138 156 181 138 156 181 138 156 181 138 156 181 137 156 181 138 156 180 138 156 181 138 156 181 138 156 181 138 156 181 138 156 181 137 156 180 138 156 181 138 156 181 137 156 181 138 156 180 138 156 181 138 156 181 137 156 181 138 156 181 138 156 181 138 156 180 138 156 181 138 156 180 137 156 181 137 156 181 138 156 181 138 156 181 138 156 180 138 156 181 138 156 180 138 156 181 138 156 181 138 156 181 138 156 181 138 156 181 138 156 181 138 156 181 137 156 181 137 156 180 138 156 181 138 156 181 138 156 180 138 156 181 138 156 180 138 156 181 138 156 180 138 156 181 138 156 181 138 156 181 138 156 181 138 156 181 138 156 181 138 156 181 138 156 180 138 156 181 138 156 181 138 156 181 138 156 181 137 156 181 138 156 181 138 156 181 138 156 180 138 156 181 129 138 154 113 95 86 108 85 68 109 86 68 108 85 68 109 86 68 109 86 69 109 85 68 109 85 68 109 86 69 109 86 68 109 85 68 108 85 68 108 84 67 109 86 70 160 166 179 163 180 202 154 171 194 152 170 193 148 166 189 148 165 189 147 164 188 146 164 188 145 163 187 145 163 186 145 163 187 145 163 187 145 163 187 145 163 187 146 164 188 142 160 184 140 158 182 140 157 181 140 158 181 140 157 181 139 157 180 140 158 182 140 158 181 139 157 181 139 157 181 140 158 182 140 158 182 141 159 182 140 157 181 144 153 166 182 181 181 180 180 181 178 179 181 177 178 181 175 177 181 174 177 181 173 176 181 172 176 181 171 175 181 170 175 181 170 174 181 169 174 181 168 174 181 168 173 181 167 173 181 166 173 181 166 173 181 165 172 181 165 172 181 164 172 181 164 172 181 164 171 181 163 171 181 163 171 181 162 171 181 162 171 181 162 171 181 162 170 181 161 170 181 161 170 181 161 170 181 161 170 181 161 170 181 160 170 181 160 170 181 160 170 181 160 170 181 160 170 181 160 170 181 160 170 181 160 170 181 160 170 181 160 170 181 160 170 181 160 170 181 160 170 181 161 170 181 161 170 181 161 170 181 161 170 181 161 170 181 162 170 181 162 171 181 162 171 181 162 171 181 163 171 181 163 171 181 163 171 181 164 172 181 164 172 181 165 172 181 165 172 181 166 173 181 166 173 181 167 173 181 168 173 181 168 174 181 169 174 181 170 174 181 170 175 181 171 175 181 172 176 181 173 176 181 174 177 181 175 177 181 177 178 181 178 179 181 180 180 181 182 181 181 158 167 180 138 156 181 138 156 181 138 157 181 138 156 181 138 156 180 138 156 181 138 156 180 138 156 181 138 156 180 138 156 181 138 156 180 138 156 181 138 156 181 138 156 181 137 156 181 138 156 180 138 156 180 138 156 181 138 156 181 138 156 180 137 156 181 138 156 181 138 156 180 138 156 181 138 156 181 138 156 181 138 156 181 138 156 181 138 156 181 138 156 181 138 156 180 138 156 181 138 156 181 138 156 181 138 156 181 138 156 181 138 156 181 138 156 181 138 156 180 138 156 180 138 156 181 138 156 181 138 156 180 137 156 180 138 156 181 137 156 180 138 156 181 138 156 181 
138 156 181 137 156 181 138 156 181 138 156 181 138 156 180 138 156 181 138 156 181 138 157 181 138 156 181 138 156 181 138 156 180 138 156 181 138 156 180 138 156 181 138 156 181 138 156 180 138 156 181 138 156 181 138 156 181 138 156 181 138 156 181 138 156 181 138 156 181 138 156 180 138 156 181 138 156 181 138 156 180 138 156 181 138 156 180 137 156 181 138 156 181 138 156 181 138 157 181 138 156 180 138 156 181 137 156 181 137 156 181 138 156 180 138 156 181 138 156 181 138 156 181 137 156 181 137 156 181 138 156 180 138 156 181 138 157 181 138 156 180 138 156 181 138 156 181 137 156 181 138 156 181 138 156 181 138 156 180 138 156 181 138 156 180 138 156 181 138 156 180 138 156 181 138 156 181 138 156 181 138 156 181 138 156 181 138 156 181 138 156 181 137 156 181 138 156 181 138 156 181 138 156 181 137 156 180 138 156 180 138 156 181 138 156 181 138 156 181 138 156 181 138 156 181 138 156 181 138 156 181 137 156 180 137 156 181 137 156 181 138 156 181 138 156 181 132 145 164 114 100 96 109 86 68 109 85 68 108 85 68 108 85 68 108 85 68 108 85 68 109 85 68 108 84 67 107 84 67 107 84 67 107 84 67 107 84 67 111 89 75 162 172 188 164 181 203 153 170 193 148 166 189 147 164 188 147 165 188 147 165 188 146 164 187 145 162 186 147 165 189 144 162 186 146 164 188 147 165 188 144 162 186 144 162 186 143 161 184 143 160 184 141 159 182 141 159 182 140 158 182 141 159 182 141 159 182 140 158 182 140 158 181 142 159 183 140 158 181 140 158 181 140 158 182 140 158 181 163 164 167 181 180 181 179 179 181 178 179 181 177 178 181 176 177 181 174 177 181 174 176 181 173 176 181 172 176 181 171 175 181 170 175 181 170 174 181 169 174 181 168 174 181 168 174 181 167 173 181 167 173 181 166 173 181 166 173 181 165 172 181 165 172 181 164 172 181 164 172 181 164 172 181 163 171 181 163 171 181 163 171 181 163 171 181 162 171 181 162 171 181 162 171 181 162 171 181 162 171 181 162 170 181 161 170 181 161 170 181 161 170 181 161 170 181 161 170 181 161 170 181 161 170 181 161 170 181 161 170 181 161 170 181 161 170 181 162 170 181 162 171 181 162 171 181 162 171 181 162 171 181 162 171 181 163 171 181 163 171 181 163 171 181 163 171 181 164 172 181 164 172 181 164 172 181 165 172 181 165 172 181 166 173 181 166 173 181 167 173 181 167 173 181 168 174 181 168 174 181 169 174 181 170 174 181 170 175 181 171 175 181 172 176 181 173 176 181 173 176 181 174 177 181 176 177 181 177 178 181 178 179 181 180 180 181 182 181 181 176 177 180 138 157 180 138 156 181 138 156 181 137 156 180 138 156 180 138 156 181 137 156 180 137 156 181 138 156 181 138 156 181 138 156 181 138 156 181 138 156 181 138 156 181 138 156 181 138 156 181 138 156 181 138 156 181 138 156 181 138 156 181 138 156 181 138 156 180 138 156 181 138 156 181 138 156 181 138 156 181 138 156 181 138 156 181 138 156 181 138 156 180 138 156 180 138 156 181 138 156 181 138 156 180 138 156 181 137 156 181 138 156 181 138 156 181 138 156 181 137 156 180 138 156 181 138 156 180 138 156 180 138 156 181 138 156 181 138 156 181 138 156 180 138 156 181 
138 156 181 138 156 180 138 156 181 138 156 181 138 156 180 137 156 181 138 156 181 137 156 181 138 156 181 137 156 180 138 157 181 137 156 181 137 156 181 138 156 180 138 156 180 138 157 181 138 156 181 138 156 181 138 156 180 138 156 181 138 156 181 138 156 181 137 156 181 138 156 180 138 156 181 138 156 181 138 156 181 138 156 181 138 156 181 138 156 181 138 156 181 138 156 181 138 156 180 138 156 181 138 156 180 138 156 181 138 156 181 138 156 181 138 156 180 138 156 181 138 156 180 138 156 180 137 156 181 138 156 180 138 156 180 137 156 181 138 156 181 138 156 180 138 156 180 138 156 181 138 156 180 138 156 181 138 156 181 138 156 181 138 156 181 138 156 181 138 156 181 138 156 180 138 156 181 138 156 181 138 156 181 137 156 181 138 156 180 138 156 181 138 156 180 138 156 180 138 156 181 138 156 181 138 156 181 138 156 181 138 156 180 137 156 181 138 156 180 138 156 181 138 156 181 138 156 181 138 156 181 138 156 181 138 156 181 138 156 180 138 156 181 138 156 181 135 150 172 117 110 112 107 84 67 108 84 67 110 86 68 107 84 67 107 83 67 106 83 67 107 84 67 108 85 68 108 85 68 106 83 66 107 84 67 106 83 67 108 88 76 154 165 183 161 177 200 153 171 194 149 166 190 148 165 189 147 165 189 147 165 188 145 163 187 146 164 187 144 162 186 145 163 186 146 164 188 146 164 188 146 164 188 146 163 187 146 163 186 144 161 184 144 161 185 143 160 184 144 161 184 144 161 184 143 160 183 142 160 184 140 158 181 142 159 182 143 160 184 142 160 183 142 159 182 140 152 169 180 179 178 181 180 181 179 179 181 178 179 181 177 178 181 176 178 181 175 177 181 174 177 181 173 176 181 172 176 181 172 175 181 171 175 181 170 175 181 170 174 181 169 174 181 169 174 181 168 174 181 168 173 181 167 173 181 167 173 181 166 173 181 166 173 181 165 172 181 165 172 181 165 172 181 165 172 181 164 172 181 164 172 181 164 172 181 164 171 181 163 171 181 163 171 181 163 171 181 163 171 181 163 171 181 163 171 181 163 171 181 162 171 181 162 171 181 162 171 181 162 171 181 162 171 181 162 171 181 162 171 181 163 171 181 163 171 181 163 171 181 163 171 181 163 171 181 163 171 181 163 171 181 164 171 181 164 172 181 164 172 181 164 172 181 164 172 181 165 172 181 165 172 181 165 172 181 166 173 181 166 173 181 167 173 181 167 173 181 167 173 181 168 174 181 168 174 181 169 174 181 170 174 181 170 175 181 171 175 181 172 175 181 172 176 181 173 176 181 174 177 181 175 177 181 176 178 181 177 178 181 178 179 181 180 179 181 181 180 181 183 181 180 145 160 180 137 156 180 138 156 181 138 156 181 138 156 181 138 156 180 138 156 181 137 156 181 138 156 181 138 156 180 138 156 181 138 156 180 138 156 181 137 156 180 138 156 180 138 156 181 138 156 181 138 156 181 138 156 181 138 156 180 138 156 181 138 156 180 138 156 181 138 156 181 137 156 180 137 156 181 138 156 181 137 156 181 138 156 181 137 156 180 138 156 180 138 156 180 138 156 181 138 156 181 138 156 181 138 156 180 138 156 180 138 156 181 138 156 181 138 156 181 138 156 181 138 156 180 138 156 180 138 156 181 138 156 181 138 156 181 138 156 180 138 156 181 
137 156 181 138 156 181 138 156 180 137 156 181 137 156 181 138 156 181 138 156 181 138 156 181 138 156 180 138 156 180 138 156 181 138 156 181 138 156 181 138 156 180 137 156 181 138 156 180 138 156 181 138 156 181 138 156 181 138 156 181 138 156 181 138 156 181 138 156 181 137 156 180 137 156 181 138 156 181 137 156 181 138 156 181 138 156 181 138 156 181 138 156 181 138 156 180 138 156 181 138 156 181 138 156 181 138 156 181 138 156 181 138 156 181 138 156 180 138 156 181 138 156 181 137 156 180 138 156 181 138 156 181 138 156 181 138 156 180 138 156 180 138 156 181 137 156 181 138 156 181 138 156 181 138 156 181 138 156 181 138 156 180 138 156 181 137 156 180 138 156 181 138 156 181 138 156 181 138 156 181 138 156 181 138 156 181 138 156 181 138 156 181 138 156 181 138 156 181 138 156 180 138 156 181 138 156 180 138 157 181 138 156 181 138 156 181 138 156 181 138 156 180 138 156 181 138 156 181 138 156 180 138 156 180 138 156 180 138 156 180 138 156 180 138 156 181 136 153 176 120 118 125 106 84 68 107 84 67 106 83 67 105 82 66 106 83 67 107 83 67 107 84 67 107 84 67 106 83 66 106 83 66 106 83 66 107 84 67 110 92 81 153 165 184 157 174 197 154 171 194 152 169 193 148 166 190 149 166 190 146 164 188 146 164 188 145 163 187 145 163 187 146 164 188 145 163 187 144 163 186 145 163 187 147 165 189 146 163 187 144 161 185 144 161 184 145 162 185 144 161 184 143 161 184 144 161 185 142 159 183 141 159 182 144 161 184 143 160 184 141 159 183 145 162 185 152 158 168 183 181 181 181 180 181 179 179 181 178 179 181 177 178 181 176 178 181 175 177 181 174 177 181 174 177 181 173 176 181 172 176 181 172 175 181 171 175 181 170 175 181 170 175 181 169 174 181 169 174 181 168 174 181 168 174 181 168 173 181 167 173 181 167 173 181 167 173 181 166 173 181 166 173 181 166 172 181 165 172 181 165 172 181 165 172 181 165 172 181 165 172 181 164 172 181 164 172 181 164 172 181 164 172 181 164 172 181 164 172 181 164 172 181 164 172 181 164 171 181 164 171 181 164 171 181 164 172 181 164 172 181 164 172 181 164 172 181 164 172 181 164 172 181 164 172 181 164 172 181 164 172 181 165 172 181 165 172 181 165 172 181 165 172 181 166 172 181 166 173 181 166 173 181 166 173 181 167 173 181 167 173 181 168 173 181 168 174 181 168 174 181 169 174 181 169 174 181 170 175 181 170 175 181 171 175 181 172 175 181 172 176 181 173 176 181 174 177 181 174 177 181 175 177 181 176 178 181 177 178 181 178 179 181 180 179 181 181 180 181 183 181 181 161 168 179 138 156 180 137 156 180 138 156 181 138 156 181 137 156 181 137 156 181 138 156 181 138 156 181 138 156 181 138 156 181 138 156 180 138 156 181 138 156 180 138 156 181 138 156 180 138 156 181 138 156 181 138 156 181 138 156 180 137 156 181 137 156 181 138 156 180 137 156 181 138 156 181 138 156 181 138 156 181 138 156 180 138 156 180 138 156 181 138 156 180 138 156 180 138 156 180 138 156 181 138 156 181 137 156 181 138 156 181 137 156 181 138 156 181 138 156 181 138 156 180 138 156 181 138 156 181 138 156 180 138 156 180 138 156 181 138 156 181 138 156 181 
138 156 181 138 156 181 138 156 181 138 156 181 138 156 181 138 156 181 138 156 181 138 156 181 138 156 181 137 156 180 138 156 180 138 156 181 137 156 180 138 156 181 138 156 181 138 156 181 138 156 181 138 156 181 138 156 181 138 156 180 138 156 181 138 156 181 138 156 181 138 156 180 138 156 180 138 156 180 138 156 180 138 156 181 137 156 181 138 156 180 138 156 180 138 156 181 138 156 180 138 156 180 138 156 180 138 156 181 137 156 181 138 156 180 138 156 180 137 156 180 138 156 181 138 156 181 138 156 180 137 156 181 138 156 180 137 156 181 138 156 180 138 156 181 138 156 180 138 156 180 138 156 180 137 156 180 138 156 180 137 156 180 137 156 180 138 156 181 138 156 181 138 156 180 137 156 180 137 156 181 138 156 181 138 156 181 137 156 180 138 156 180 138 156 181 138 156 181 138 156 181 138 156 180 138 156 180 138 156 181 137 156 180 137 156 181 138 156 180 138 156 180 137 156 180 137 156 181 137 156 180 138 156 181 138 156 181 138 156 180 138 156 180 138 156 180 137 156 179 126 133 148 107 89 80 105 82 65 104 82 65 105 82 65 106 83 66 105 82 66 104 81 65 106 83 66 107 83 67 103 81 65 106 83 66 106 83 66 114 98 90 177 188 206 194 209 229 188 204 225 176 192 213 167 183 205 157 174 197 153 170 193 149 167 190 147 165 189 145 163 186 145 163 187 144 163 186 146 163 187 146 164 188 145 163 187 144 162 186 144 161 184 144 162 185 145 163 186 144 161 185 144 161 185 142 160 183 144 162 185 142 160 184 144 161 185 143 160 184 144 162 185 144 161 184 167 167 168 183 181 181 181 180 181 180 180 181 179 179 181 178 178 181 177 178 181 176 178 181 175 177 181 174 177 181 174 177 181 173 176 181 172 176 181 172 176 181 171 175 181 171 175 181 170 175 181 170 175 181 169 174 181 169 174 181 169 174 181 168 174 181 168 174 181 168 173 181 167 173 181 167 173 181 167 173 181 167 173 181 166 173 181 166 173 181 166 173 181 166 173 181 166 172 181 165 172 181 165 172 181 165 172 181 165 172 181 165 172 181 165 172 181 165 172 181 165 172 181 165 172 181 165 172 181 165 172 181 165 172 181 165 172 181 165 172 181 165 172 181 165 172 181 165 172 181 166 172 181 166 173 181 166 173 181 166 173 181 166 173 181 166 173 181 167 173 181 167 173 181 167 173 181 168 173 181 168 174 181 168 174 181 169 174 181 169 174 181 169 174 181 170 175 181 170 175 181 171 175 181 171 175 181 172 176 181 172 176 181 173 176 181 174 176 181 174 177 181 175 177 181 176 178 181 177 178 181 178 178 181 179 179 181 180 180 181 181 180 181 183 181 181 175 176 179 138 156 180 138 156 181 138 156 180 138 156 181 137 156 180 138 156 180 138 156 180 138 156 181 138 156 181 137 156 180 138 156 181 138 156 181 138 156 180 138 156 180 138 156 181 138 156 181 138 156 181 137 156 181 138 156 180 138 156 180 138 156 181 138 156 181 138 156 180 138 156 180 137 156 180 138 156 181 137 156 180 137 156 181 137 156 180 138 156 181 138 156 181 138 156 181 138 156 181 138 156 181 137 156 180 138 156 181 138 156 181 138 156 181 138 156 181 138 156 180 138 156 180 138 156 181 138 156 181 138 156 181 138 156 181 138 156 181 138 156 181 
138 156 181 137 156 181 138 156 180 138 156 181 138 156 180 138 156 180 138 156 181 137 156 180 138 156 180 138 156 181 138 156 180 138 156 181 138 156 180 138 156 181 138 156 181 138 156 181 138 156 181 138 156 181 138 156 181 138 156 180 138 156 181 138 156 181 138 156 181 137 156 180 138 156 180 138 156 181 138 156 180 138 156 181 138 156 181 138 156 181 137 156 181 138 156 181 138 156 180 138 156 180 138 156 180 138 156 180 138 156 181 138 156 180 138 156 181 137 156 181 138 156 180 137 156 181 137 156 180 138 156 180 138 156 181 138 156 180 138 156 181 137 156 180 138 156 181 138 156 180 137 156 180 138 156 180 138 156 181 138 156 181 138 156 180 138 156 180 138 156 180 138 156 181 138 156 181 138 156 180 137 156 181 138 156 180 138 156 181 138 156 180 138 156 181 138 156 181 138 156 181 138 156 180 138 156 180 138 156 180 138 156 181 138 156 181 137 156 180 138 156 181 138 157 181 138 156 181 138 156 180 138 156 180 138 156 180 138 156 181 138 156 181 138 156 180 137 156 181 132 146 166 114 104 104 104 81 65 105 82 65 104 81 65 105 82 66 104 81 65 104 81 65 104 81 65 104 81 65 105 82 65 104 81 65 104 81 65 113 96 88 180 192 210 207 221 242 211 226 246 216 230 250 216 230 250 215 229 249 213 227 247 208 222 242 202 217 237 195 210 230 190 205 226 184 199 220 182 198 219 176 192 213 174 190 212 171 187 208 166 182 203 159 175 197 158 174 196 156 173 195 154 171 193 152 169 191 154 171 193 150 167 190 152 169 192 147 164 187 149 166 189 143 157 176 181 179 178 182 181 181 181 180 181 180 180 181 179 179 181 178 179 181 177 178 181 176 178 181 176 178 181 175 177 181 174 177 181 174 177 181 173 176 181 173 176 181 172 176 181 172 176 181 171 175 181 171 175 181 170 175 181 170 175 181 170 175 181 169 174 181 169 174 181 169 174 181 168 174 181 168 174 181 168 174 181 168 174 181 168 173 181 167 173 181 167 173 181 167 173 181 167 173 181 167 173 181 167 173 181 166 173 181 166 173 181 166 173 181 166 173 181 166 173 181 166 173 181 166 173 181 166 173 181 166 173 181 166 173 181 166 173 181 166 173 181 166 173 181 166 173 181 167 173 181 167 173 181 167 173 181 167 173 181 167 173 181 167 173 181 168 173 181 168 174 181 168 174 181 168 174 181 169 174 181 169 174 181 169 174 181 170 174 181 170 175 181 170 175 181 171 175 181 171 175 181 172 175 181 172 176 181 173 176 181 173 176 181 174 177 181 174 177 181 175 177 181 176 177 181 176 178 181 177 178 181 178 179 181 179 179 181 180 180 181 181 180 181 183 181 181 183 181 180 140 157 179 138 156 181 138 156 180 138 156 180 138 156 180 137 156 180 138 156 181 138 156 180 138 156 180 138 156 180 138 156 180 138 156 181 137 156 180 137 156 181 138 156 180 137 156 181 138 156 181 138 156 181 137 156 180 138 156 180 138 156 180 138 156 180 138 156 181 138 156 181 138 156 181 138 156 180 138 156 181 138 156 180 138 156 180 137 156 180 138 156 180 137 156 180 138 156 181 138 156 180 138 156 181 138 156 180 138 156 180 138 156 180 138 156 180 138 156 181 138 156 181 138 156 181 138 156 181 138 156 180 138 156 180 138 156 181 138 156 180 
138 156 181 137 156 180 138 156 181 138 156 181 138 156 180 138 156 180 138 156 180 138 156 180 138 156 181 138 156 180 138 156 180 137 156 181 137 156 181 138 156 180 138 156 181 138 156 180 137 156 180 137 156 180 137 156 180 138 156 181 138 156 181 138 156 180 137 156 180 138 156 180 138 156 180 138 156 181 138 156 180 137 156 180 137 156 180 138 156 180 138 156 181 137 156 180 138 156 181 137 156 180 138 156 180 138 156 180 138 156 181 138 156 181 138 156 181 138 156 180 137 156 180 138 156 180 137 156 181 138 156 180 138 156 180 138 156 181 138 156 181 138 156 180 138 156 180 137 156 180 137 156 181 138 156 180 138 156 181 138 156 181 138 156 180 138 156 181 138 156 180 138 156 181 138 156 181 138 156 180 137 156 181 138 156 180 138 156 180 138 156 180 138 156 180 138 156 180 138 156 180 137 156 181 138 156 180 137 156 180 138 156 180 138 156 180 138 156 180 138 156 180 138 156 181 138 156 180 138 156 181 138 156 181 138 156 180 138 156 180 138 156 180 138 156 180 138 156 180 135 152 175 119 120 129 102 82 70 103 81 64 103 81 64 103 81 64 102 80 64 104 81 65 104 81 65 102 80 64 103 80 64 103 81 65 102 79 63 109 90 79 174 185 201 202 217 238 212 226 247 215 229 250 215 230 250 216 231 251 218 232 252 218 232 252 217 232 252 218 232 252 219 233 253 219 233 253 219 233 252 219 233 253 219 233 253 219 233 253 218 232 251 217 231 250 217 231 250 215 229 248 216 230 249 214 228 247 215 229 248 215 229 248 213 227 246 214 228 247 213 227 246 184 192 203 184 182 181 183 181 181 181 180 181 180 180 181 179 179 181 179 179 181 178 179 181 177 178 181 176 178 181 176 178 181 175 177 181 175 177 181 174 177 181 174 176 181 173 176 181 173 176 181 172 176 181 172 176 181 172 175 181 171 175 181 171 175 181 171 175 181 170 175 181 170 175 181 170 174 181 169 174 181 169 174 181 169 174 181 169 174 181 169 174 181 168 174 181 168 174 181 168 174 181 168 174 181 168 174 181 168 174 181 168 173 181 168 173 181 168 173 181 167 173 181 167 173 181 167 173 181 167 173 181 167 173 181 167 173 181 168 173 181 168 173 181 168 174 181 168 174 181 168 174 181 168 174 181 168 174 181 168 174 181 168 174 181 169 174 181 169 174 181 169 174 181 169 174 181 170 174 181 170 175 181 170 175 181 170 175 181 171 175 181 171 175 181 171 175 181 172 176 181 172 176 181 173 176 181 173 176 181 173 176 181 174 177 181 175 177 181 175 177 181 176 178 181 176 178 181 177 178 181 178 179 181 178 179 181 179 179 181 180 180 181 181 180 181 183 181 181 184 182 181 150 161 177 138 156 180 138 156 180 138 156 180 138 156 181 137 156 181 138 156 180 138 156 180 138 156 181 138 156 180 137 156 180 138 156 181 137 156 180 138 156 181 138 156 180 138 156 181 138 156 180 138 156 180 138 156 180 138 156 180 138 156 181 138 156 180 138 156 181 138 156 180 138 156 180 138 156 181 138 156 181 138 156 180 138 156 180 138 156 180 138 156 181 138 156 180 138 156 181 138 156 181 137 156 180 137 156 181 137 156 180 138 156 181 138 156 181 138 156 180 137 156 181 138 156 181 138 156 181 138 156 181 138 156 180 138 156 181 137 156 180 
137 156 180 138 156 180 137 156 180 138 156 181 138 156 180 138 156 180 138 156 181 138 156 180 138 156 180 138 156 180 138 156 180 138 156 181 138 156 181 138 156 180 137 156 180 138 156 181 138 156 180 137 156 181 138 156 181 138 156 180 138 156 180 138 156 181 138 157 181 138 156 180 137 156 180 138 156 180 138 156 180 138 156 180 138 156 181 137 156 180 138 156 181 138 156 180 138 156 181 138 156 181 138 156 180 137 156 180 138 156 180 137 156 180 137 156 180 137 156 181 138 156 180 138 156 180 138 156 180 138 156 181 138 156 181 137 156 180 138 156 180 138 156 180 138 156 180 138 156 180 138 156 180 137 156 180 138 156 180 138 156 180 138 156 180 138 156 180 137 156 180 138 156 180 138 156 180 138 156 181 138 156 180 138 156 180 138 156 181 138 156 180 138 156 180 138 156 180 138 156 180 138 156 180 137 156 180 137 156 180 137 156 180 138 156 180 138 156 180 138 156 180 138 156 181 138 156 181 138 156 180 138 156 180 137 156 180 138 156 181 138 156 180 138 156 180 137 156 180 138 156 180 129 139 157 108 96 92 101 79 63 102 79 63 102 79 63 101 79 63 103 80 64 101 79 63 102 80 63 102 80 64 101 79 63 100 78 63 104 85 73 169 179 196 203 218 240 210 226 247 213 228 249 214 229 250 216 231 251 217 232 253 217 231 252 217 232 252 218 233 253 218 233 253 218 233 253 218 233 253 218 233 253 218 232 252 218 233 253 219 233 253 217 231 250 217 231 251 217 231 251 216 230 249 216 230 250 217 231 251 216 230 250 217 231 251 217 231 250 217 231 250 182 186 191 184 182 181 183 181 181 182 181 181 181 180 181 180 180 181 179 179 181 178 179 181 178 179 181 177 178 181 177 178 181 176 178 181 176 177 181 175 177 181 175 177 181 174 177 181 174 177 181 173 176 181 173 176 181 173 176 181 172 176 181 172 176 181 172 175 181 171 175 181 171 175 181 171 175 181 171 175 181 170 175 181 170 175 181 170 175 181 170 175 181 170 174 181 169 174 181 169 174 181 169 174 181 169 174 181 169 174 181 169 174 181 169 174 181 169 174 181 169 174 181 169 174 181 169 174 181 169 174 181 169 174 181 169 174 181 169 174 181 169 174 181 169 174 181 169 174 181 169 174 181 169 174 181 169 174 181 170 174 181 170 175 181 170 175 181 170 175 181 170 175 181 170 175 181 171 175 181 171 175 181 171 175 181 172 175 181 172 176 181 172 176 181 172 176 181 173 176 181 173 176 181 174 176 181 174 177 181 174 177 181 175 177 181 175 177 181 176 178 181 176 178 181 177 178 181 178 179 181 178 179 181 179 179 181 180 180 181 181 180 181 182 181 181 183 181 181 184 182 181 160 166 176 137 156 180 138 156 180 138 156 180 138 156 180 138 156 180 138 156 180 137 156 180 138 156 180 137 156 180 138 156 180 138 156 180 138 156 181 138 156 180 138 156 180 138 156 180 137 156 180 138 156 180 138 157 181 137 156 181 138 156 180 138 156 180 138 156 180 138 156 181 137 156 180 138 156 180 138 156 180 137 156 180 138 156 181 137 156 180 138 156 180 138 156 181 138 156 180 138 156 180 138 156 181 138 156 181 138 156 181 137 156 180 138 156 181 138 156 181 138 156 180 138 156 181 138 156 181 137 156 181 137 156 180 138 156 181 137 156 181 
138 156 181 138 156 180 138 156 180 138 156 180 138 156 181 138 156 180 138 156 180 138 156 180 138 156 181 138 156 181 138 156 180 138 156 181 138 156 180 137 156 181 138 156 180 138 156 180 138 156 180 138 156 180 138 156 180 138 156 181 137 156 180 138 156 180 138 156 181 138 156 180 138 156 180 138 156 180 138 156 181 138 156 180 138 156 181 138 156 180 137 156 181 138 156 180 138 156 181 138 156 180 137 156 180 138 156 180 138 156 180 137 156 180 138 156 181 138 156 180 138 156 180 138 156 181 137 156 180 138 156 180 138 156 181 138 156 180 137 156 180 138 156 181 138 156 180 138 156 181 137 156 181 138 156 180 138 156 180 138 156 180 138 156 180 138 156 180 138 156 181 137 156 180 138 156 180 137 156 180 138 156 180 138 156 180 137 156 180 138 156 180 138 156 180 137 156 180 138 156 180 138 156 180 138 156 180 138 156 180 138 156 180 138 156 180 137 156 180 138 156 180 137 156 180 138 156 180 138 156 180 138 156 180 137 156 180 138 156 180 137 156 180 137 156 180 138 156 180 137 156 180 135 152 175 118 120 130 100 79 65 100 78 63 101 79 63 99 77 62 102 79 63 102 79 63 99 77 62 101 79 63 100 78 63 102 79 63 101 79 64 158 166 181 200 216 238 209 225 247 214 229 251 214 229 251 215 230 251 216 231 252 216 231 252 217 232 252 217 232 252 217 232 253 217 232 252 218 233 253 217 232 253 218 232 253 218 233 253 218 233 253 217 232 253 217 232 252 216 230 250 216 230 250 216 230 250 216 230 250 215 230 250 216 230 250 217 231 251 216 230 250 180 179 179 184 182 181 183 181 181 182 181 181 181 180 181 180 180 181 180 180 181 179 179 181 179 179 181 178 179 181 177 178 181 177 178 181 176 178 181 176 178 181 176 177 181 175 177 181 175 177 181 174 177 181 174 177 181 174 177 181 173 176 181 173 176 181 173 176 181 173 176 181 172 176 181 172 176 181 172 176 181 172 175 181 171 175 181 171 175 181 171 175 181 171 175 181 171 175 181 171 175 181 171 175 181 170 175 181 170 175 181 170 175 181 170 175 181 170 175 181 170 175 181 170 175 181 170 175 181 170 175 181 170 175 181 170 175 181 170 175 181 170 175 181 170 175 181 170 175 181 170 175 181 171 175 181 171 175 181 171 175 181 171 175 181 171 175 181 171 175 181 171 175 181 172 176 181 172 176 181 172 176 181 172 176 181 173 176 181 173 176 181 173 176 181 174 176 181 174 177 181 174 177 181 175 177 181 175 177 181 175 177 181 176 178 181 176 178 181 177 178 181 177 178 181 178 179 181 178 179 181 179 179 181 180 180 181 180 180 181 181 180 181 182 181 181 183 181 181 184 182 181 165 168 173 138 156 180 138 156 180 138 156 180 137 156 180 138 156 181 137 156 180 137 156 180 138 156 181 138 156 180 137 156 180 138 156 180 138 156 180 137 156 180 138 156 181 138 156 180 138 156 180 138 156 180 137 156 180 138 156 180 138 156 180 138 156 180 137 156 180 138 156 180 138 156 180 138 156 180 138 156 180 137 156 180 137 156 181 138 156 180 138 156 180 138 156 180 138 156 180 137 156 180 137 156 180 138 156 180 138 156 181 138 156 180 138 156 180 138 156 180 138 156 180 138 156 180 138 156 180 138 156 181 138 156 180 138 156 180 137 156 181 
137 156 180 138 156 180 138 156 180 137 156 181 137 156 180 138 156 180 138 156 180 137 156 181 137 156 180 138 156 180 138 156 180 138 156 180 138 156 180 138 156 181 138 156 181 138 156 180 138 156 180 137 156 180 137 156 180 138 156 181 138 156 180 137 156 180 137 156 180 138 156 180 138 156 180 138 156 180 137 156 180 138 156 181 137 156 180 138 156 180 138 156 180 137 156 180 138 156 180 137 156 180 138 156 181 138 156 180 138 156 180 137 156 180 138 156 180 138 156 181 137 156 180 138 156 180 138 156 180 138 156 181 137 156 180 138 156 180 137 156 180 138 156 180 137 156 180 137 156 180 137 156 180 138 156 180 138 156 180 137 156 180 137 156 180 138 156 180 138 156 180 137 156 180 137 156 180 138 156 180 137 156 180 138 156 180 137 156 180 138 156 180 138 156 180 138 156 180 138 156 180 138 156 180 137 156 180 138 156 180 137 156 180 138 156 180 137 156 181 138 156 180 138 156 180 138 156 180 138 156 181 137 156 180 138 156 180 138 156 180 137 156 180 138 156 180 137 156 180 137 156 180 138 156 180 128 140 158 105 94 93 98 77 61 98 76 61 100 78 62 100 78 62 97 76 60 100 78 62 99 77 61 99 78 62 100 78 62 99 77 62 143 147 158 197 214 237 207 224 246 211 227 249 213 229 251 214 230 251 215 231 252 216 231 252 216 231 253 215 230 251 215 231 252 216 231 253 217 232 253 216 231 252 217 232 253 217 232 253 217 232 253 218 233 254 217 232 253 216 231 252 216 231 252 216 230 251 215 230 251 215 230 250 216 231 251 216 231 251 211 224 242 184 181 179 184 182 181 183 181 181 183 181 181 182 181 181 181 180 181 180 180 181 180 180 181 179 179 181 179 179 181 178 179 181 178 179 181 177 178 181 177 178 181 177 178 181 176 178 181 176 178 181 175 177 181 175 177 181 175 177 181 175 177 181 174 177 181 174 177 181 174 177 181 174 176 181 173 176 181 173 176 181 173 176 181 173 176 181 173 176 181 172 176 181 172 176 181 172 176 181 172 176 181 172 176 181 172 176 181 172 176 181 172 175 181 172 175 181 172 175 181 172 175 181 171 175 181 171 175 181 171 175 181 171 175 181 171 175 181 172 175 181 172 175 181 172 175 181 172 176 181 172 176 181 172 176 181 172 176 181 172 176 181 172 176 181 172 176 181 173 176 181 173 176 181 173 176 181 173 176 181 173 176 181 174 176 181 174 177 181 174 177 181 174 177 181 175 177 181 175 177 181 175 177 181 176 177 181 176 178 181 176 178 181 177 178 181 177 178 181 178 178 181 178 179 181 179 179 181 179 179 181 180 180 181 180 180 181 181 180 181 182 181 181 182 181 181 183 181 181 184 182 181 171 170 171 137 155 179 137 156 180 137 156 180 138 156 180 138 156 180 137 156 180 138 156 180 138 156 181 137 156 180 138 156 180 138 156 180 138 156 180 138 156 180 138 156 180 137 156 180 138 156 180 137 156 180 138 156 180 138 156 180 138 156 180 138 156 181 137 156 180 138 156 181 138 156 181 138 156 180 137 156 180 137 156 180 138 156 180 138 156 180 138 156 180 138 156 180 138 156 180 138 156 180 138 156 180 138 156 181 138 156 180 138 156 181 137 156 181 138 156 181 137 156 180 137 156 180 138 156 180 138 156 180 138 156 180 138 156 181 138 156 181 
138 156 181 137 156 180 138 156 180 138 156 180 138 156 180 138 156 180 138 156 180 138 156 180 137 156 180 138 156 181 137 156 180 138 156 180 137 156 180 138 156 180 138 156 180 138 156 180 137 156 180 137 156 180 138 156 180 137 156 180 138 156 180 138 156 180 138 156 181 138 156 180 138 156 180 138 156 180 138 156 180 137 156 180 137 156 180 138 156 180 138 156 181 137 156 180 138 156 180 137 156 180 138 156 180 138 156 180 138 156 180 138 156 180 137 156 180 138 156 181 138 156 180 137 156 180 137 156 180 138 156 181 138 156 180 138 156 180 138 156 180 138 156 180 138 156 181 138 156 180 137 156 180 137 156 180 138 156 180 137 156 180 137 156 180 138 156 180 138 156 180 138 156 180 138 156 180 138 156 180 137 156 180 138 156 180 138 156 180 137 156 180 137 156 180 137 156 180 137 156 180 137 156 180 137 156 180 137 156 180 138 156 180 137 156 180 137 156 180 138 156 180 137 156 180 138 156 180 138 156 180 138 156 180 138 156 180 137 156 180 137 156 180 138 156 180 137 156 180 138 156 180 137 156 180 136 153 176 120 125 139 101 86 78 98 76 60 97 76 61 98 76 61 98 76 61 97 76 60 97 76 61 98 76 61 96 75 60 97 76 61 125 123 128 191 208 230 205 221 244 210 226 249 211 227 250 214 230 253 214 230 252 214 230 252 215 231 252 216 232 253 215 231 252 215 231 253 216 232 253 216 232 253 216 232 253 216 231 252 216 231 252 216 231 252 217 232 253 216 231 252 216 231 252 217 232 253 216 231 252 217 232 253 216 231 252 217 232 253 203 215 231 181 178 177 185 182 181 184 182 181 183 181 181 182 181 181 182 181 181 181 180 181 181 180 181 180 180 181 180 180 181 179 179 181 179 179 181 178 179 181 178 179 181 178 179 181 177 178 181 177 178 181 177 178 181 176 178 181 176 178 181 176 178 181 175 177 181 175 177 181 175 177 181 175 177 181 175 177 181 174 177 181 174 177 181 174 177 181 174 177 181 174 177 181 174 176 181 173 176 181 173 176 181 173 176 181 173 176 181 173 176 181 173 176 181 173 176 181 173 176 181 173 176 181 173 176 181 173 176 181 173 176 181 173 176 181 173 176 181 173 176 181 173 176 181 173 176 181 173 176 181 173 176 181 173 176 181 173 176 181 173 176 181 174 176 181 174 177 181 174 177 181 174 177 181 174 177 181 174 177 181 175 177 181 175 177 181 175 177 181 175 177 181 175 177 181 176 178 181 176 178 181 176 178 181 177 178 181 177 178 181 177 178 181 178 179 181 178 179 181 178 179 181 179 179 181 179 179 181 180 180 181 180 180 181 181 180 181 182 181 181 182 181 181 183 181 181 184 182 181 185 182 181 173 171 171 136 153 176 137 156 180 138 156 180 138 156 180 137 156 180 137 156 180 138 156 180 138 156 181 138 156 180 137 156 180 138 156 180 138 156 180 137 156 180 138 156 180 138 156 180 138 156 180 138 156 180 138 156 180 138 156 180 138 156 181 137 156 180 137 156 180 137 156 180 138 156 180 138 156 180 138 156 180 137 156 181 138 156 180 138 156 181 137 156 180 137 156 180 138 156 181 138 156 180 137 156 180 138 156 180 138 156 180 138 156 180 138 156 181 138 156 180 137 156 180 138 156 180 137 156 180 138 156 180 138 156 180 138 156 180 138 156 181 
138 156 180 138 156 180 137 156 180 138 156 180 138 156 180 138 156 180 138 156 180 137 156 180 137 156 180 138 156 180 138 156 180 137 156 180 138 156 180 138 156 180 138 156 180 138 156 180 137 156 180 138 156 180 137 156 180 138 156 180 137 156 180 138 156 181 137 156 180 138 156 180 137 156 180 138 156 180 138 156 180 138 156 180 137 156 180 137 156 180 138 156 180 137 156 180 138 156 180 138 156 180 137 156 180 138 156 180 137 156 180 138 156 180 138 156 180 138 156 180 138 156 180 137 156 180 137 156 180 137 156 180 138 156 180 137 156 180 137 156 180 137 156 180 138 156 180 137 156 180 138 156 180 137 156 180 137 156 180 137 156 180 137 156 180 138 156 180 138 156 180 137 156 180 137 156 180 137 156 180 137 156 180 138 156 180 138 156 180 137 156 180 137 156 180 137 156 180 137 156 180 138 156 180 137 156 180 137 156 180 137 156 180 137 156 180 137 156 180 137 156 180 137 156 180 137 156 180 137 156 180 138 156 180 137 156 180 138 156 180 137 156 180 138 156 180 137 156 180 138 156 180 137 156 180 137 156 180 133 148 170 112 111 118 96 76 63 95 74 59 94 73 58 95 74 59 97 75 60 95 74 59 95 74 59 96 75 60 95 74 59 111 102 102 184 200 221 200 217 240 208 225 248 211 227 250 211 227 250 212 229 251 213 229 252 214 230 252 215 231 253 215 231 254 215 231 253 215 231 253 215 231 253 215 230 252 215 231 253 215 231 253 215 231 253 214 230 252 216 231 253 215 231 252 215 231 253 216 231 253 215 231 252 215 231 252 216 232 254 189 199 213 177 175 174 185 182 181 184 182 181 184 182 181 183 181 181 182 181 181 182 181 181 181 180 181 181 180 181 180 180 181 180 180 181 180 180 181 179 179 181 179 179 181 179 179 181 178 179 181 178 179 181 178 179 181 177 178 181 177 178 181 177 178 181 177 178 181 176 178 181 176 178 181 176 178 181 176 178 181 176 178 181 175 177 181 175 177 181 175 177 181 175 177 181 175 177 181 175 177 181 175 177 181 175 177 181 174 177 181 174 177 181 174 177 181 174 177 181 174 177 181 174 177 181 174 177 181 174 177 181 174 177 181 174 177 181 174 177 181 174 177 181 174 177 181 174 177 181 174 177 181 174 177 181 175 177 181 175 177 181 175 177 181 175 177 181 175 177 181 175 177 181 175 177 181 175 177 181 176 177 181 176 178 181 176 178 181 176 178 181 176 178 181 177 178 181 177 178 181 177 178 181 177 178 181 178 179 181 178 179 181 178 179 181 179 179 181 179 179 181 179 179 181 180 180 181 180 180 181 181 180 181 181 180 181 182 181 181 182 181 181 183 181 181 183 181 181 184 182 181 185 182 181 172 171 170 132 148 169 137 156 180 138 156 180 138 156 180 138 156 180 138 156 180 138 156 180 137 156 180 137 156 180 138 156 180 138 156 180 137 156 180 138 156 180 138 156 181 137 156 180 138 156 180 138 156 180 138 156 180 137 156 180 137 156 180 138 156 180 137 156 180 138 156 180 137 156 180 138 156 180 137 156 180 137 156 180 138 156 181 138 156 180 137 156 180 138 156 180 138 156 180 137 156 180 137 156 180 138 156 180 138 156 180 137 156 180 138 156 180 138 156 180 138 156 180 138 156 180 137 156 180 138 156 180 138 156 180 137 156 180 138 156 180 
138 156 180 137 156 180 137 156 180 138 156 180 137 156 180 138 156 180 138 156 180 137 156 180 138 156 180 137 156 180 137 156 180 137 156 180 137 156 180 138 156 180 137 156 180 137 156 180 138 156 180 138 156 180 137 156 180 137 156 180 137 156 180 138 156 180 138 156 180 137 156 180 138 156 180 137 156 180 138 156 181 137 156 180 137 156 180 138 156 180 138 156 180 137 156 180 137 156 180 138 156 180 138 156 180 138 156 180 137 156 180 137 156 180 137 156 180 137 156 180 137 156 180 137 156 180 138 156 180 137 155 180 137 156 180 138 156 180 137 156 180 138 156 180 138 156 180 138 156 180 137 156 180 137 156 180 137 156 180 138 156 180 137 156 180 137 156 180 137 156 180 138 156 180 137 156 180 137 156 179 137 156 180 137 156 180 137 156 180 137 155 180 138 156 180 137 156 180 138 156 180 138 156 180 138 156 180 137 156 180 137 156 180 137 156 180 137 155 179 137 156 180 138 156 180 137 155 179 137 155 179 137 155 180 137 155 179 137 155 180 137 155 180 137 155 179 137 155 179 137 155 179 137 156 180 137 155 179 137 155 179 129 142 161 107 102 106 94 74 61 93 72 58 94 73 58 92 72 57 91 71 57 94 73 58 94 73 58 93 72 58 98 83 76 165 177 196 198 215 239 206 223 247 209 226 250 210 228 251 212 229 252 212 228 252 213 230 253 213 229 252 213 230 253 213 230 252 214 230 253 214 230 253 214 230 253 214 230 253 214 230 253 214 230 253 214 230 253 215 231 253 215 231 253 215 231 253 215 230 252 215 231 253 215 231 253 214 230 252 181 190 203 164 163 163 185 183 181 185 182 181 184 182 181 184 182 181 183 181 181 183 181 181 182 181 181 182 181 181 181 180 181 181 180 181 181 180 181 180 180 181 180 180 181 180 180 181 179 179 181 179 179 181 179 179 181 179 179 181 178 179 181 178 179 181 178 179 181 178 179 181 177 178 181 177 178 181 177 178 181 177 178 181 177 178 181 177 178 181 176 178 181 176 178 181 176 178 181 176 178 181 176 178 181 176 178 181 176 178 181 176 178 181 176 178 181 176 178 181 176 177 181 176 177 181 176 177 181 176 177 181 176 177 181 176 177 181 176 177 181 176 177 181 176 178 181 176 178 181 176 178 181 176 178 181 176 178 181 176 178 181 176 178 181 176 178 181 176 178 181 176 178 181 177 178 181 177 178 181 177 178 181 177 178 181 177 178 181 177 178 181 178 179 181 178 179 181 178 179 181 178 179 181 179 179 181 179 179 181 179 179 181 179 179 181 180 180 181 180 180 181 180 180 181 181 180 181 181 180 181 181 181 181 182 181 181 182 181 181 183 181 181 183 181 181 184 182 181 185 182 181 185 182 181 165 164 164 130 145 164 138 156 180 138 156 180 137 156 180 138 156 180 138 156 180 138 156 180 137 156 180 138 156 180 138 156 180 137 156 180 137 156 180 138 156 181 138 156 180 137 156 180 138 156 180 138 156 180 138 156 180 137 156 180 137 156 180 138 156 181 137 156 180 137 156 180 137 156 180 138 156 180 138 156 180 138 156 180 138 156 180 137 156 180 137 156 180 137 156 180 137 156 180 137 156 180 138 156 181 138 156 180 138 156 180 137 156 180 138 156 180 138 156 180 138 156 181 138 156 180 137 156 180 137 156 180 138 156 180 138 156 180 138 156 181 
137 156 180 138 156 180 138 156 180 137 156 180 138 156 180 138 156 180 137 156 180 138 156 180 138 156 180 138 156 180 137 156 180 138 156 180 138 156 180 138 156 180 137 156 180 137 156 180 137 156 180 137 156 180 137 156 180 138 156 180 137 156 180 138 156 180 137 156 180 137 156 180 137 156 180 137 156 180 137 156 180 138 156 180 137 156 180 137 155 180 138 156 180 137 156 180 137 156 180 137 156 180 137 156 180 137 156 180 137 156 180 137 156 180 137 156 180 137 156 180 137 156 180 137 156 180 137 156 180 138 156 180 137 156 180 137 156 180 137 155 180 137 156 180 137 156 180 137 155 180 137 156 180 137 155 180 137 156 180 137 155 179 137 156 180 137 156 180 137 156 180 137 156 180 137 155 179 138 156 179 137 155 179 137 155 179 137 156 180 137 155 180 137 155 179 137 156 180 137 155 179 137 156 180 137 155 179 138 156 179 137 156 180 137 155 179 137 155 179 137 155 179 137 155 179 137 155 179 136 155 179 136 155 179 138 156 180 137 155 179 137 155 179 137 156 180 137 155 179 137 155 179 136 155 179 137 156 180 137 155 179 136 154 177 126 137 156 103 96 97 90 71 57 92 71 57 91 71 56 92 71 57 91 70 56 90 70 56 92 72 57 90 71 57 143 149 163 193 211 235 203 221 245 207 224 249 208 226 250 211 228 252 212 229 252 211 228 252 212 229 252 212 229 253 213 230 253 213 230 253 213 230 253 213 230 252 213 230 253 214 230 253 214 230 253 214 231 253 215 231 253 214 230 253 214 230 253 213 230 252 214 230 253 214 230 252 214 230 253 170 179 191 136 139 142 185 182 180 185 182 181 185 182 181 184 182 181 184 182 181 183 182 181 183 181 181 183 181 181 182 181 181 182 181 181 182 181 181 181 180 181 181 180 181 181 180 181 181 180 181 180 180 181 180 180 181 180 180 181 180 179 181 179 179 181 179 179 181 179 179 181 179 179 181 179 179 181 178 179 181 178 179 181 178 179 181 178 179 181 178 179 181 178 179 181 178 178 181 177 178 181 177 178 181 177 178 181 177 178 181 177 178 181 177 178 181 177 178 181 177 178 181 177 178 181 177 178 181 177 178 181 177 178 181 177 178 181 177 178 181 177 178 181 177 178 181 177 178 181 177 178 181 177 178 181 177 178 181 177 178 181 177 178 181 178 178 181 178 179 181 178 179 181 178 179 181 178 179 181 178 179 181 178 179 181 178 179 181 179 179 181 179 179 181 179 179 181 179 179 181 179 179 181 180 180 181 180 180 181 180 180 181 180 180 181 181 180 181 181 180 181 181 180 181 182 181 181 182 181 181 182 181 181 183 181 181 183 181 181 184 182 181 184 182 181 185 182 181 185 182 181 186 183 181 148 149 151 128 142 159 137 156 180 138 156 180 138 156 180 138 156 180 137 156 180 137 156 180 137 156 180 137 156 180 137 155 180 137 156 180 137 156 180 137 156 180 137 156 180 138 156 180 138 156 180 137 156 180 138 156 180 138 156 180 138 156 180 137 156 180 137 156 180 137 156 180 137 156 180 137 156 180 137 156 180 137 156 180 138 156 180 138 156 180 138 156 180 137 156 180 138 156 180 138 156 180 138 156 180 138 156 180 137 156 180 137 156 180 138 156 181 137 156 180 138 156 180 138 156 180 138 156 180 138 156 180 138 156 180 138 156 180 137 156 180 
138 156 180 137 156 180 138 156 180 138 156 181 137 156 181 138 156 180 138 156 180 138 156 180 137 156 180 137 156 180 138 156 180 138 156 180 137 156 180 137 156 180 138 156 180 137 156 180 137 156 180 137 155 180 137 156 180 137 156 180 138 156 180 137 156 180 137 156 180 137 156 180 137 156 180 138 156 180 138 156 180 137 156 180 137 156 180 137 156 180 137 156 180 137 156 180 137 156 180 137 156 180 137 156 180 138 156 180 137 156 180 137 156 180 137 156 180 137 155 179 137 156 180 137 155 180 137 156 180 137 156 180 137 155 180 137 156 180 137 155 179 137 155 179 137 155 179 137 155 179 137 155 179 137 156 180 137 155 180 137 155 180 137 155 179 137 155 179 137 155 179 137 155 180 137 155 179 137 155 179 137 155 179 136 155 179 136 155 179 137 155 179 137 155 179 137 155 179 137 155 179 137 156 180 137 155 179 137 155 179 137 155 179 137 155 179 137 155 179 136 155 179 137 155 179 136 155 179 137 155 179 137 155 179 136 154 178 136 154 178 136 154 178 136 154 178 137 155 179 136 155 179 136 155 179 136 154 178 136 154 179 136 155 179 136 153 177 122 133 150 102 96 98 87 68 56 87 68 54 89 69 55 88 68 54 89 69 54 89 69 55 90 70 56 112 108 111 184 201 225 198 217 242 204 223 248 207 225 250 209 227 251 210 228 252 210 228 252 211 228 252 212 229 253 212 229 253 212 229 253 213 230 254 212 229 253 212 229 253 213 230 253 213 230 253 213 229 253 213 230 253 212 229 252 213 230 253 213 230 252 214 231 253 213 230 253 213 230 253 159 167 177 115 121 128 155 155 156 186 183 180 185 183 181 185 182 181 185 182 181 184 182 181 184 182 181 184 182 181 183 181 181 183 181 181 183 181 181 182 181 181 182 181 181 182 181 181 182 181 181 181 180 181 181 180 181 181 180 181 181 180 181 181 180 181 180 180 181 180 180 181 180 180 181 180 180 181 180 180 181 180 179 181 179 179 181 179 179 181 179 179 181 179 179 181 179 179 181 179 179 181 179 179 181 179 179 181 179 179 181 179 179 181 178 179 181 178 179 181 178 179 181 178 179 181 178 179 181 178 179 181 178 179 181 178 179 181 178 179 181 178 179 181 178 179 181 178 179 181 178 179 181 179 179 181 179 179 181 179 179 181 179 179 181 179 179 181 179 179 181 179 179 181 179 179 181 179 179 181 179 179 181 180 179 181 180 180 181 180 180 181 180 180 181 180 180 181 180 180 181 181 180 181 181 180 181 181 180 181 181 180 181 181 180 181 182 181 181 182 181 181 182 181 181 183 181 181 183 181 181 183 181 181 184 182 181 184 182 181 184 182 181 185 182 181 185 182 181 186 183 181 180 177 176 120 125 131 127 140 156 138 156 180 137 156 180 137 156 180 137 156 180 137 156 180 137 156 180 137 156 180 138 156 180 137 156 180 138 156 180 137 156 180 138 156 180 137 156 180 138 156 181 137 156 180 138 156 180 138 156 180 137 156 180 137 156 180 137 156 180 137 156 180 137 156 180 137 156 180 138 156 180 138 156 180 138 156 180 137 156 180 137 156 180 138 156 180 138 156 180 138 156 180 138 156 180 137 156 180 138 156 180 137 156 180 138 156 181 138 156 180 137 156 180 137 156 180 138 156 180 138 156 180 137 156 180 137 156 180 138 156 180 138 156 180 
138 156 180 137 156 180 138 156 180 137 156 180 138 156 180 137 156 180 137 156 180 137 155 180 137 156 180 137 156 180 137 156 180 137 156 180 138 156 180 137 156 180 137 155 180 138 156 180 137 156 180 137 156 180 137 156 180 137 155 179 137 156 180 137 156 180 137 156 180 137 156 180 137 155 179 137 156 180 137 156 180 137 156 180 137 155 179 137 156 180 137 155 179 137 155 180 137 155 180 138 156 180 137 156 180 137 156 180 137 156 179 137 155 180 137 156 180 137 155 179 137 155 179 137 156 180 137 155 179 137 155 179 137 155 179 137 156 180 136 154 178 137 155 179 136 155 179 137 155 179 137 155 179 136 155 179 137 155 179 137 155 179 136 155 179 137 155 178 136 154 178 137 155 179 137 155 179 137 155 179 137 155 179 136 154 178 137 155 179 136 154 178 136 154 178 136 155 179 136 155 179 136 154 179 136 154 178 136 154 178 136 154 178 137 155 178 135 153 177 136 154 178 137 154 178 136 154 178 136 154 178 136 154 178 136 154 178 136 154 178 136 154 177 135 153 177 136 154 177 136 153 177 136 153 177 135 153 177 135 153 177 135 153 177 136 154 177 134 151 174 123 134 151 100 96 101 88 70 58 85 66 52 85 66 52 86 67 53 87 68 54 85 66 52 91 76 68 159 172 192 196 215 240 201 220 246 205 224 249 206 225 250 208 227 251 209 227 252 210 227 252 210 228 252 210 228 252 211 229 253 211 228 252 212 229 253 211 229 253 212 229 253 211 229 252 212 230 253 212 229 253 212 229 253 212 229 253 213 230 253 212 229 253 211 228 252 213 230 253 158 167 178 115 121 127 115 121 128 145 146 149 180 178 176 186 183 181 185 183 181 185 182 181 185 182 181 184 182 181 184 182 181 184 182 181 184 182 181 183 181 181 183 181 181 183 181 181 183 181 181 183 181 181 182 181 181 182 181 181 182 181 181 182 181 181 182 181 181 181 180 181 181 180 181 181 180 181 181 180 181 181 180 181 181 180 181 181 180 181 180 180 181 180 180 181 180 180 181 180 180 181 180 180 181 180 180 181 180 180 181 180 180 181 180 180 181 180 180 181 180 180 181 180 180 181 180 180 181 180 180 181 180 180 181 180 180 181 180 180 181 180 180 181 180 180 181 180 180 181 180 180 181 180 180 181 180 180 181 180 180 181 180 180 181 180 180 181 180 180 181 180 180 181 180 180 181 181 180 181 181 180 181 181 180 181 181 180 181 181 180 181 181 180 181 181 180 181 182 181 181 182 181 181 182 181 181 182 181 181 182 181 181 183 181 181 183 181 181 183 181 181 183 181 181 183 182 181 184 182 181 184 182 181 184 182 181 185 182 181 185 182 181 185 183 181 186 183 181 180 178 176 134 137 141 115 121 128 126 138 154 137 155 180 137 156 180 137 156 180 138 156 180 138 156 180 137 156 180 138 156 180 137 156 180 137 156 180 138 156 180 137 156 180 137 156 180 137 156 180 138 156 180 138 156 180 137 156 180 137 156 180 137 156 180 137 156 180 137 156 180 138 156 180 138 156 180 137 156 180 138 156 180 137 156 180 138 156 180 137 156 180 138 156 180 138 156 180 137 156 180 138 156 180 137 156 180 137 156 180 137 156 180 138 156 180 138 156 180 137 156 180 137 156 180 137 156 180 138 156 180 137 156 180 137 156 180 138 156 180 138 156 180 138 156 180 
138 156 180 138 156 180 137 155 180 137 156 180 137 155 180 138 156 180 137 156 180 138 156 180 138 156 180 137 155 180 137 155 180 137 156 180 138 156 180 138 156 180 137 156 180 137 155 180 137 156 180 138 156 180 137 156 180 137 156 180 137 155 179 137 155 180 137 156 180 137 156 180 137 156 180 137 156 180 137 155 179 137 155 179 137 155 179 137 155 179 137 156 180 137 155 179 137 155 179 137 155 180 137 155 179 137 156 180 137 155 179 137 155 179 137 155 179 136 155 179 137 155 179 137 155 179 137 155 180 137 156 179 136 155 179 137 155 179 137 155 179 136 154 179 137 155 179 136 154 178 136 154 178 136 154 178 136 154 178 136 154 178 136 155 179 136 154 178 136 154 178 137 155 179 136 154 178 136 154 178 136 154 178 136 154 178 136 154 178 135 153 177 135 154 177 136 154 178 135 153 176 136 154 177 136 153 177 136 154 177 135 153 177 136 153 177 135 152 176 135 153 177 135 153 176 135 153 177 135 152 176 135 153 177 135 153 176 135 153 177 134 152 175 134 152 176 135 152 176 135 152 176 134 151 175 134 152 175 135 152 175 134 151 175 134 152 175 134 151 174 133 150 173 123 135 153 105 108 118 87 75 71 82 63 50 83 64 50 84 64 51 83 64 51 83 64 51 124 127 137 185 204 229 199 218 244 203 222 248 205 224 250 207 225 251 209 227 252 208 227 252 209 228 252 209 227 252 210 228 253 210 228 253 211 228 253 211 228 252 211 229 253 211 228 253 211 229 253 211 228 252 211 229 253 211 229 253 211 229 253 212 229 253 212 229 253 212 229 253 150 158 169 115 121 127 115 121 127 115 121 128 118 123 130 147 148 151 173 171 170 185 182 180 186 183 181 185 183 181 185 182 181 185 182 181 185 182 181 184 182 181 184 182 181 184 182 181 184 182 181 184 182 181 183 182 181 183 181 181 183 181 181 183 181 181 183 181 181 183 181 181 183 181 181 182 181 181 182 181 181 182 181 181 182 181 181 182 181 181 182 181 181 182 181 181 182 181 181 182 181 181 181 180 181 181 180 181 181 180 181 181 180 181 181 180 181 181 180 181 181 180 181 181 180 181 181 180 181 181 180 181 181 180 181 181 180 181 181 180 181 181 180 181 181 180 181 181 180 181 181 180 181 181 180 181 181 180 181 181 180 181 181 180 181 181 181 181 182 181 181 182 181 181 182 181 181 182 181 181 182 181 181 182 181 181 182 181 181 182 181 181 182 181 181 183 181 181 183 181 181 183 181 181 183 181 181 183 181 181 183 181 181 184 182 181 184 182 181 184 182 181 184 182 181 184 182 181 185 182 181 185 182 181 185 182 181 185 183 181 186 183 181 185 182 179 160 159 160 125 129 134 115 121 128 115 121 127 125 138 154 137 156 180 137 156 180 137 156 180 138 156 180 137 156 180 138 156 180 137 156 180 137 156 180 138 156 180 138 156 180 138 156 180 137 156 180 138 156 180 137 156 180 137 156 180 137 156 180 137 156 180 137 156 180 138 156 180 137 156 180 138 156 180 138 156 180 138 156 180 137 156 180 137 156 180 138 156 180 137 156 180 137 156 180 137 156 180 137 156 180 137 156 180 138 156 180 138 156 180 138 156 180 138 156 180 138 156 180 138 156 180 138 156 180 138 156 180 137 156 180 137 156 180 137 156 180 137 156 180 138 156 180 137 156 180 
138 156 180 138 156 180 138 156 180 137 156 180 137 156 180 137 156 180 137 155 179 137 156 180 137 156 180 137 156 180 138 156 180 137 156 180 137 156 180 137 156 180 137 155 179 137 156 180 137 155 180 137 155 179 138 156 180 137 156 180 137 155 179 137 155 179 137 155 179 137 155 180 137 156 180 137 155 180 137 155 179 137 155 180 136 155 179 137 155 179 137 155 179 137 155 179 137 155 179 137 155 179 137 155 179 137 155 179 137 155 179 137 155 179 136 155 179 137 155 179 137 155 179 136 155 179 136 155 179 136 154 179 136 154 178 136 154 178 136 155 179 136 154 178 136 154 178 137 155 178 137 155 179 136 154 178 135 153 177 136 154 178 136 154 178 136 154 177 135 153 177 136 153 177 136 154 178 136 153 177 136 154 178 135 153 176 136 153 177 134 152 175 135 153 177 135 153 176 135 153 176 135 153 176 135 153 176 134 151 175 134 152 175 135 152 175 134 151 174 134 151 175 134 151 174 134 151 174 133 150 174 133 150 173 133 150 173 134 151 175 133 150 172 133 150 173 133 150 173 132 148 171 132 149 172 131 148 170 132 148 170 132 148 171 132 148 171 130 146 169 130 146 167 130 145 167 125 140 160 110 115 128 93 88 92 78 63 54 77 59 47 79 60 47 78 59 47 90 80 78 163 178 200 193 213 240 199 219 245 203 222 249 205 225 251 206 225 251 208 227 252 208 227 253 209 228 253 208 227 252 209 228 253 209 227 252 210 228 253 210 228 253 210 228 252 210 228 253 210 228 253 210 228 252 210 228 252 211 228 253 211 228 253 210 228 252 210 228 252 149 157 167 115 120 127 115 121 127 115 121 127 115 121 128 115 121 128 115 121 128 124 129 134 145 146 149 161 160 161 176 174 173 185 182 180 186 183 181 185 183 181 185 182 181 185 182 181 185 182 181 185 182 181 185 182 181 184 182 181 184 182 181 184 182 181 184 182 181 184 182 181 184 182 181 184 182 181 184 182 181 183 182 181 183 181 181 183 181 181 183 181 181 183 181 181 183 181 181 183 181 181 183 181 181 183 181 181 183 181 181 183 181 181 183 181 181 183 181 181 183 181 181 183 181 181 183 181 181 182 181 181 182 181 181 182 181 181 183 181 181 183 181 181 183 181 181 183 181 181 183 181 181 183 181 181 183 181 181 183 181 181 183 181 181 183 181 181 183 181 181 183 181 181 183 181 181 183 181 181 183 181 181 183 181 181 183 181 181 184 182 181 184 182 181 184 182 181 184 182 181 184 182 181 184 182 181 184 182 181 184 182 181 185 182 181 185 182 181 185 182 181 185 182 181 185 183 181 186 183 181 186 183 181 184 181 179 170 168 168 150 151 152 122 127 133 115 121 128 115 121 128 115 121 127 115 121 127 126 138 154 138 156 180 137 156 180 137 155 180 137 156 179 137 155 180 137 155 180 137 156 180 137 155 180 137 156 180 137 156 180 137 156 180 138 156 180 137 156 180 137 156 180 137 156 180 137 156 180 137 156 180 137 156 180 137 156 180 137 156 180 138 156 180 138 156 180 137 156 180 137 156 180 137 156 180 138 156 180 137 156 180 137 156 180 137 156 180 137 156 180 138 156 180 137 156 180 138 156 180 137 156 180 138 156 180 137 156 180 138 156 180 137 156 180 138 156 180 138 156 180 137 156 180 137 156 180 138 156 180 137 156 180 138 156 180 
137 155 180 137 156 180 137 155 180 137 155 179 137 155 179 137 156 180 137 156 180 137 156 180 137 156 180 137 156 180 137 156 180 137 155 180 137 156 180 137 156 180 137 155 179 137 155 179 137 155 179 137 155 179 137 156 180 137 155 180 136 155 179 137 155 180 137 155 179 137 155 179 137 155 179 136 155 179 137 155 179 137 155 179 137 155 179 137 155 179 137 155 179 137 155 178 136 154 178 136 154 179 136 154 178 136 154 178 137 155 179 137 155 179 136 154 178 136 154 178 136 155 179 136 155 179 136 154 178 136 154 178 136 154 178 136 154 177 136 154 178 136 154 178 135 153 177 136 154 178 136 154 178 136 154 178 135 153 177 136 154 178 135 153 177 135 153 177 135 152 176 135 152 176 134 152 176 135 153 176 134 152 176 134 151 175 135 152 176 134 151 175 134 152 175 134 151 174 134 151 174 133 150 173 133 151 174 133 151 174 133 150 174 133 150 173 133 149 172 133 150 173 132 148 171 131 147 169 132 149 171 131 147 169 130 146 168 131 147 169 130 146 168 129 145 166 129 144 166 129 145 166 128 143 164 129 145 166 127 142 163 128 143 165 127 142 163 127 142 162 126 140 161 125 139 159 125 140 160 124 137 157 115 124 140 99 100 109 84 76 75 75 60 51 72 55 44 74 57 46 128 136 150 185 204 231 196 217 244 200 220 247 202 222 249 204 224 251 205 224 250 206 225 252 207 227 253 208 227 252 208 227 253 208 227 252 208 227 252 209 228 253 209 227 253 209 228 253 209 227 252 209 227 252 209 228 252 210 228 253 210 228 253 209 227 252 210 228 252 149 158 169 114 120 126 115 121 127 115 121 127 115 121 127 115 121 127 115 121 127 115 121 127 115 121 127 115 121 127 115 121 128 120 125 131 133 136 140 145 147 149 159 159 160 166 165 165 174 172 171 183 180 178 185 182 180 186 183 181 186 183 181 185 183 181 185 182 181 185 182 181 185 182 181 185 182 181 185 182 181 185 182 181 185 182 181 185 182 181 184 182 181 184 182 181 184 182 181 184 182 181 184 182 181 184 182 181 184 182 181 184 182 181 184 182 181 184 182 181 184 182 181 184 182 181 184 182 181 184 182 181 184 182 181 184 182 181 184 182 181 184 182 181 184 182 181 184 182 181 184 182 181 184 182 181 184 182 181 184 182 181 184 182 181 184 182 181 184 182 181 184 182 181 184 182 181 184 182 181 184 182 181 185 182 181 185 182 181 185 182 181 185 182 181 185 182 181 185 182 181 185 182 181 185 182 181 185 183 181 186 183 181 186 183 181 185 182 180 182 180 178 175 173 172 166 165 165 151 152 153 137 139 143 119 124 130 115 121 128 115 121 128 115 121 127 115 121 127 115 121 127 115 121 127 115 121 127 126 138 154 137 156 180 137 156 180 137 156 180 137 156 180 137 156 180 137 156 180 137 155 179 137 155 179 137 156 180 137 156 180 137 155 179 137 156 180 137 156 180 137 156 180 137 155 180 137 156 180 137 156 180 137 156 180 137 156 180 137 155 180 137 156 180 138 156 180 138 156 180 137 156 180 137 156 180 138 156 180 137 156 180 137 156 180 138 156 180 137 156 180 138 156 180 137 156 180 137 156 180 137 156 180 137 156 180 137 156 180 137 156 180 138 156 180 138 156 180 137 156 180 137 156 180 137 156 180 137 156 180 138 156 180 137 156 180 
138 156 180 138 156 180 137 155 180 137 155 180 137 155 179 137 156 180 137 156 180 137 155 179 137 156 180 138 156 180 137 156 180 137 155 179 137 155 179 137 155 179 137 155 179 137 155 179 136 155 179 137 155 179 137 155 180 136 155 179 137 156 180 136 155 179 137 155 179 136 155 179 137 155 179 137 155 179 137 155 179 137 155 179 137 155 179 136 155 178 136 155 179 136 155 178 137 155 179 136 154 178 136 154 178 136 154 178 136 154 178 136 154 178 136 154 178 136 154 178 136 154 178 136 154 178 136 154 178 136 153 177 136 154 177 136 154 178 136 154 178 135 152 176 136 154 177 135 153 177 135 153 176 135 153 176 134 152 175 134 151 175 134 152 175 134 152 175 134 152 175 134 152 176 134 151 175 134 152 175 134 152 175 134 151 174 134 151 175 132 150 173 132 149 172 132 148 171 132 149 172 131 148 171 132 148 171 132 149 171 131 148 170 131 148 170 131 147 170 130 146 168 129 144 166 130 147 169 129 145 167 128 143 164 128 143 165 126 141 162 126 141 162 126 141 162 126 140 161 125 139 159 123 137 157 123 136 155 122 135 154 121 135 154 120 132 150 119 130 148 118 129 147 116 127 145 113 124 140 114 124 140 111 120 136 108 116 130 100 105 116 86 85 91 77 70 70 68 57 52 80 75 77 159 175 198 192 213 240 197 218 246 200 220 248 202 222 249 204 224 251 206 226 253 206 226 252 206 226 252 206 226 252 207 227 253 207 227 253 208 227 253 208 227 252 208 227 253 208 227 252 209 228 253 209 228 253 209 227 253 209 227 253 209 227 253 209 227 252 153 162 175 114 119 126 114 120 126 115 121 127 115 121 127 115 121 127 115 121 127 115 121 127 115 121 127 115 121 127 115 121 127 115 121 127 115 121 128 115 121 127 115 121 128 116 121 127 115 121 128 117 122 128 122 127 132 130 134 138 137 140 143 145 146 149 153 154 155 158 158 159 163 163 163 170 168 168 172 170 170 177 175 174 180 177 176 182 180 178 184 181 179 184 182 179 185 182 180 185 183 180 186 183 181 186 183 181 185 183 181 185 183 181 185 183 181 185 183 181 185 182 181 185 182 181 185 182 181 185 182 181 185 182 181 185 182 181 185 182 181 185 182 181 185 182 181 185 182 181 185 182 181 185 182 181 185 183 181 185 183 181 185 183 181 185 183 181 186 183 181 186 183 181 186 183 181 186 183 180 185 182 180 185 182 180 184 181 179 182 179 177 180 177 176 175 173 172 170 168 168 167 165 165 158 158 159 149 150 152 146 147 150 135 138 142 126 130 135 117 122 129 115 121 128 115 121 128 115 121 128 115 121 128 115 121 128 115 121 127 115 121 127 115 121 127 115 121 128 115 121 128 115 121 127 115 121 127 128 142 159 137 155 179 137 155 179 137 155 179 137 155 179 137 156 180 137 156 180 137 156 180 137 155 180 137 155 180 137 156 180 137 155 179 137 155 180 138 156 180 137 156 180 138 156 180 137 156 180 137 156 180 138 156 180 138 156 180 138 156 180 137 156 180 138 156 180 138 156 180 137 156 180 138 156 180 137 156 180 137 156 180 137 156 180 138 156 180 138 156 180 137 156 180 137 156 180 138 156 180 137 156 180 137 156 180 137 156 180 138 156 180 137 156 180 137 155 180 138 156 180 137 156 180 137 156 180 138 156 180 137 156 180 137 156 180 
137 155 180 137 156 180 137 155 180 137 155 179 137 155 179 137 155 179 137 155 180 137 155 179 137 156 180 137 155 179 137 156 180 137 156 180 137 155 179 137 155 180 137 155 179 137 155 180 137 155 179 137 155 179 137 155 179 137 155 179 136 155 179 137 155 179 137 155 179 136 155 179 137 155 179 136 154 178 137 155 179 136 154 178 136 154 178 137 155 179 136 154 178 136 155 178 136 154 178 136 154 178 136 154 177 136 154 178 136 154 178 136 154 178 136 154 178 136 153 177 136 153 177 135 153 177 135 154 178 135 153 177 135 153 176 136 154 178 135 153 177 135 152 176 135 153 177 134 152 175 135 152 176 134 151 174 135 152 176 134 151 174 134 152 175 134 152 175 134 152 175 133 151 174 134 151 174 133 150 173 133 151 174 132 149 172 132 149 172 131 147 170 132 149 171 132 148 171 131 147 169 131 148 170 131 147 169 130 146 168 130 146 168 128 144 165 128 143 165 127 142 163 128 143 164 128 143 165 125 140 160 125 140 160 125 140 160 122 136 156 122 135 154 122 134 153 123 136 156 120 132 150 118 129 147 118 130 147 114 125 141 115 125 141 114 124 141 112 122 137 110 119 133 106 114 128 104 112 125 103 110 122 99 105 117 97 104 115 92 97 107 88 93 102 82 83 90 70 69 73 64 58 59 113 123 139 177 197 224 194 215 243 198 219 247 201 221 249 202 223 250 204 224 252 204 224 252 205 225 252 206 226 253 206 226 253 206 225 252 206 226 252 208 227 253 207 226 252 208 227 253 206 226 252 208 227 253 208 227 253 208 227 253 207 226 252 208 227 253 159 169 184 113 119 125 115 120 126 115 120 127 115 120 127 115 120 127 115 121 127 115 121 127 115 121 127 115 121 127 115 121 127 115 121 127 115 121 127 115 121 127 115 121 128 115 121 128 115 121 127 115 121 127 115 121 127 115 121 128 115 121 127 115 121 128 115 121 128 115 121 127 115 121 128 115 121 127 115 121 128 116 121 128 117 122 128 118 124 130 121 125 131 124 129 134 128 132 136 131 134 139 136 139 143 136 138 142 139 142 145 142 144 147 144 146 148 145 146 149 149 150 152 149 150 152 150 151 152 150 151 153 150 151 153 150 151 153 153 154 155 153 153 155 154 154 155 151 151 153 150 151 152 150 151 152 146 147 149 147 148 150 145 146 149 141 143 146 137 140 143 139 141 144 136 138 142 131 134 139 126 130 135 124 129 134 120 125 131 117 123 129 116 121 128 116 121 128 115 121 127 115 121 128 115 121 127 115 121 127 116 121 128 115 121 128 115 121 128 115 121 128 115 121 128 115 121 127 115 121 127 115 121 128 115 121 127 115 121 127 115 121 127 115 121 127 115 121 127 115 121 127 115 121 127 115 121 127 129 143 161 137 155 179 137 155 180 137 155 179 137 156 180 137 156 180 137 156 180 137 156 180 138 156 180 137 155 180 137 155 180 137 156 180 137 156 180 137 156 180 137 156 180 137 156 180 137 156 180 137 155 180 137 156 180 137 155 179 137 155 179 138 156 180 137 156 180 137 156 180 137 156 180 138 156 180 137 156 180 137 156 180 138 156 180 137 156 180 137 156 180 138 156 180 137 156 180 138 156 180 138 156 180 137 156 180 137 156 180 137 156 180 137 156 180 137 155 180 137 156 180 137 156 180 137 156 180 137 156 180 137 156 180 138 156 180 
137 155 180 137 155 179 137 155 179 137 155 179 137 156 180 137 155 179 137 155 180 137 155 180 137 155 179 137 156 179 137 156 180 137 155 179 137 155 179 137 155 179 136 155 179 137 155 179 137 156 180 137 155 179 137 155 179 137 155 179 136 154 178 137 155 179 137 155 179 137 155 179 137 155 179 137 155 178 136 155 178 136 154 178 136 154 178 137 155 178 137 155 179 137 155 179 136 154 178 136 154 178 136 154 178 136 154 178 136 154 178 136 154 178 137 155 179 135 153 177 135 153 177 135 153 177 135 153 177 136 154 177 135 153 177 135 153 176 135 152 176 135 153 177 135 153 176 134 152 176 135 153 176 134 151 174 135 152 176 134 152 175 134 151 174 134 151 175 134 151 175 133 150 173 134 151 174 133 150 173 132 149 172 132 149 172 132 148 171 131 148 170 132 148 171 131 147 169 131 147 169 130 147 169 128 144 165 129 145 167 129 145 167 127 143 164 127 142 163 127 142 163 126 140 161 127 142 162 125 140 160 123 138 158 124 139 159 123 136 155 121 134 152 120 132 150 119 131 149 117 129 147 116 126 143 114 124 140 113 124 140 113 122 138 107 116 130 107 116 130 104 111 124 101 108 120 98 105 116 94 99 111 92 97 107 86 89 97 86 89 98 80 84 91 77 79 86 71 73 79 67 68 73 64 65 70 143 159 182 187 208 237 193 215 244 197 218 247 199 220 249 202 223 251 202 223 251 204 225 252 204 225 253 204 225 252 206 226 253 205 225 252 205 225 252 205 225 252 206 226 253 206 226 252 207 226 253 206 226 252 207 226 253 206 226 252 206 226 252 168 181 198 113 119 125 114 120 127 114 120 126 115 120 127 115 121 127 115 121 127 115 121 127 115 121 127 115 121 127 115 121 127 115 121 127 115 121 127 115 121 127 115 121 127 115 121 127 115 121 127 115 121 127 115 121 127 115 121 127 115 121 127 115 121 127 115 121 127 115 121 127 115 121 127 116 121 128 115 121 127 115 121 127 115 121 127 115 121 127 115 121 127 115 121 127 115 121 128 116 121 127 115 121 128 115 121 127 115 121 128 115 121 128 115 121 127 115 121 128 115 121 128 115 121 128 115 121 128 115 121 127 115 121 128 115 121 127 115 121 127 115 121 127 115 121 128 115 121 128 115 121 128 115 121 128 115 121 128 115 121 128 115 121 128 115 121 128 115 121 127 115 121 128 115 121 128 115 121 127 115 121 127 115 121 127 115 121 127 115 121 127 115 121 127 115 121 128 115 121 127 115 121 127 115 121 128 115 121 127 115 121 127 115 121 127 115 121 127 115 121 127 115 121 127 115 121 127 115 121 127 115 121 127 115 121 127 115 121 127 115 121 127 115 121 127 115 121 127 115 121 127 115 121 127 115 120 127 132 148 168 136 155 179 137 156 180 136 155 179 137 155 179 137 155 180 137 156 180 137 155 179 137 156 180 137 155 180 137 156 180 137 155 180 137 156 180 137 155 180 137 156 180 137 156 180 137 155 180 137 156 180 138 156 180 137 156 180 137 156 180 137 156 180 137 156 180 137 155 179 137 156 180 137 156 180 137 156 180 137 156 180 138 156 180 138 156 180 137 156 180 138 156 180 137 156 180 137 156 180 137 156 180 137 155 180 138 156 180 137 156 180 137 156 180 138 156 180 138 156 180 137 156 180 137 156 180 137 156 180 138 156 180 137 156 180 
137 155 180 137 155 179 137 155 179 138 156 180 137 155 179 137 155 179 137 156 180 137 155 180 137 155 179 137 155 179 137 155 179 137 155 179 137 155 179 137 155 179 137 155 179 137 155 180 136 154 178 137 155 179 137 155 180 137 155 179 136 155 179 136 154 178 137 155 179 136 154 178 136 154 178 137 155 179 137 155 179 137 155 179 137 155 178 136 154 178 136 154 178 136 154 178 136 154 178 136 154 178 136 154 178 136 154 178 135 153 177 135 153 177 135 153 177 136 154 178 136 154 177 135 153 177 136 154 178 135 153 176 136 154 177 135 153 176 134 152 176 135 152 176 135 153 177 134 152 175 134 152 176 134 151 175 133 151 174 133 151 174 133 150 174 133 151 174 133 149 172 133 150 174 132 149 172 132 149 171 132 149 172 133 149 172 130 147 169 131 148 171 130 146 169 131 147 169 131 147 169 131 147 169 131 147 169 129 145 167 128 144 165 128 144 165 128 143 165 127 142 163 126 141 162 126 141 162 126 141 161 125 139 160 125 139 158 124 138 158 122 135 154 122 135 153 121 133 152 120 133 151 120 132 151 116 128 145 115 126 143 115 126 142 112 122 138 112 122 138 107 115 130 109 117 132 106 114 128 103 110 124 104 112 125 101 108 121 100 106 119 94 100 111 95 101 112 93 98 108 91 96 106 89 94 104 101 109 123 164 184 210 188 210 239 193 215 245 198 219 249 199 220 249 200 222 250 202 223 252 203 224 252 203 224 252 204 225 253 204 225 252 204 225 253 205 226 253 205 226 253 205 225 252 206 226 254 205 225 252 205 225 252 206 226 253 206 226 253 177 192 212 114 119 126 114 120 126 115 120 127 115 121 127 115 121 127 115 120 127 114 120 127 114 120 127 115 121 127 115 121 127 115 120 127 115 121 127 115 121 127 115 121 127 115 121 127 115 121 127 115 121 127 115 121 127 115 121 127 115 121 127 115 121 127 115 121 127 115 121 127 115 121 127 115 121 127 115 121 127 115 121 128 115 121 127 115 121 127 115 121 127 115 121 127 116 121 127 115 121 127 116 121 127 115 121 127 115 121 127 115 121 127 115 121 127 115 121 127 115 121 128 115 121 128 115 121 127 115 121 127 115 121 127 115 121 127 115 121 127 115 121 127 115 121 127 115 121 127 115 121 127 115 121 128 115 121 127 115 121 128 115 121 127 115 121 128 115 121 128 115 121 127 115 121 127 115 121 127 115 121 127 115 121 127 115 121 127 115 121 127 115 121 127 115 121 127 115 121 127 115 121 127 115 121 127 115 121 127 115 121 127 115 121 127 115 121 127 115 121 127 115 121 127 115 121 127 115 121 127 115 121 127 115 121 127 115 121 127 115 121 127 115 121 127 115 121 127 115 121 127 115 121 127 115 121 127 135 152 174 137 155 180 137 155 179 137 155 179 137 155 180 137 155 179 137 155 179 137 156 180 137 156 180 137 155 179 137 155 179 137 155 179 137 155 180 137 155 179 137 156 180 137 156 180 137 156 180 137 155 179 137 155 180 137 156 180 137 155 180 138 156 180 138 156 180 137 155 180 137 156 180 137 155 180 138 156 180 137 156 180 137 156 180 137 156 180 137 155 180 137 156 180 138 156 180 137 156 180 138 156 180 137 155 180 137 156 180 138 156 180 137 155 180 137 156 180 137 156 180 137 156 180 137 156 180 137 156 180 137 156 180 137 156 180 
137 155 180 136 155 179 137 155 179 137 155 179 137 155 179 137 155 179 136 155 179 136 155 179 137 155 179 137 155 180 137 155 179 137 155 179 137 155 179 137 155 179 137 155 179 137 155 180 137 155 179 137 155 179 136 155 179 136 154 178 137 155 179 136 154 178 136 154 178 137 155 178 137 155 179 137 155 179 136 155 179 136 155 179 136 155 179 136 154 178 136 154 178 136 155 178 136 154 178 136 154 178 136 154 178 136 154 178 136 154 178 135 153 177 135 153 177 135 153 177 135 153 177 135 153 177 136 153 177 135 153 176 135 153 177 135 153 177 134 152 175 134 152 176 134 152 175 134 152 175 134 152 175 134 151 175 134 151 174 134 152 175 134 152 175 134 151 175 134 151 174 134 152 175 133 150 173 133 150 173 133 150 173 133 150 173 133 150 173 132 149 171 131 148 170 131 148 171 131 148 170 131 147 170 131 147 169 130 146 168 130 147 169 129 145 167 129 145 167 130 146 168 128 143 164 128 143 164 127 142 163 128 142 163 124 138 158 127 142 163 125 139 159 124 137 157 124 138 158 124 138 158 122 135 154 121 134 153 122 135 153 119 131 149 120 133 151 117 129 147 120 133 151 117 129 146 114 124 141 116 127 144 117 128 145 115 126 142 113 124 141 115 126 143 113 124 140 111 121 137 110 120 136 111 121 137 110 120 136 127 140 160 170 191 219 187 209 239 194 216 246 197 220 250 198 220 250 199 221 251 200 221 250 202 223 252 201 223 252 202 223 252 203 224 252 203 224 253 204 225 253 204 225 253 204 225 253 204 225 253 204 225 252 204 225 253 205 226 253 187 204 227 114 120 126 114 120 126 115 120 127 115 120 127 115 120 127 114 120 127 115 120 127 115 121 127 115 120 127 115 120 127 115 121 127 115 121 127 115 121 127 115 121 127 115 121 127 115 121 127 115 121 127 115 121 127 115 121 127 115 121 127 115 121 127 115 121 127 115 120 127 115 121 127 115 121 127 115 121 127 115 121 127 115 121 127 115 121 127 115 121 127 115 121 127 115 121 127 115 121 127 115 121 127 115 121 127 115 121 128 115 121 127 115 121 127 115 121 127 115 121 127 115 121 127 115 121 127 115 121 127 115 121 128 115 121 127 115 121 127 115 121 127 115 121 127 115 121 127 115 121 127 115 121 127 115 121 127 115 121 127 115 121 127 115 121 127 115 121 127 115 121 127 115 121 127 115 121 127 115 121 127 115 121 127 115 121 127 115 121 127 115 121 127 115 121 127 115 121 127 115 121 127 115 121 127 115 121 127 115 121 127 115 121 127 115 121 127 115 121 127 115 121 127 115 121 127 115 121 127 115 120 127 115 121 127 115 120 127 115 121 127 115 121 127 115 121 127 115 121 127 115 120 127 116 122 130 136 154 177 137 155 179 137 155 179 137 155 179 137 155 179 137 156 180 137 155 180 137 155 179 137 155 179 137 155 179 137 155 179 137 156 180 137 155 180 137 155 179 137 156 180 137 155 180 138 156 180 137 156 180 137 155 179 137 155 180 137 156 180 137 156 180 137 156 180 137 155 180 136 155 179 137 156 180 137 155 180 137 155 179 137 156 180 137 156 180 137 155 180 137 156 180 138 156 180 137 156 180 137 156 180 137 156 180 137 156 180 137 156 180 137 155 180 137 156 180 137 156 180 138 156 180 137 155 180 137 156 180 137 156 180 137 156 180 
137 155 179 137 155 179 137 155 179 137 155 179 136 155 179 137 155 180 137 155 179 137 155 179 137 155 179 137 156 180 137 155 179 136 154 178 137 155 179 136 154 178 137 155 179 137 155 179 137 155 179 136 154 179 137 155 179 137 155 179 136 154 178 136 155 179 137 155 179 136 155 179 136 154 178 136 154 178 137 155 179 137 155 178 137 155 179 136 154 178 136 154 178 136 154 178 136 154 177 136 154 178 136 154 178 136 154 177 135 153 177 136 154 177 136 154 178 135 153 177 136 154 178 135 153 177 136 154 177 135 153 177 135 153 177 134 152 176 135 153 176 134 152 176 135 152 176 135 153 176 134 152 176 135 153 176 134 152 175 134 152 175 135 152 175 134 152 176 133 151 174 133 150 173 133 150 173 134 152 175 132 149 172 133 150 173 133 150 173 133 150 173 133 150 172 132 149 172 132 150 173 132 149 171 131 148 171 132 149 171 131 148 170 133 149 171 131 147 169 131 147 169 130 147 169 130 146 169 130 146 168 130 146 168 129 144 165 130 146 168 129 144 165 127 142 163 127 142 163 128 143 164 126 141 162 126 140 161 125 140 160 127 142 163 125 139 159 126 140 160 125 139 159 125 139 160 124 138 158 123 136 156 123 137 157 124 137 157 123 136 155 122 135 155 123 136 156 123 136 155 123 137 156 123 136 156 121 134 153 122 136 155 143 160 183 176 198 227 187 210 240 192 215 245 194 217 247 196 219 249 198 220 250 199 221 251 200 222 252 201 223 252 201 222 252 202 224 253 202 224 253 203 224 253 203 224 253 203 224 252 203 224 252 203 224 252 203 224 252 198 218 244 115 121 127 114 120 126 114 120 126 114 120 126 115 121 127 114 120 127 115 120 127 115 120 127 115 120 127 115 121 127 114 120 127 115 121 127 115 120 127 115 120 127 115 120 127 115 120 127 115 121 127 114 120 127 115 120 127 115 121 127 115 120 127 115 120 127 115 120 127 115 120 127 115 120 127 114 120 127 115 121 127 115 121 127 115 120 127 115 121 127 115 121 127 115 121 127 115 121 127 115 121 127 115 121 127 115 121 127 115 121 127 115 121 127 115 121 127 115 121 127 115 121 127 115 121 127 115 121 127 115 121 127 115 121 127 115 121 127 115 121 127 115 121 127 115 121 127 115 121 127 115 121 127 115 121 127 115 120 127 115 121 127 115 121 127 115 121 127 115 121 127 115 121 127 115 121 127 115 121 127 115 121 127 115 121 127 115 121 127 114 120 127 115 121 127 115 121 127 115 121 127 115 121 127 115 120 127 115 121 127 115 121 127 115 121 127 115 121 127 115 121 127 114 120 127 115 121 127 115 120 127 115 121 127 115 120 127 115 121 127 115 121 127 115 120 127 115 121 127 115 120 127 119 127 138 137 155 179 137 155 179 137 155 179 137 155 179 137 155 179 137 155 179 137 156 180 137 155 179 137 155 179 137 156 180 137 155 179 137 155 179 137 155 179 137 156 180 137 155 179 137 156 180 137 155 180 137 156 180 137 156 180 137 156 180 137 155 179 137 156 180 137 156 180 137 156 180 137 155 179 137 155 179 137 156 180 138 156 180 137 156 180 137 155 180 137 156 180 137 156 180 137 155 180 137 156 180 137 156 180 137 156 180 137 156 180 137 156 180 137 156 180 138 156 180 138 156 180 138 156 180 137 155 180 137 156 180 137 156 180 137 156 180 
137 156 180 137 156 180 137 155 179 137 155 179 137 155 179 137 155 179 137 155 179 137 155 179 136 155 179 137 155 179 136 155 179 137 155 179 137 155 179 137 155 179 136 155 179 137 155 179 137 155 179 137 155 178 137 155 179 136 155 179 136 154 178 136 154 178 136 155 178 136 154 178 136 154 178 136 154 178 136 154 178 137 155 179 136 154 178 136 154 178 136 154 178 136 154 178 136 154 178 136 155 179 136 153 177 135 153 177 136 154 178 136 154 178 136 155 179 135 153 177 136 154 177 136 154 177 135 153 177 135 153 177 136 154 177 135 153 177 135 153 176 134 152 175 135 153 177 135 153 176 135 153 177 134 152 175 134 152 176 135 153 176 134 152 175 134 152 175 134 152 175 135 152 176 134 152 175 134 152 175 133 151 174 134 152 175 134 151 174 133 151 174 134 152 175 134 151 174 133 150 174 133 151 174 132 149 172 133 150 173 133 150 173 132 149 172 132 148 171 132 148 171 131 148 171 131 148 171 131 148 170 132 148 171 132 148 171 131 147 170 132 149 171 131 147 169 130 146 168 130 147 169 128 144 166 130 147 169 131 147 169 130 145 167 130 146 168 129 145 166 130 145 167 128 144 166 129 145 166 129 144 166 128 144 166 129 145 166 128 143 163 129 144 165 129 144 166 128 143 164 127 142 163 127 142 164 126 141 162 128 144 165 129 144 165 147 166 191 175 197 226 187 210 241 191 215 246 194 217 248 195 218 249 197 220 251 198 220 251 199 221 251 199 222 252 200 222 252 200 222 252 201 223 252 201 223 252 201 223 252 201 223 252 202 224 253 202 223 253 200 221 250 127 135 144 115 120 126 114 120 127 115 120 126 114 120 127 114 120 126 114 120 126 114 120 127 114 120 127 114 120 127 114 119 126 114 120 127 115 120 127 114 120 127 115 120 127 115 120 127 115 120 127 115 120 127 114 120 127 115 120 127 114 120 127 114 120 127 115 120 127 114 120 127 115 120 127 114 120 127 114 120 127 115 121 127 115 120 127 115 121 127 115 121 127 115 120 127 114 120 127 114 120 127 115 120 127 115 120 127 115 120 127 115 120 127 115 121 127 115 121 127 115 121 127 115 121 127 114 120 127 115 120 127 115 120 127 115 121 127 115 121 127 115 120 127 115 121 127 115 121 127 115 120 127 115 120 127 115 121 127 115 121 127 115 120 127 115 121 127 115 121 127 115 120 127 115 121 127 115 120 127 115 121 127 115 121 127 115 121 127 115 120 127 115 121 127 115 121 127 115 120 127 115 120 127 115 121 127 114 120 127 115 120 127 115 121 127 115 121 127 115 121 127 115 121 127 115 120 127 115 121 127 115 121 127 114 120 127 114 120 127 115 121 127 115 120 127 115 120 127 115 120 127 124 136 150 137 155 179 137 155 180 137 155 179 137 155 179 137 155 179 137 156 180 137 155 179 137 155 180 137 156 180 137 155 179 137 155 179 136 155 179 137 155 179 137 155 179 137 156 180 137 155 179 137 155 179 137 156 180 137 155 179 137 155 180 137 155 180 136 155 179 137 156 180 137 156 180 137 155 180 137 156 180 137 156 180 137 155 179 137 155 180 137 155 180 137 156 180 137 156 180 138 156 180 137 156 180 137 155 179 138 156 180 137 156 180 137 156 180 137 156 180 137 156 180 138 156 180 137 156 180 137 156 180 137 155 179 137 156 180 138 156 180 
137 155 179 137 155 179 137 155 180 137 155 179 137 155 179 137 155 179 137 155 179 136 154 178 137 155 180 136 155 179 137 155 179 137 155 179 137 155 179 137 155 179 136 155 179 136 155 179 137 155 179 137 155 179 137 155 179 136 154 178 136 154 178 136 154 178 136 155 179 137 155 179 136 154 178 136 155 179 136 154 178 137 155 179 136 155 179 136 154 178 136 154 178 136 155 179 135 154 178 136 154 178 136 154 178 136 154 178 136 154 178 136 154 178 136 154 178 136 154 178 136 154 178 135 154 177 136 154 178 135 153 177 136 154 178 135 153 176 135 153 177 135 153 177 135 153 176 136 153 177 135 153 176 135 153 177 135 153 176 135 152 176 135 152 176 135 152 176 135 153 177 135 152 176 135 152 176 135 153 176 134 151 175 134 151 175 134 152 176 134 151 175 133 151 174 134 151 175 134 151 175 134 151 175 133 150 173 133 150 173 133 150 173 134 151 174 133 150 173 133 150 173 134 151 174 132 149 171 133 151 174 132 149 172 132 149 172 132 149 171 133 150 173 132 149 172 132 149 172 132 149 172 132 149 172 132 149 171 131 148 170 132 150 173 131 148 170 132 149 172 132 148 171 132 149 171 132 149 172 132 148 171 131 148 171 131 148 170 132 149 172 131 147 170 130 147 169 132 148 170 131 148 171 131 147 170 130 146 168 132 148 171 132 149 172 131 147 169 147 166 191 175 198 228 184 208 239 189 213 244 193 217 248 194 218 249 197 220 251 197 220 251 198 221 252 198 221 251 199 222 253 198 221 251 199 222 252 200 223 253 200 222 252 200 222 252 201 224 254 201 223 253 146 157 172 114 120 126 114 120 126 114 120 126 114 119 126 114 120 126 114 120 127 114 120 126 114 120 127 114 120 126 114 119 126 115 120 127 114 120 126 114 120 126 114 120 126 115 120 127 114 120 127 115 120 127 114 120 127 114 120 127 114 120 127 114 120 126 114 120 127 114 120 127 115 120 127 114 120 127 114 120 127 115 120 126 114 120 126 115 120 127 115 121 127 114 120 127 115 121 127 115 120 127 115 120 127 115 120 127 115 120 127 114 120 127 115 120 127 115 120 127 114 120 127 115 120 127 115 120 127 115 121 127 115 120 127 115 120 127 115 120 127 115 120 127 115 120 127 115 120 127 115 120 127 114 120 127 115 121 127 114 120 127 115 120 127 115 120 127 114 120 127 115 120 127 115 120 127 115 120 127 115 120 127 115 120 127 115 120 127 115 120 127 115 120 127 115 120 127 115 120 127 115 120 127 115 120 127 114 120 127 115 120 127 115 120 127 114 120 127 115 121 127 114 120 127 115 120 127 114 120 127 115 120 127 114 120 127 115 120 127 114 120 127 115 120 127 115 120 127 115 120 127 129 144 163 136 155 179 136 155 179 137 155 180 137 155 179 137 155 179 137 155 180 137 156 180 137 156 180 137 155 180 137 155 179 137 155 179 137 155 179 137 155 179 137 155 180 137 155 180 137 155 179 137 155 180 137 155 179 137 155 180 137 156 180 137 155 179 137 156 180 137 156 180 137 156 180 137 156 180 137 156 180 138 156 180 137 155 180 137 155 180 137 155 180 137 156 180 137 156 180 137 156 180 137 156 180 137 155 180 137 156 180 138 156 180 137 156 180 137 156 180 137 155 180 137 156 180 137 156 180 137 155 180 137 155 180 137 156 180 137 156 180 
137 155 180 137 155 179 137 155 180 137 155 179 137 155 179 137 155 179 136 155 179 137 155 179 137 155 179 137 155 179 136 155 179 137 155 180 136 155 179 137 155 179 137 155 179 136 154 178 137 155 179 136 155 179 136 154 178 137 155 179 136 154 178 136 155 179 136 154 179 137 155 179 137 155 179 136 154 178 136 155 179 136 155 179 136 154 178 137 155 179 137 155 179 136 154 178 137 155 179 136 154 178 136 154 178 136 154 178 136 154 178 136 154 178 135 154 178 136 154 178 136 154 178 136 154 178 137 155 179 135 153 177 136 154 178 135 153 177 136 154 178 136 154 178 136 154 178 136 154 178 136 154 178 136 154 177 135 153 176 136 154 178 135 153 177 135 153 177 136 153 177 135 153 177 135 153 176 135 153 177 134 152 176 134 151 175 135 153 177 135 153 177 134 152 176 134 152 175 135 153 176 134 152 175 134 152 175 134 151 175 135 152 175 135 152 176 134 151 175 134 152 175 134 152 175 134 152 175 134 152 176 135 153 176 134 151 174 134 151 175 133 150 173 134 152 175 133 150 173 133 150 173 133 150 173 134 151 174 133 150 174 134 152 175 133 150 173 133 150 173 134 151 174 133 150 173 134 151 175 133 150 173 134 151 174 133 150 173 133 150 173 133 150 173 133 151 174 133 150 173 134 150 173 133 150 173 133 150 173 133 151 174 133 150 173 134 151 173 134 151 174 145 164 189 170 193 223 182 206 238 187 212 244 189 214 246 192 216 248 193 217 249 195 218 250 197 220 252 197 221 252 197 220 251 198 221 252 198 221 252 199 222 253 198 221 252 198 221 252 199 222 252 167 184 206 114 120 126 114 120 126 114 120 126 114 119 126 114 120 126 114 120 126 114 120 126 114 120 126 114 120 126 114 119 126 114 120 126 114 120 126 114 120 126 114 119 126 114 119 126 114 120 126 114 119 126 114 120 127 114 120 127 114 120 126 114 120 127 115 120 127 114 120 126 114 120 126 114 120 126 114 120 126 114 120 126 114 120 126 114 120 126 114 120 126 114 120 126 115 120 126 115 120 127 115 120 126 114 120 126 114 120 127 114 120 127 114 120 127 114 120 126 114 120 126 115 120 127 115 120 127 114 120 126 115 120 127 114 120 127 114 120 127 115 120 127 114 120 126 114 120 126 114 120 127 114 120 126 114 120 126 114 120 126 114 120 127 115 120 127 115 120 127 114 120 127 114 120 127 115 120 127 114 120 126 115 120 127 114 120 127 115 120 127 114 120 127 114 120 126 114 120 127 114 120 126 114 120 126 114 120 127 114 120 126 114 120 127 114 120 126 115 120 126 114 120 126 114 120 126 114 120 126 114 120 126 114 120 127 114 120 127 114 120 126 115 120 127 114 120 127 115 120 127 134 151 173 136 155 179 137 155 180 137 155 179 137 155 179 136 155 179 137 155 180 137 155 179 137 155 180 137 155 180 136 155 179 137 155 179 137 156 180 136 155 179 137 156 180 137 156 180 137 156 180 137 155 179 137 156 180 137 156 179 137 155 179 137 155 180 137 155 180 137 155 179 137 155 179 137 155 180 138 156 180 137 155 180 137 155 179 137 156 180 137 156 180 137 155 180 137 156 180 137 155 180 138 156 180 137 156 180 138 156 180 137 156 180 137 156 180 138 156 180 138 156 180 138 156 180 138 156 180 137 155 179 137 155 180 137 156 180 137 155 179 
137 155 179 137 156 180 137 155 179 137 155 179 137 156 180 137 155 179 138 156 180 136 155 179 137 155 179 137 155 179 136 155 179 137 155 179 137 155 180 137 155 179 136 155 179 137 155 179 137 155 179 137 155 179 137 155 179 137 155 179 137 155 179 136 155 178 137 155 179 136 155 179 137 155 178 137 155 179 136 154 178 136 154 178 137 155 179 136 154 178 136 155 178 136 154 179 136 155 179 136 154 178 137 155 179 137 155 179 136 154 178 136 154 177 136 154 179 136 154 178 137 155 179 136 154 178 136 154 178 136 154 177 135 153 177 136 154 178 136 154 178 135 153 177 137 155 178 135 153 177 136 154 177 136 153 177 136 154 177 135 153 176 136 154 178 135 153 177 135 153 177 135 153 176 135 153 177 135 153 177 135 153 177 135 152 176 135 153 177 135 153 177 135 153 177 135 153 177 135 153 176 135 153 177 135 153 176 135 153 176 134 152 175 135 153 176 135 152 176 134 152 176 135 153 176 135 152 176 135 153 177 135 153 177 135 153 176 135 152 176 135 153 176 135 153 176 135 152 176 134 152 175 135 153 176 134 152 175 134 152 175 134 151 174 134 152 176 134 151 174 134 151 175 134 151 174 134 152 175 135 152 176 135 153 176 134 152 175 134 151 174 134 151 174 135 152 175 134 152 175 135 152 175 135 152 175 135 152 175 134 152 175 134 151 174 135 152 176 134 152 175 135 152 175 143 161 186 163 186 215 179 203 235 184 209 241 188 213 246 189 214 246 191 216 248 193 218 250 194 219 251 195 219 251 195 219 251 196 220 252 196 220 251 196 220 251 197 221 252 198 221 253 185 207 235 114 119 126 114 120 126 114 119 126 114 120 126 114 119 126 114 119 125 114 119 126 114 119 125 114 119 126 114 120 126 114 119 126 113 119 125 114 119 126 114 119 126 114 119 126 114 120 126 114 119 126 114 119 126 114 119 126 114 120 126 114 120 126 114 120 126 114 120 126 114 119 126 114 120 126 114 120 127 114 119 126 114 120 126 114 119 126 114 120 126 114 120 126 114 119 126 114 120 126 114 120 126 114 120 126 115 120 126 114 120 126 114 119 126 114 120 126 114 120 127 114 120 126 114 120 126 114 120 126 114 120 126 115 120 127 115 120 126 114 120 126 114 120 126 114 120 126 114 120 126 114 120 126 114 120 126 114 120 127 114 120 126 114 120 127 114 120 127 114 120 126 114 120 126 115 120 126 114 120 126 114 120 126 114 119 126 114 120 126 114 120 126 114 120 126 114 120 126 114 120 126 114 120 126 114 120 126 114 120 126 114 120 126 114 120 126 114 120 126 114 120 126 114 120 126 114 119 126 114 120 126 114 120 126 115 120 126 114 120 126 114 120 127 115 120 127 119 127 137 137 155 179 137 155 179 137 155 179 137 155 179 137 155 180 137 155 179 137 155 179 137 155 179 137 156 180 137 155 179 137 155 180 137 155 179 137 155 180 137 155 179 137 155 180 137 155 179 137 156 180 137 155 179 137 155 179 137 156 180 137 155 179 137 156 180 137 155 179 137 155 180 137 156 180 137 155 179 137 155 180 137 156 180 138 156 180 137 155 180 137 156 180 137 156 180 137 155 180 137 155 180 137 156 180 137 156 180 137 155 180 137 155 180 137 156 180 137 156 180 137 156 180 137 156 180 137 156 180 137 156 180 137 155 179 138 156 180 137 155 180 
136 155 179 137 155 179 137 155 179 137 155 180 136 155 179 137 155 180 137 155 179 137 155 180 137 155 179 137 156 180 137 155 179 137 155 179 137 155 179 137 155 179 137 155 179 137 155 180 137 155 179 136 154 179 137 155 179 136 155 179 137 155 179 137 155 179 137 155 179 136 155 179 137 155 179 136 154 178 136 155 179 137 155 179 137 155 179 137 155 179 136 154 178 137 155 179 136 154 178 136 155 179 136 154 178 136 154 178 137 155 179 136 155 179 136 155 179 137 155 179 136 154 178 136 154 178 136 154 178 136 154 178 136 154 178 136 155 178 136 155 178 136 154 178 136 154 178 136 154 178 136 154 178 136 154 178 136 154 178 136 153 177 135 153 177 136 154 177 135 154 177 136 154 177 135 154 178 136 154 178 135 153 177 136 154 177 135 153 177 136 153 177 136 154 178 135 153 176 136 154 177 135 153 177 135 153 177 135 152 176 135 153 176 135 153 176 136 154 177 135 153 176 135 153 177 135 153 176 135 153 177 135 153 177 135 153 176 135 153 176 135 152 176 135 153 176 135 152 176 135 153 176 135 153 177 135 153 176 135 153 176 136 154 178 136 153 177 135 153 177 135 153 176 135 152 176 136 153 177 135 153 177 135 153 176 135 153 176 135 153 176 135 153 176 136 154 177 136 154 177 136 153 176 136 153 176 136 153 176 135 153 176 135 153 176 135 153 176 135 152 175 136 153 177 136 154 177 139 157 181 154 176 203 171 195 227 180 205 238 184 210 243 187 212 245 188 214 247 190 215 248 192 217 250 192 217 250 194 219 251 194 219 252 194 219 251 194 219 251 194 219 251 194 218 250 126 134 145 114 120 126 114 119 126 114 120 126 113 119 125 114 119 125 113 119 125 114 119 126 114 119 126 114 119 125 114 119 126 113 119 125 113 119 125 113 119 125 114 119 126 113 119 125 114 119 125 114 119 126 114 120 126 114 119 126 114 120 126 113 119 126 114 120 126 114 119 126 114 120 126 114 119 126 113 119 126 114 119 126 113 119 126 113 119 126 114 119 126 114 119 126 114 119 126 114 119 126 114 119 126 114 119 126 114 120 126 114 120 126 114 119 126 114 120 126 114 120 126 114 120 126 114 119 126 114 119 126 114 120 126 114 119 126 114 120 126 114 120 126 114 119 126 114 120 126 113 119 126 114 120 126 114 120 126 114 119 126 114 120 126 114 119 126 114 120 126 113 119 125 113 119 125 114 119 126 114 120 126 114 119 126 114 119 126 114 120 126 114 120 126 114 120 126 114 119 125 114 120 126 114 119 126 114 120 126 114 119 126 114 120 126 114 120 126 114 119 126 114 119 126 113 119 126 114 119 126 114 119 126 114 119 126 114 120 126 114 119 126 114 120 126 124 136 151 137 155 180 137 155 179 137 155 180 137 156 180 137 155 179 137 156 180 137 155 179 137 155 179 137 155 179 137 155 180 137 155 179 137 156 180 137 155 179 137 155 179 137 155 180 137 156 180 137 155 179 137 155 179 137 156 180 137 155 179 136 155 179 137 156 180 137 155 180 137 155 180 137 155 179 137 155 179 137 156 179 137 155 180 137 156 180 137 155 179 137 155 180 137 155 180 137 156 180 137 156 180 137 156 180 137 155 180 137 155 179 137 155 180 137 155 179 137 156 180 137 155 180 137 155 180 137 156 180 138 156 180 137 155 179 137 156 180 137 156 180 
137 155 179 137 156 180 137 155 179 137 155 179 137 155 179 136 155 179 137 155 180 137 155 179 137 155 179 137 155 179 137 155 179 137 155 180 137 155 179 137 155 180 137 155 179 136 155 179 136 155 179 137 155 179 136 155 179 137 155 179 136 154 178 136 155 179 137 155 179 136 155 179 137 155 179 137 155 179 137 155 179 136 155 179 136 154 178 137 155 179 137 155 179 136 155 179 136 154 178 136 154 178 136 154 179 137 155 179 136 154 178 136 155 179 137 155 179 137 155 178 136 154 179 136 155 179 136 154 178 136 154 178 136 155 179 136 154 178 136 154 178 136 154 178 136 154 178 136 154 178 136 154 178 136 154 177 136 155 178 136 154 178 136 154 178 136 154 178 136 154 178 136 155 179 136 154 177 136 154 178 136 154 178 137 155 179 136 154 178 136 154 178 136 154 178 136 154 178 136 154 177 136 154 178 136 154 178 136 154 177 136 154 178 136 154 177 136 154 177 135 153 177 136 154 178 136 154 178 135 153 177 135 153 177 136 154 177 136 154 177 136 154 177 136 154 178 135 153 176 135 153 177 135 153 177 135 153 176 136 154 177 136 154 177 136 153 177 136 153 177 136 153 177 135 153 176 136 154 177 136 154 177 136 154 177 136 153 177 136 154 177 136 153 177 136 154 177 136 154 177 136 153 176 136 154 177 136 154 177 136 153 177 136 154 178 136 153 176 135 153 176 136 153 177 136 153 177 136 154 177 137 154 178 143 163 188 161 184 214 174 199 232 181 207 241 182 208 242 185 211 245 187 213 247 188 214 247 189 215 249 191 217 250 191 216 249 191 217 250 192 217 250 192 218 251 152 167 188 114 119 125 113 119 125 113 119 126 113 119 125 113 118 125 113 118 124 114 119 125 113 119 125 114 119 126 113 119 125 113 119 125 113 118 124 113 119 125 113 119 126 113 119 125 113 118 124 114 119 126 113 119 125 113 119 125 113 118 124 113 119 125 113 119 125 113 119 125 113 119 125 113 119 125 114 119 125 114 120 126 114 119 125 113 119 125 114 119 125 114 119 126 114 119 126 114 119 125 114 120 126 113 119 125 114 119 125 113 119 126 114 119 125 114 119 126 113 119 126 114 119 126 114 119 125 114 119 126 113 119 125 113 119 125 114 119 125 114 119 126 114 119 126 114 119 125 114 119 126 114 119 126 114 119 126 114 119 125 114 119 125 114 120 126 114 119 126 114 119 126 114 119 125 114 119 126 114 119 126 114 120 126 113 119 125 114 119 126 113 119 126 114 119 125 114 119 125 113 119 125 113 119 126 113 119 126 113 119 126 114 119 126 113 119 125 114 119 126 114 119 126 113 119 125 114 120 126 114 119 126 113 119 126 114 120 126 114 120 126 114 120 126 132 148 169 137 155 179 137 155 179 136 155 179 137 155 179 137 155 179 137 155 179 137 155 179 136 155 179 137 155 179 137 155 179 137 155 179 137 155 179 137 155 179 136 155 179 137 155 180 137 155 179 137 156 180 137 155 179 136 155 179 137 155 179 137 155 179 137 156 180 137 155 180 137 155 180 137 156 180 137 155 179 137 155 179 137 156 180 137 155 179 137 155 180 137 155 179 137 156 180 137 156 180 137 155 179 137 156 180 137 155 179 137 155 179 137 156 180 137 156 180 137 156 180 137 156 180 137 155 180 137 156 180 137 156 180 137 156 180 137 156 180 138 156 180 
137 155 179 137 155 179 137 155 179 137 155 179 137 155 179 137 156 180 137 155 179 137 155 179 137 155 179 137 155 179 137 155 179 137 155 179 136 155 179 137 155 179 137 155 179 137 155 179 137 156 180 137 155 179 137 155 179 137 155 179 137 156 180 137 156 180 137 155 179 137 155 179 136 155 179 136 155 179 137 155 179 136 155 179 137 155 179 136 154 179 137 155 179 137 155 179 137 155 179 136 155 179 136 155 179 137 155 179 136 155 179 136 155 178 136 154 178 136 155 179 137 155 179 136 154 178 136 155 179 136 154 178 136 155 179 136 154 178 137 155 179 136 154 178 137 154 178 136 154 178 136 154 178 137 155 179 136 155 179 136 154 178 136 154 178 136 154 177 136 154 178 136 154 178 136 154 178 136 154 177 136 154 178 136 154 178 136 154 178 136 154 178 136 154 178 137 155 179 137 155 178 136 154 178 136 154 178 136 154 178 136 154 178 136 155 179 136 154 177 136 154 177 136 154 177 136 154 177 136 154 177 136 154 178 135 153 177 136 154 177 137 154 178 137 155 178 137 155 179 136 154 177 136 154 177 136 154 178 137 155 178 137 154 178 136 154 177 136 154 177 136 154 178 136 154 178 136 153 177 136 154 177 136 154 177 137 155 178 137 154 178 137 155 178 137 155 178 136 154 177 136 153 176 137 154 177 135 153 176 136 153 177 137 154 177 136 154 177 137 154 178 136 154 177 135 153 177 136 154 178 135 153 177 136 154 178 137 156 180 148 169 196 162 186 217 170 196 229 176 203 237 180 207 242 183 210 245 185 212 247 186 213 248 187 213 248 188 214 248 188 214 248 189 215 250 174 197 227 114 119 126 114 119 125 113 118 124 113 118 124 113 118 125 113 118 125 112 118 124 113 118 124 113 118 124 113 118 124 112 118 124 113 118 124 113 118 124 113 119 125 113 118 125 113 119 125 113 118 124 113 119 125 113 118 124 113 119 125 113 118 124 113 118 124 113 119 125 113 118 124 113 118 124 113 118 124 113 119 125 113 119 125 113 118 125 113 118 124 113 118 125 113 119 125 114 119 125 113 119 125 113 118 125 113 119 125 113 119 125 114 119 125 113 119 125 114 119 126 113 119 125 113 118 124 114 119 125 113 118 125 114 119 125 113 118 125 113 118 124 113 119 125 113 119 125 113 118 125 113 119 125 113 119 125 113 119 125 113 119 125 114 119 125 113 118 125 113 119 125 113 119 125 113 119 125 113 119 125 113 119 125 114 119 125 113 119 125 113 119 126 113 118 124 113 119 125 114 119 125 113 119 125 113 119 125 113 119 125 113 119 125 113 118 124 113 119 125 113 119 125 113 119 125 113 119 125 114 119 126 113 119 125 114 119 126 114 120 126 118 125 135 136 155 179 137 155 179 136 155 179 136 155 179 137 155 179 136 155 179 137 155 179 137 155 179 136 155 179 137 155 179 137 155 180 137 155 179 137 155 179 137 156 180 137 155 179 137 155 179 137 155 180 137 155 179 137 155 179 137 155 179 137 155 179 137 155 180 137 155 179 137 155 179 137 155 180 137 155 179 137 155 179 137 155 179 138 156 180 137 156 180 137 155 179 136 155 179 137 155 179 137 156 180 137 156 180 137 155 180 137 155 179 137 155 180 137 156 180 137 156 180 137 156 180 137 155 180 137 155 180 137 156 180 137 156 180 138 156 180 137 156 180 137 155 180 
137 155 180 137 155 179 137 155 179 137 155 179 137 155 179 137 155 179 137 155 180 137 155 179 137 155 179 137 155 179 137 155 179 137 155 179 137 155 179 137 155 180 137 155 179 136 155 179 137 155 180 137 155 179 137 155 179 137 155 180 137 155 180 137 155 180 136 155 179 136 155 179 137 155 179 137 155 179 136 155 179 137 155 179 137 155 179 137 155 179 137 156 180 137 155 179 137 155 179 136 155 179 136 155 179 137 155 179 136 155 179 137 155 179 137 155 179 138 156 180 137 155 179 137 155 179 137 155 179 137 155 179 137 155 179 137 155 179 137 155 179 137 155 179 137 155 179 137 155 179 136 155 178 136 155 179 136 155 179 137 155 179 136 155 179 136 154 178 136 154 178 136 154 178 136 154 178 137 155 178 136 155 178 136 154 178 136 155 179 136 154 178 136 154 178 136 154 177 136 154 178 136 154 178 136 154 178 136 154 177 136 154 178 136 154 178 137 155 178 136 155 178 137 154 178 136 154 178 137 155 179 136 154 178 136 154 178 136 154 178 136 154 178 136 154 178 137 155 178 136 154 177 136 154 177 136 154 178 137 155 178 137 154 178 136 154 178 136 154 177 136 154 177 137 155 178 136 154 178 137 154 178 136 154 178 136 153 177 136 154 178 137 154 178 136 153 176 136 154 177 136 154 178 136 154 177 136 154 178 136 154 178 136 154 178 136 154 178 135 153 177 135 153 177 136 153 177 135 153 177 135 153 176 134 152 176 134 152 176 135 153 177 136 155 180 145 167 194 156 179 210 166 192 225 173 200 235 178 205 240 179 206 242 182 209 244 182 209 245 182 209 244 184 211 246 184 211 247 127 137 150 113 118 124 113 119 125 112 118 124 113 118 124 112 118 124 113 118 124 112 117 124 113 118 125 112 118 124 113 118 124 113 118 124 112 118 123 112 117 123 112 118 124 113 118 124 112 118 124 112 118 124 112 117 123 112 117 124 113 118 124 113 118 124 113 118 124 112 118 124 113 118 124 113 118 124 113 119 125 113 118 124 113 118 124 113 118 124 113 118 124 113 118 125 113 118 124 113 119 125 113 118 125 113 118 124 113 118 124 113 118 124 113 119 125 113 119 125 113 118 124 114 119 125 113 118 124 113 118 124 113 118 124 112 118 124 113 118 125 113 118 124 113 118 124 113 119 125 113 119 125 113 119 125 113 119 125 113 119 125 113 118 124 113 118 124 113 118 124 113 119 125 113 118 124 113 118 124 113 119 125 113 118 124 113 118 124 113 118 124 113 118 124 113 118 124 113 118 124 113 118 124 113 118 124 113 118 124 113 118 125 113 119 125 113 119 125 113 118 124 113 119 125 113 119 125 113 119 125 113 119 125 113 118 125 114 119 126 126 139 156 137 155 179 137 155 179 137 155 179 136 154 178 137 155 179 137 155 179 137 156 180 137 155 179 137 156 180 137 155 179 136 155 179 137 155 179 137 155 179 137 155 179 137 155 179 137 155 179 137 155 179 137 155 179 137 156 180 137 155 180 137 155 179 136 155 179 137 156 180 137 155 179 137 155 179 137 155 179 137 156 180 137 155 179 137 155 180 137 155 180 137 155 179 137 155 180 137 156 180 136 155 179 138 156 180 137 156 180 137 155 180 137 155 179 137 155 180 137 155 180 136 155 179 138 156 180 137 155 179 137 156 180 137 156 180 137 156 180 137 156 180 137 156 180 
137 155 180 137 155 179 137 155 179 137 155 180 137 155 179 137 155 179 136 155 179 137 156 180 137 155 179 137 155 179 137 155 179 137 156 180 137 155 179 137 155 179 137 155 179 137 156 180 137 155 179 137 155 179 136 155 179 137 155 179 137 155 179 137 155 179 137 156 180 137 155 179 137 155 179 136 155 179 137 155 179 137 155 179 137 155 179 136 155 179 136 154 178 136 154 178 136 154 179 136 154 178 137 155 179 136 154 178 137 155 179 136 154 178 136 155 179 137 155 179 137 155 179 136 155 178 137 155 179 137 155 179 137 155 179 136 154 178 136 155 179 137 155 179 137 155 179 136 154 178 136 154 178 136 154 178 136 155 179 136 154 178 136 154 178 136 155 179 136 154 178 136 155 179 136 155 178 137 155 179 137 155 178 136 154 178 136 154 178 136 154 178 136 154 178 136 155 178 137 155 178 137 155 178 137 155 178 137 155 179 136 154 178 137 155 179 137 155 178 136 154 178 137 155 178 136 154 178 136 154 178 136 154 178 137 155 178 137 155 178 136 154 178 136 154 177 137 155 178 136 154 178 137 154 178 137 155 178 137 155 178 137 154 177 136 154 177 137 154 178 136 154 177 136 154 178 137 154 178 137 155 178 136 154 178 136 154 177 137 154 178 136 154 177 136 154 178 137 154 177 136 154 177 136 154 177 136 154 177 136 154 178 135 153 177 135 153 177 135 153 177 135 153 177 134 153 177 134 153 177 134 152 176 134 152 176 133 152 176 133 152 176 132 151 176 132 152 177 131 151 176 137 158 186 144 167 197 153 178 210 161 187 220 168 195 230 171 199 234 174 202 237 176 204 240 176 203 239 150 169 195 113 119 125 113 118 124 113 118 123 112 117 123 112 117 123 113 118 124 112 118 124 112 117 123 112 118 124 112 117 123 112 117 123 112 117 123 113 118 123 112 117 123 112 118 124 112 117 123 112 117 123 113 118 124 113 118 124 113 118 124 113 118 124 113 118 123 113 118 124 112 118 124 112 118 124 113 118 124 113 118 125 112 117 123 112 118 124 113 118 124 112 117 123 113 118 124 112 118 124 113 118 124 112 118 124 113 118 124 112 118 124 113 118 124 113 118 124 113 118 124 112 118 124 113 118 124 113 118 124 113 118 124 113 118 124 113 118 124 112 117 123 113 118 124 113 118 124 112 118 124 112 117 123 113 118 125 112 117 123 113 118 124 113 118 124 113 118 124 113 117 123 113 118 124 112 118 124 113 118 125 113 118 125 112 118 124 113 118 124 112 117 123 112 118 124 112 117 123 112 117 123 112 118 124 113 118 124 112 118 124 113 118 124 112 118 123 113 118 124 113 119 125 113 118 125 113 118 125 113 118 125 113 119 125 115 121 128 134 151 174 137 155 179 137 155 179 137 155 179 137 155 179 137 155 180 137 156 180 137 155 179 137 155 179 137 155 179 137 155 179 136 155 179 137 155 179 137 155 179 137 155 179 137 155 179 136 155 179 137 155 179 137 155 179 137 155 179 137 155 180 137 155 180 137 156 180 137 155 179 137 156 180 137 155 180 137 155 179 137 155 179 137 155 179 137 155 180 137 155 179 137 155 179 137 155 179 137 155 179 137 156 180 137 156 180 137 156 180 137 155 180 137 155 179 137 155 180 137 156 180 138 156 179 137 155 179 137 155 179 138 156 180 137 155 180 137 155 180 136 155 179 137 156 180 
137 156 180 137 156 180 136 155 179 137 155 180 137 156 180 137 155 179 137 156 180 136 155 180 137 156 180 137 156 180 137 155 179 137 155 179 137 155 179 137 156 180 137 155 180 137 155 179 137 155 180 137 155 179 137 155 179 137 156 180 137 155 179 136 155 179 136 155 179 137 155 180 137 155 179 136 155 179 137 155 179 137 155 179 136 155 179 137 155 180 137 155 179 137 155 179 137 155 179 136 155 179 137 155 179 137 155 179 137 155 179 137 155 179 137 155 179 136 155 179 137 155 180 137 155 179 136 155 179 137 155 179 137 155 179 136 154 178 136 155 178 137 155 178 137 155 179 137 155 179 137 155 179 137 155 179 137 155 179 136 154 178 136 155 179 137 155 179 137 155 179 137 155 179 137 155 179 137 155 179 137 155 179 137 155 178 136 155 179 137 155 179 137 155 179 137 155 179 136 154 178 137 155 179 137 154 178 136 155 178 136 154 178 137 155 178 137 155 178 137 155 178 137 155 178 136 155 178 137 155 179 137 155 178 137 155 178 137 155 178 137 155 179 137 155 179 137 155 178 136 154 178 137 155 178 137 155 178 136 154 177 137 155 179 137 155 178 136 154 178 137 155 178 137 155 178 137 155 178 137 155 178 137 155 178 136 154 177 137 155 178 136 154 178 136 154 177 136 154 177 135 153 176 136 154 177 135 153 177 136 154 178 135 152 176 135 153 176 134 152 176 134 152 176 135 153 177 133 152 176 133 151 176 133 152 176 132 151 175 132 151 175 131 150 176 131 151 176 130 150 175 130 150 176 129 149 175 129 150 176 131 153 180 134 156 185 139 162 192 146 171 202 148 174 206 153 179 212 152 177 209 115 121 129 113 118 124 113 118 124 112 117 123 111 116 122 112 117 123 112 117 123 112 117 123 111 116 122 112 117 123 111 116 122 111 116 122 111 117 123 111 116 122 111 116 122 112 118 124 111 116 122 112 117 123 112 117 122 112 116 122 112 117 123 112 117 123 112 117 123 112 117 123 112 117 123 112 117 123 112 117 123 112 117 122 112 117 123 112 117 123 112 117 124 112 117 123 112 117 123 112 117 123 112 117 123 113 118 123 112 117 122 113 118 123 112 117 122 112 117 123 112 117 123 112 117 123 113 118 123 113 118 124 113 118 124 112 117 123 113 118 124 112 117 123 112 117 123 112 117 123 112 118 124 112 118 124 112 117 123 112 117 123 112 117 124 112 118 124 112 117 123 112 118 124 112 118 124 112 117 123 112 118 124 112 117 123 113 118 124 112 118 124 112 118 124 112 117 123 112 117 123 112 117 122 113 118 124 112 118 124 112 117 123 112 117 123 112 117 123 112 117 123 113 118 124 113 118 125 113 118 124 113 119 125 123 135 150 136 155 179 136 155 179 137 155 179 136 155 179 137 155 179 137 155 179 137 155 179 137 155 179 137 155 179 137 155 179 137 155 179 137 155 179 137 155 179 137 155 180 137 155 179 137 155 179 137 155 179 137 155 179 137 155 179 137 156 180 137 155 179 137 155 179 136 155 180 137 155 179 137 155 179 137 155 179 137 155 179 137 155 179 137 156 180 137 156 180 137 155 179 137 155 179 137 155 179 137 156 180 137 155 179 137 155 180 137 156 180 137 155 179 137 155 179 137 155 180 137 155 180 137 156 180 137 155 180 137 156 180 137 156 180 137 155 180 137 156 180 137 156 180 137 155 180 
137 155 180 137 155 180 137 155 180 137 155 179 137 155 179 137 155 179 137 156 180 137 155 179 137 156 180 137 155 180 137 155 180 137 155 179 137 155 179 137 155 180 137 155 179 137 155 179 137 156 180 137 155 179 137 155 179 136 155 179 137 155 179 137 156 180 137 155 179 137 155 179 137 156 180 137 155 179 137 155 179 137 155 180 137 155 179 137 155 179 137 155 179 136 155 179 137 155 179 136 155 179 137 155 179 136 155 179 137 155 179 137 155 180 136 155 179 137 155 179 137 155 179 137 155 179 136 154 179 136 154 178 136 155 179 136 155 179 137 155 179 136 154 178 137 155 179 137 155 179 137 155 179 136 154 178 137 155 179 136 155 179 137 155 179 137 155 179 137 155 179 137 155 179 136 155 178 137 155 179 137 155 179 136 154 178 136 154 178 136 154 178 137 155 179 136 155 179 136 154 178 136 154 178 137 155 179 136 154 178 137 155 179 137 155 178 137 155 178 137 155 179 137 154 178 137 155 179 137 155 179 137 155 178 137 155 179 136 154 178 137 155 178 137 155 178 136 154 178 137 154 178 137 155 178 137 155 179 137 155 178 137 155 178 136 154 177 137 155 178 136 154 178 136 154 177 136 153 176 136 154 177 136 154 178 137 155 178 136 154 177 136 154 177 136 154 178 136 154 178 136 154 177 136 154 177 136 153 177 136 154 177 135 153 177 135 153 176 135 153 177 134 152 175 134 153 177 134 153 177 133 152 176 133 152 177 133 152 177 133 151 176 132 151 176 132 151 177 132 151 177 131 151 176 130 150 176 130 150 176 130 150 176 130 151 177 129 150 176 128 148 175 128 149 176 128 148 175 129 150 177 120 133 150 112 118 124 112 117 124 112 117 123 112 117 122 111 116 122 111 116 122 112 117 122 112 116 122 111 116 121 111 116 122 111 116 121 111 116 122 112 117 122 111 116 122 111 116 122 111 116 121 111 116 121 111 116 122 111 116 122 112 117 123 112 116 122 112 117 122 111 116 122 112 116 122 111 116 122 111 116 122 112 117 122 111 117 122 111 116 122 112 117 123 112 117 123 111 116 122 111 116 122 111 116 122 112 117 122 112 117 123 112 117 122 112 117 122 112 117 123 112 117 122 112 116 122 111 117 122 112 117 123 112 117 123 112 117 122 112 117 122 112 117 122 112 117 122 112 117 122 111 116 122 112 117 122 111 116 122 111 116 122 112 116 122 112 117 123 112 117 123 111 116 122 112 117 123 111 116 122 112 117 122 112 117 122 112 117 122 112 117 123 111 117 122 112 117 123 112 117 123 112 117 123 112 117 123 112 117 123 112 117 123 112 117 123 112 117 123 112 117 123 112 117 123 113 118 124 113 119 125 114 120 127 133 149 171 137 155 179 136 155 179 136 154 178 137 155 179 137 155 179 137 155 179 137 155 179 137 155 179 137 155 179 137 155 179 137 155 179 137 155 179 137 155 179 137 155 179 137 155 179 137 155 179 137 155 179 137 155 179 137 155 179 137 155 179 137 155 179 137 155 179 136 155 179 137 155 180 137 155 179 137 155 180 137 155 180 136 155 180 137 155 179 136 155 180 137 155 179 137 156 180 137 156 179 137 155 179 137 155 180 137 155 179 137 155 180 137 155 179 137 156 180 137 155 180 137 156 180 137 156 180 137 156 180 137 155 179 137 155 179 137 155 179 138 156 180 137 155 179 137 155 179 
137 155 179 137 155 179 137 155 179 137 155 179 137 155 179 137 155 179 137 156 180 138 156 180 136 155 179 137 155 179 137 156 180 137 155 180 137 155 179 137 155 179 136 155 179 137 155 179 136 155 180 137 155 179 137 155 180 137 155 179 136 155 179 137 155 179 137 156 180 137 155 179 137 155 179 137 155 180 137 155 180 137 155 179 137 155 179 137 155 180 137 155 179 137 155 179 136 155 179 137 155 179 137 156 179 137 155 179 137 155 180 136 155 178 137 155 179 137 155 179 137 155 179 137 155 179 137 155 179 137 155 179 137 155 179 137 155 179 137 155 179 137 155 179 137 155 179 137 155 179 136 155 179 137 155 179 136 155 179 137 155 179 137 155 179 136 155 179 137 155 179 137 155 179 137 155 179 137 155 178 137 155 179 137 155 179 137 155 179 137 155 179 137 155 178 137 155 179 137 155 179 137 155 178 136 154 178 137 155 179 137 155 178 137 156 179 137 155 179 137 155 178 137 155 179 136 154 178 136 154 178 137 155 179 137 155 178 137 155 178 137 155 179 137 155 179 137 155 178 137 155 179 137 155 178 137 155 178 137 155 179 137 155 179 137 155 178 137 155 178 137 155 179 137 155 178 137 154 178 137 155 179 136 154 178 136 154 177 137 155 178 136 154 177 137 155 178 136 154 177 136 154 177 136 154 178 136 154 177 136 154 178 135 153 177 136 154 177 136 154 178 135 154 177 135 153 177 135 153 177 135 153 177 133 152 175 134 152 176 134 153 177 134 153 177 134 153 177 134 152 177 133 152 177 133 152 176 132 152 177 132 152 177 132 152 177 132 152 177 132 151 176 132 151 177 131 151 176 131 151 176 130 148 172 113 119 127 112 117 123 112 117 122 111 116 122 111 116 121 111 116 121 110 115 121 111 115 121 111 116 121 111 116 121 110 115 120 110 115 120 111 115 120 112 117 122 111 116 122 111 116 122 110 115 120 111 116 121 110 115 121 111 116 121 111 116 121 110 115 121 111 115 121 111 116 121 111 116 121 111 116 122 111 115 121 111 116 121 111 116 121 112 117 122 111 117 122 111 116 122 111 116 121 111 116 122 111 116 121 111 116 122 110 115 120 111 116 122 111 116 121 111 116 122 111 116 122 111 115 121 111 116 122 111 116 122 112 116 122 111 116 122 111 116 122 111 116 121 111 116 122 112 116 122 111 116 122 111 116 122 111 116 122 111 116 121 111 116 122 111 116 122 111 116 122 111 116 122 111 115 121 111 116 122 112 116 122 112 117 123 111 116 122 111 116 122 111 116 121 111 116 122 111 116 121 111 116 122 112 117 122 111 116 121 112 117 122 111 117 123 112 117 123 112 117 122 112 118 123 113 118 124 122 133 147 137 155 179 137 155 179 136 154 178 136 155 178 137 155 179 137 155 179 136 155 178 137 155 179 136 155 179 137 155 179 137 155 179 137 155 180 137 155 179 137 155 179 137 155 179 136 155 179 137 155 180 136 155 179 137 155 179 136 155 179 137 155 179 137 155 179 137 155 180 137 155 180 137 155 179 137 155 179 137 155 179 137 155 179 137 155 179 137 155 179 137 155 179 137 155 179 137 155 179 137 155 180 137 155 179 137 155 179 137 156 180 137 155 180 138 156 179 137 156 180 137 155 179 137 155 179 137 155 179 137 155 179 136 155 179 137 155 180 136 155 180 137 156 180 137 155 180 137 155 179 
137 156 180 137 155 179 137 155 180 137 155 180 137 155 180 137 155 180 137 156 180 137 156 180 137 156 180 137 155 179 136 155 179 137 155 179 137 155 180 137 155 180 137 156 180 137 156 180 137 155 180 136 155 179 137 155 179 137 155 180 137 155 179 137 155 180 137 155 179 137 155 179 137 155 179 137 155 179 137 155 180 137 155 179 137 155 179 137 155 179 136 155 179 137 155 179 137 155 179 137 155 180 137 155 179 137 155 179 137 155 179 137 155 179 137 156 180 136 155 179 137 155 179 137 155 179 136 155 179 136 154 178 136 154 178 137 155 179 137 155 179 137 155 179 136 154 178 137 155 179 137 155 179 136 155 178 137 155 179 136 154 178 137 155 179 137 155 179 137 155 179 137 155 178 137 155 179 137 155 179 136 155 179 137 155 179 137 155 179 137 155 179 137 154 178 137 155 179 137 155 179 137 155 179 137 155 179 137 155 179 136 154 178 137 155 179 137 155 179 137 155 178 137 155 178 137 155 178 137 155 178 137 155 178 136 155 179 137 155 179 137 155 178 137 155 178 137 155 179 137 155 179 137 155 179 137 154 178 137 155 178 136 154 178 137 155 178 137 156 179 137 155 178 137 155 178 136 154 177 136 154 177 136 154 178 136 154 178 137 155 178 136 154 177 137 155 178 136 154 178 137 155 178 137 154 178 136 154 178 136 154 178 136 154 178 136 154 177 136 154 178 136 154 177 137 155 178 136 154 178 135 153 177 136 154 178 136 154 177 135 153 177 136 154 178 135 154 177 135 154 177 136 154 178 135 153 177 135 153 177 135 153 177 134 153 177 134 153 178 135 153 177 135 153 177 135 153 177 135 153 177 135 153 177 124 136 152 112 117 122 111 116 122 111 116 121 111 116 121 110 114 120 110 114 120 111 115 120 110 114 120 110 115 120 110 115 120 111 116 121 110 115 120 110 114 119 110 115 120 111 115 121 110 115 120 110 115 121 110 114 120 110 115 121 110 115 120 110 114 119 111 115 120 110 115 120 110 115 120 111 116 121 111 115 121 110 115 120 110 115 120 111 116 121 110 115 120 110 115 120 110 115 120 111 116 121 112 116 122 111 115 121 111 115 120 110 115 120 111 115 121 111 116 122 111 116 122 111 115 120 111 116 121 110 115 120 110 115 121 111 116 121 111 116 122 111 115 121 111 116 121 111 116 121 111 116 121 110 115 120 111 116 121 111 116 121 110 115 121 111 116 121 111 115 121 111 116 122 111 116 121 111 116 122 111 115 121 110 115 120 111 116 121 111 116 122 111 116 121 111 115 121 111 116 121 111 116 121 111 116 121 111 116 122 111 116 121 111 116 122 112 117 122 111 116 121 112 117 123 113 119 126 134 151 173 136 155 179 136 155 179 136 154 178 137 155 179 137 155 179 136 154 178 136 155 179 136 155 179 137 155 179 137 156 179 137 155 179 137 155 179 137 155 179 137 155 179 137 155 179 137 155 179 137 155 179 137 155 179 137 155 179 136 155 179 137 155 179 137 155 180 137 155 179 137 155 179 137 155 179 136 155 179 137 155 179 137 155 179 137 155 179 137 155 179 137 155 179 136 155 179 137 155 179 137 155 179 137 155 179 137 155 179 138 156 180 137 155 179 137 155 179 137 155 179 137 155 180 136 155 179 138 156 180 137 156 180 137 155 179 137 155 179 137 156 180 137 155 180 137 156 180 137 155 180 
137 155 180 137 155 180 137 156 180 137 156 180 137 155 180 137 155 180 137 155 180 137 155 179 137 156 180 137 156 180 137 155 179 137 155 180 136 155 179 137 155 179 137 155 179 137 155 179 137 155 180 137 155 179 137 155 179 137 155 179 137 155 179 137 155 179 137 155 179 137 155 180 137 156 179 137 155 179 137 156 180 137 155 179 136 155 179 137 155 179 136 155 179 137 155 180 136 155 179 137 155 179 137 155 179 137 155 179 137 155 180 137 155 179 137 155 180 137 155 179 137 155 179 137 155 179 137 155 179 137 155 179 137 155 179 137 156 180 137 155 179 136 155 179 137 156 180 137 155 179 137 155 179 137 156 180 136 155 179 137 155 179 137 155 179 136 155 179 136 154 178 137 155 179 136 155 179 136 154 178 137 155 179 137 155 178 137 155 179 137 155 179 137 155 178 137 155 179 136 155 178 137 155 178 136 155 178 137 155 179 137 155 179 137 155 179 137 155 178 136 155 179 136 154 178 137 155 179 137 155 179 136 155 178 136 154 178 137 155 178 137 155 178 137 155 178 137 155 179 137 155 178 136 154 178 137 155 179 137 155 178 137 154 178 137 155 179 137 155 179 137 155 178 137 155 178 136 154 178 137 155 179 136 154 178 137 154 178 136 154 178 137 155 178 136 154 177 137 155 178 137 155 179 137 155 178 137 154 178 137 154 178 136 154 178 137 155 178 137 155 178 137 155 178 137 154 178 137 155 178 136 154 177 137 155 178 136 154 178 137 155 178 136 154 178 137 154 178 136 154 178 137 154 178 136 154 177 136 154 178 136 154 178 136 154 177 136 154 178 136 154 177 136 154 178 137 155 178 135 153 177 136 154 177 134 152 175 115 122 130 111 116 122 111 115 121 110 115 120 109 113 119 109 114 119 110 114 119 109 113 118 110 114 119 110 114 120 110 114 119 109 113 118 109 114 119 109 113 118 109 114 119 110 115 120 110 114 120 110 114 120 110 114 119 109 113 118 110 114 119 109 113 118 110 115 120 109 114 119 110 115 120 110 115 120 110 114 120 110 115 120 111 115 120 110 115 120 110 115 120 110 115 120 110 114 119 110 114 120 110 114 119 110 114 119 111 115 120 110 115 120 110 115 120 110 115 120 110 115 120 111 115 120 110 115 120 110 115 120 110 114 119 110 115 120 110 114 120 111 115 120 110 115 120 110 115 120 110 115 120 111 115 121 110 114 119 110 114 120 111 115 121 110 114 119 110 115 120 111 115 120 109 114 119 110 115 120 110 115 120 109 114 119 110 114 119 111 115 121 110 115 120 111 115 120 111 115 120 109 114 119 111 116 121 110 115 120 111 116 122 111 116 121 111 116 121 112 118 124 125 137 153 136 154 179 136 154 178 136 154 178 136 155 179 136 154 178 137 155 179 137 155 179 136 154 178 136 154 178 137 155 179 136 155 179 136 155 178 136 155 179 137 155 179 137 155 179 136 154 178 136 155 178 136 155 179 136 155 179 137 155 180 137 155 179 137 155 179 137 155 179 137 155 179 137 155 179 137 155 179 136 155 179 136 155 179 137 155 179 137 156 180 137 155 179 136 155 179 137 155 179 137 156 180 137 155 179 137 155 180 136 155 179 136 155 179 137 155 179 137 155 179 137 155 179 137 156 180 137 155 180 137 155 180 137 155 180 137 155 180 137 155 179 137 155 179 137 156 180 137 155 179 137 155 179 
137 155 180 137 156 180 137 155 180 137 156 180 136 155 179 137 156 179 137 155 179 137 156 180 137 155 180 137 156 180 137 156 180 137 155 180 137 155 179 136 155 179 137 155 180 137 155 179 137 155 179 138 156 180 137 155 179 137 155 179 137 155 179 137 155 179 137 155 179 137 155 179 137 156 179 137 155 179 137 155 179 137 155 179 137 155 179 137 155 179 137 155 179 137 155 179 137 155 179 137 155 179 137 155 179 137 155 179 137 155 179 137 155 179 137 155 179 137 155 179 137 155 179 137 155 179 137 155 179 136 155 179 137 155 179 136 154 178 137 155 179 137 155 179 136 154 178 136 155 179 136 155 179 137 155 179 137 156 179 136 154 179 136 155 179 137 155 179 137 155 179 136 155 179 137 155 179 137 155 179 137 155 179 137 155 179 137 155 179 136 154 178 136 154 178 137 155 179 137 155 179 136 154 178 137 155 179 137 155 179 137 155 179 137 155 179 137 155 178 137 155 179 136 155 178 136 155 179 137 155 179 137 155 178 137 155 179 137 155 178 136 154 178 136 154 178 137 155 179 136 154 177 137 155 179 137 154 178 136 154 178 137 155 178 136 154 178 136 155 178 137 155 178 137 154 178 137 155 179 137 155 178 136 154 177 136 154 178 137 155 178 137 155 178 137 155 178 136 154 178 137 155 178 136 154 177 136 154 177 137 155 178 137 155 178 137 155 178 137 155 178 137 154 178 137 154 178 137 155 178 137 154 178 137 155 178 137 154 178 136 154 178 137 155 178 136 154 178 136 154 178 136 154 177 136 154 178 137 155 179 136 154 177 137 155 179 137 154 178 136 154 177 137 154 178 137 155 178 137 154 177 137 154 177 137 155 178 128 142 161 111 116 122 110 115 120 110 115 120 109 114 119 110 114 119 109 113 118 110 114 119 110 114 119 109 113 118 109 113 117 109 113 118 109 113 118 109 113 118 110 114 119 109 113 118 109 114 119 109 113 118 108 112 117 109 113 118 110 114 119 109 114 119 109 113 119 109 113 118 110 114 119 109 114 119 109 114 119 110 114 119 109 114 119 109 113 118 110 114 119 109 113 118 110 114 119 109 114 119 110 114 119 110 114 119 109 113 118 109 114 119 110 114 119 111 115 120 110 114 119 110 114 119 110 114 119 110 115 120 110 114 119 110 114 118 110 114 120 109 114 119 110 115 120 110 114 119 110 114 119 110 114 120 110 114 119 110 114 119 110 114 119 109 113 118 110 114 119 110 114 119 110 114 119 110 114 119 110 115 120 110 114 119 111 115 120 109 114 119 109 114 119 110 115 120 110 114 120 110 114 120 109 114 119 110 115 120 111 116 121 110 115 121 111 116 122 116 124 133 135 153 177 136 154 177 136 154 178 137 155 178 136 154 179 136 154 178 136 154 178 137 155 179 137 155 179 136 155 179 137 155 179 136 155 178 136 155 179 137 155 179 137 155 179 136 155 178 137 155 179 137 155 179 137 155 179 137 155 179 136 154 178 136 155 179 136 155 178 137 155 179 137 155 179 137 155 179 137 155 179 137 155 179 136 155 179 136 155 179 136 155 179 137 155 179 137 155 179 137 155 179 136 155 179 136 155 179 137 155 179 137 155 179 137 156 180 137 155 179 136 155 179 137 155 179 137 155 179 137 155 179 136 155 179 137 155 180 137 155 179 137 155 179 137 155 179 137 155 179 137 155 179 137 155 179 
137 156 180 137 155 179 137 155 180 137 155 180 137 155 180 137 155 180 136 154 179 137 155 180 137 156 180 137 155 180 137 155 179 137 155 179 137 155 179 137 155 179 137 155 179 137 156 180 136 155 179 137 155 179 137 155 179 137 156 180 136 155 179 137 155 179 137 156 180 137 155 179 137 155 179 137 155 179 137 155 179 137 156 180 136 155 179 137 155 179 137 156 180 136 155 179 137 155 179 137 155 179 137 155 179 137 155 179 137 155 179 137 155 179 137 156 180 137 155 180 136 155 179 137 155 179 137 155 179 137 156 180 136 155 179 137 155 179 137 155 179 137 155 179 137 155 179 137 155 179 137 155 179 137 155 179 137 155 179 137 155 179 137 155 179 137 155 179 137 155 179 136 154 179 136 154 178 137 155 178 137 155 179 137 155 179 137 155 179 136 155 179 136 155 179 137 155 179 137 155 179 137 155 178 137 155 179 137 155 179 136 154 178 137 155 179 137 155 179 137 155 179 137 155 178 136 154 178 136 154 178 137 155 179 136 155 178 137 155 178 136 154 178 136 154 178 137 155 179 137 155 179 137 155 179 136 154 178 137 155 178 136 154 177 137 155 179 137 155 179 136 154 178 136 154 178 136 154 178 137 155 178 137 155 179 137 155 178 137 155 178 137 155 178 137 155 178 137 155 178 137 154 178 136 154 178 137 155 178 137 155 178 137 155 178 137 155 178 137 155 178 136 154 178 137 155 178 137 155 178 136 155 178 136 154 178 137 155 178 137 154 178 136 154 177 137 155 178 137 155 179 137 155 178 137 155 178 137 155 178 136 154 177 136 154 177 137 155 178 137 155 178 137 155 178 136 154 177 136 154 177 137 155 178 137 155 178 137 154 178 120 129 142 110 114 120 109 114 119 109 114 118 108 112 117 108 112 116 109 113 118 108 112 117 108 112 116 109 113 118 108 112 117 107 111 116 108 112 116 108 112 117 108 112 116 109 113 117 108 112 117 109 113 117 109 113 117 109 113 117 108 112 116 108 112 117 109 113 118 107 111 116 109 113 118 109 113 118 109 113 118 109 113 118 109 113 117 109 113 118 110 114 118 109 114 119 110 114 119 109 113 118 109 113 118 109 113 118 108 112 117 109 113 118 109 113 118 109 113 118 109 113 118 110 114 119 108 112 117 108 113 117 110 114 119 109 114 119 109 114 119 110 114 119 109 113 118 108 112 117 110 114 118 109 113 118 109 113 118 109 113 118 109 114 119 109 113 118 110 114 119 109 113 118 109 113 118 109 113 117 109 114 118 109 113 118 109 113 118 109 113 118 109 113 118 109 113 118 108 113 117 109 114 119 110 114 119 111 115 120 110 115 120 112 117 123 130 145 165 136 154 178 136 154 178 136 154 178 136 154 178 136 154 178 136 154 178 136 154 178 136 154 178 136 155 179 136 155 179 137 155 178 136 155 179 137 155 178 137 155 179 136 155 179 136 154 178 136 154 178 136 154 178 136 154 178 136 154 178 136 155 179 136 154 178 137 155 179 136 155 179 136 155 179 136 155 178 136 155 178 136 154 178 136 155 179 137 155 179 136 155 179 136 155 179 137 155 179 137 155 179 136 155 179 136 155 179 137 155 179 136 155 179 137 155 179 137 155 179 137 155 179 137 155 179 137 155 180 137 155 179 137 155 179 136 155 179 136 155 179 137 155 179 137 155 179 137 155 179 137 155 179 136 155 179 
137 156 180 137 156 180 137 155 180 137 156 180 137 156 180 137 155 179 137 156 180 138 156 180 137 155 180 137 156 180 137 155 180 137 155 179 137 155 179 137 155 179 137 156 180 137 155 179 137 155 179 137 156 180 137 155 179 137 155 179 136 155 179 137 155 179 137 155 179 137 156 180 136 155 179 136 155 179 137 155 180 137 155 179 137 155 179 137 155 179 137 156 180 137 155 179 137 155 179 137 155 179 137 155 179 137 155 179 137 155 179 137 155 179 136 155 180 137 155 179 137 155 179 136 155 179 137 155 179 136 155 179 137 155 179 137 155 179 137 155 179 137 155 179 137 155 179 137 155 179 136 155 179 136 155 179 137 155 179 136 155 179 136 154 179 136 155 179 136 155 179 137 155 179 137 155 179 137 155 179 137 155 179 136 154 178 137 155 178 137 155 179 137 154 178 137 155 179 137 155 178 137 155 179 136 154 178 137 155 178 137 155 179 137 155 179 137 155 179 137 155 178 136 154 177 137 155 179 136 155 178 136 155 178 137 155 179 136 154 178 137 155 178 136 154 178 136 154 178 136 155 178 137 155 178 136 154 178 137 155 179 136 154 178 136 154 178 137 155 178 136 154 178 136 154 178 137 155 178 137 154 178 137 155 179 137 155 178 137 155 179 136 154 178 137 155 178 136 154 178 137 154 178 136 154 178 137 154 178 137 155 178 136 154 177 137 155 178 136 154 177 137 155 178 137 155 178 136 154 178 137 155 178 136 154 178 137 155 178 136 154 178 136 154 178 137 155 178 137 155 178 136 154 178 137 155 178 136 154 178 137 154 178 137 154 178 136 154 178 137 154 177 136 154 177 137 155 178 136 154 177 136 154 177 137 154 178 136 154 177 134 150 172 113 119 126 109 113 119 108 112 116 108 112 117 108 112 116 108 111 115 108 111 116 107 110 115 108 111 116 107 111 115 107 111 116 107 111 115 108 112 116 107 111 115 107 111 115 108 112 116 108 111 115 108 111 115 108 112 116 108 112 117 108 112 116 109 112 117 108 111 116 108 112 116 107 111 115 108 111 116 108 112 116 108 112 117 109 112 117 108 112 116 108 112 116 109 113 117 108 112 117 108 112 117 108 112 117 109 113 117 109 113 118 109 112 117 109 113 117 108 112 117 109 113 118 108 112 116 108 112 116 108 112 117 108 112 116 108 112 117 108 112 117 109 112 117 108 112 117 109 112 117 109 113 118 109 112 117 108 111 116 109 112 117 109 113 117 109 113 118 108 111 116 109 113 118 109 113 118 108 112 117 108 112 117 108 111 116 109 113 117 109 113 118 109 113 117 109 112 117 109 114 119 110 114 118 110 114 120 110 115 121 122 134 148 136 154 177 136 154 177 136 154 178 136 154 178 136 154 178 136 154 178 136 154 178 136 154 178 136 154 179 136 154 178 137 155 179 136 155 178 136 154 178 136 154 178 136 154 178 136 154 178 136 154 178 136 155 178 136 155 178 136 154 178 136 154 178 136 154 178 137 155 179 136 155 179 137 155 179 136 155 179 137 155 179 136 154 178 136 155 179 137 155 179 136 155 179 137 155 179 136 154 178 137 155 179 136 155 179 136 154 178 137 155 179 136 155 179 136 155 179 136 155 179 137 155 179 136 155 179 136 155 179 137 155 179 137 155 179 137 155 179 137 155 179 137 155 179 137 155 180 137 155 179 137 155 179 137 155 179 137 155 179 
137 156 180 137 156 180 137 155 180 137 156 180 137 156 180 137 155 179 137 155 180 137 155 179 137 156 180 137 155 180 137 155 179 137 155 180 137 156 180 137 155 179 137 155 179 137 155 179 137 155 179 136 155 179 137 155 179 137 155 180 137 155 180 137 155 179 137 155 180 137 156 180 137 155 179 137 155 179 137 155 179 136 155 179 137 155 179 137 156 180 137 155 179 137 155 179 137 155 179 137 155 179 137 155 179 137 155 179 136 155 179 137 155 179 137 155 179 137 155 180 137 155 179 137 155 179 137 155 179 137 155 179 136 155 179 137 155 179 136 155 179 137 155 179 136 155 179 136 154 178 137 155 179 136 155 179 137 155 179 137 155 179 136 155 179 136 155 179 137 155 179 136 155 179 137 155 179 136 155 179 136 155 179 136 155 179 136 155 179 136 154 178 137 155 179 137 155 179 136 154 178 136 154 178 136 155 179 137 155 179 136 154 178 137 155 178 137 155 179 137 155 178 136 154 178 137 155 178 137 154 178 136 154 178 136 154 178 136 155 179 136 154 178 136 154 177 136 154 178 136 154 178 136 154 178 136 154 178 136 154 178 136 154 178 137 155 178 136 154 178 137 155 178 136 154 178 136 154 178 136 154 177 136 154 178 137 155 178 136 154 178 136 154 178 136 155 178 136 154 178 135 153 177 137 154 178 136 154 177 137 155 178 136 154 177 136 154 178 136 154 178 136 154 177 136 154 178 136 154 177 137 154 177 136 154 178 136 154 178 136 154 178 136 154 177 137 154 177 136 154 177 136 154 177 136 154 177 137 154 178 137 154 178 136 154 178 136 154 177 136 154 177 136 154 177 136 154 177 136 154 177 136 153 177 136 154 177 136 154 177 135 153 176 129 143 161 109 114 119 108 112 117 107 111 115 107 111 115 107 110 114 107 111 115 107 111 115 107 110 114 106 110 114 106 110 114 107 110 115 108 111 115 107 111 115 108 111 115 106 109 113 107 110 115 108 111 116 108 111 116 108 111 116 107 110 114 107 111 115 107 111 115 107 111 115 108 111 116 107 111 115 107 111 115 107 111 115 108 111 116 106 110 114 108 111 115 106 110 114 108 112 116 108 111 115 107 111 115 107 111 115 107 111 115 109 112 116 108 112 116 107 110 114 108 112 116 108 112 116 107 111 115 108 111 115 108 112 117 108 112 116 107 110 114 108 111 116 107 111 116 108 111 115 107 111 115 108 112 116 107 111 116 108 112 116 107 111 115 107 110 114 107 111 115 108 112 116 107 110 114 108 112 116 107 111 116 108 112 116 108 112 116 107 111 115 108 111 116 108 112 117 109 113 117 109 112 117 110 114 120 116 124 134 136 153 176 136 154 178 136 154 178 136 154 177 136 154 178 136 154 178 136 154 178 136 154 178 136 154 178 135 154 177 136 154 178 136 154 178 136 154 178 136 154 177 136 154 178 136 154 178 136 154 177 136 154 178 136 154 178 135 154 178 136 154 177 136 154 178 136 154 178 136 155 179 136 154 178 136 154 179 135 154 178 136 155 179 136 154 178 136 154 178 136 155 179 137 155 178 136 155 179 136 155 179 136 154 178 136 154 178 137 155 179 136 155 179 136 155 179 137 155 179 136 155 179 136 154 178 136 155 179 136 155 179 136 154 178 136 155 179 137 155 179 137 155 179 136 155 179 137 155 179 137 155 179 137 155 179 136 155 179 137 155 179 
137 156 180 137 156 180 137 155 179 137 155 179 137 155 180 137 155 180 137 156 180 137 155 180 137 155 180 137 155 179 137 155 180 137 155 179 137 155 180 137 155 180 137 155 180 137 155 180 137 155 179 137 155 179 137 155 179 136 155 179 136 155 180 137 156 180 137 156 180 137 156 180 137 155 180 137 155 179 137 155 180 137 155 179 137 155 179 137 155 179 137 155 179 137 155 180 137 155 179 136 155 179 137 155 179 136 155 179 137 155 179 137 155 179 137 155 180 136 155 179 136 155 179 136 154 178 137 155 179 137 155 179 137 155 179 137 155 179 137 155 179 136 154 178 137 155 179 136 155 179 136 155 179 137 155 179 137 155 178 136 155 179 137 155 179 137 156 179 137 155 178 136 155 179 137 155 179 136 155 179 137 155 179 136 154 178 136 155 179 136 154 179 136 155 178 136 155 179 137 155 178 137 154 178 136 154 177 137 155 179 136 154 178 137 155 178 136 154 178 136 154 178 136 155 179 136 154 178 137 155 178 136 154 178 136 154 177 136 154 178 136 154 178 136 154 177 137 155 178 137 155 179 137 155 178 136 154 178 136 154 178 137 155 178 137 154 178 136 154 178 136 154 178 136 154 177 135 153 177 136 154 178 136 154 178 136 154 178 136 154 178 136 154 177 136 154 178 136 154 177 136 153 177 136 154 177 136 154 178 135 153 177 136 154 177 136 153 177 136 154 178 136 154 177 136 154 177 136 153 177 137 154 178 136 154 177 135 153 177 136 154 177 136 154 177 135 153 176 137 154 178 136 154 177 136 154 177 136 153 177 135 153 177 135 153 176 135 153 176 135 153 176 136 154 177 136 154 178 136 154 177 136 153 177 135 153 177 136 154 177 135 153 176 135 153 176 122 134 149 108 112 117 108 111 116 106 109 113 107 110 114 105 108 112 105 108 112 105 108 111 106 109 113 106 109 112 106 109 113 105 108 112 106 109 113 106 109 113 105 108 112 106 109 113 106 109 113 106 110 114 106 110 114 106 109 113 106 109 113 106 109 113 106 109 113 107 110 114 107 110 113 107 111 115 107 110 114 106 109 113 106 109 113 107 110 114 106 109 113 106 110 114 106 109 113 107 110 114 106 109 112 106 109 113 107 110 115 107 110 114 107 110 114 107 110 114 106 109 113 107 110 114 107 111 115 106 109 113 106 110 114 107 110 114 108 111 115 108 111 116 107 110 114 107 111 115 106 110 113 107 111 115 107 110 114 107 110 114 106 110 114 105 109 113 107 111 115 106 109 113 107 111 115 107 110 114 108 112 116 106 110 114 107 110 114 107 111 116 107 110 114 108 112 116 109 113 118 112 118 125 133 149 171 136 154 177 135 153 177 135 153 177 136 154 178 136 154 177 136 154 178 136 154 177 136 154 177 136 154 177 135 153 177 136 154 177 136 154 178 136 154 178 136 154 177 136 154 178 136 154 178 136 154 178 136 154 177 136 154 178 136 154 178 136 154 178 136 154 179 136 154 178 136 154 177 136 154 178 136 154 178 137 155 179 136 155 178 136 155 179 136 155 179 136 154 178 136 154 178 136 154 178 136 155 179 136 155 179 137 155 178 137 155 178 136 154 178 136 155 179 136 155 179 137 155 179 137 155 178 136 155 179 137 155 179 136 155 179 137 155 178 136 155 179 137 155 179 136 155 179 136 155 178 136 155 179 137 155 179 136 155 179 137 155 179 
137 155 179 137 155 180 137 155 180 137 156 180 137 156 180 137 155 179 137 155 179 137 155 179 137 155 180 137 155 179 137 155 179 137 155 179 137 156 180 137 155 180 136 155 179 138 156 180 137 155 180 137 155 179 136 155 179 137 155 179 136 155 179 137 156 180 137 155 179 137 155 180 136 155 179 137 155 179 137 155 180 137 155 179 137 155 179 137 155 179 137 155 179 137 155 179 137 155 179 137 155 179 136 155 179 137 155 179 136 155 179 137 155 179 137 155 179 137 155 179 136 155 179 137 155 179 136 155 179 137 155 179 136 154 178 137 155 179 137 155 179 136 155 178 136 155 179 137 155 180 136 155 178 137 155 179 136 155 179 136 155 179 136 155 179 137 155 179 136 154 178 136 154 178 136 154 178 136 155 178 136 154 178 136 154 178 137 155 179 136 154 177 136 154 178 136 154 178 136 154 178 136 155 179 136 154 178 136 154 178 136 154 178 136 155 179 136 154 178 136 154 178 136 154 178 137 155 179 137 155 179 136 154 178 136 154 178 136 154 178 136 154 177 136 154 177 136 155 179 136 154 178 136 154 178 136 154 178 136 154 178 136 154 178 136 154 178 136 154 178 136 153 177 136 154 177 136 154 178 136 154 178 135 153 177 136 154 177 136 154 178 135 154 177 136 154 177 136 154 177 135 153 177 135 153 176 136 154 177 136 154 177 136 154 177 136 154 177 136 154 177 136 154 178 136 154 177 136 154 177 135 153 177 136 154 177 136 154 177 136 154 177 135 153 176 136 154 177 136 154 177 135 153 176 136 153 176 135 153 176 135 153 176 135 153 176 136 153 177 135 153 176 135 153 176 135 152 175 135 153 176 135 153 176 135 152 176 135 153 176 135 153 176 135 153 176 134 152 175 117 126 138 107 111 115 105 108 112 106 108 112 105 108 111 105 107 111 104 107 110 104 107 111 105 108 111 105 108 112 105 108 111 105 108 112 105 107 111 105 108 111 104 107 111 105 108 112 104 107 111 106 109 112 105 107 111 105 108 112 105 108 111 105 108 112 106 109 113 106 109 113 105 108 112 106 109 112 106 109 112 107 110 113 106 109 113 106 109 113 106 109 113 106 108 112 106 109 113 106 109 112 106 109 113 105 108 111 105 108 112 106 109 113 107 110 114 106 109 113 105 109 113 105 108 112 106 109 112 106 109 112 105 108 112 106 109 113 106 109 113 105 108 111 108 111 115 105 108 112 105 108 112 106 109 112 105 108 112 107 110 114 105 108 112 106 108 112 105 108 112 105 108 111 105 108 112 106 109 112 106 109 113 105 109 113 106 110 114 107 110 114 108 111 116 110 115 121 129 144 163 134 152 175 135 153 177 135 153 176 135 153 177 135 153 177 135 153 176 135 153 177 135 153 177 135 153 177 135 153 177 135 153 177 135 153 177 135 153 177 135 153 177 135 153 177 136 154 178 135 154 178 136 154 178 136 154 178 135 154 177 136 154 178 136 154 177 136 154 178 136 154 178 136 154 178 136 154 178 136 154 177 136 155 178 136 154 178 136 154 178 136 155 179 136 154 178 136 154 178 136 154 179 136 154 177 136 155 179 136 154 178 136 154 179 137 155 179 136 154 178 136 154 178 136 154 178 136 155 179 137 155 179 136 155 179 136 155 179 137 155 179 137 155 179 137 155 179 137 155 179 137 155 179 136 155 179 137 155 179 136 154 178 136 155 179 
137 156 180 136 155 179 137 155 180 137 155 180 137 155 179 137 155 179 137 155 179 137 156 180 137 156 180 137 156 180 137 155 179 137 156 180 137 155 179 137 155 179 137 155 179 137 155 179 137 155 179 137 155 179 137 155 179 137 155 180 137 155 179 138 156 180 137 156 180 137 155 179 137 155 179 137 155 179 137 155 179 137 155 179 137 155 179 137 156 180 136 155 179 136 155 179 137 155 179 137 155 179 137 155 179 137 155 180 136 155 179 136 155 179 137 155 180 137 155 179 137 155 179 136 155 179 137 155 179 137 155 179 136 155 178 137 155 179 136 155 179 137 155 179 137 155 179 137 155 179 137 155 179 137 155 179 136 154 178 136 154 178 136 154 178 137 155 179 136 155 178 136 155 179 136 154 178 136 155 178 136 155 179 136 154 178 136 154 178 137 155 178 136 154 178 137 155 179 136 154 178 137 155 179 136 154 178 136 154 177 136 155 178 136 154 178 136 154 178 136 154 178 135 154 178 137 155 178 136 154 178 136 154 178 136 154 177 136 154 178 136 154 177 136 154 177 136 154 178 136 154 178 136 154 178 136 154 177 135 153 177 136 154 177 136 154 178 136 154 178 136 154 177 135 153 177 136 154 178 136 154 178 136 154 178 136 154 178 136 153 177 135 153 177 135 153 177 135 153 177 135 153 176 135 153 176 136 154 177 135 153 177 135 153 176 135 153 176 135 153 176 134 152 175 136 153 177 135 152 175 135 153 176 136 153 176 135 152 176 135 153 177 135 153 176 134 152 176 135 153 176 135 153 176 135 153 176 135 152 176 134 152 174 135 153 176 135 152 175 134 151 175 134 152 175 134 152 175 135 152 175 134 151 174 135 152 175 135 153 176 134 152 175 134 151 174 134 151 174 134 150 172 113 120 130 105 108 112 105 108 112 105 107 110 105 107 111 102 104 107 103 105 108 103 106 109 103 106 109 105 108 111 104 107 110 104 107 110 104 107 110 103 105 108 105 107 111 104 107 110 105 108 111 104 106 109 105 108 111 105 108 111 105 108 112 106 108 111 105 107 110 105 108 112 107 109 113 104 107 110 105 107 110 105 108 111 105 107 110 105 108 111 104 107 111 105 108 111 105 107 111 105 108 111 105 107 111 105 108 112 105 108 112 106 109 113 105 107 111 105 108 112 105 108 112 105 108 111 105 107 111 106 108 112 105 108 111 105 107 111 106 108 112 105 108 111 105 107 111 105 108 112 106 108 112 105 107 111 105 108 111 104 107 111 105 108 112 104 107 110 105 108 111 105 108 112 104 107 110 104 107 111 105 108 111 106 109 113 105 109 112 108 113 118 125 139 156 135 152 175 134 152 175 135 153 177 135 153 176 134 152 175 135 153 176 136 154 177 135 153 176 135 153 177 135 153 176 135 153 177 135 153 176 134 152 176 135 153 176 135 153 177 135 153 176 135 153 176 135 153 176 135 153 177 135 153 176 135 153 177 135 153 177 136 154 177 136 154 178 136 154 178 136 154 178 136 154 178 135 154 177 135 154 177 136 153 177 136 154 178 136 154 178 136 154 178 136 153 177 136 155 179 136 154 178 136 154 178 136 154 178 136 155 178 136 155 178 136 154 178 136 155 179 136 155 178 136 154 178 136 155 178 136 155 179 136 154 178 136 154 178 137 155 178 136 154 178 136 155 179 136 155 179 136 155 179 137 155 179 136 155 179 137 155 179 
137 155 179 137 155 179 137 155 180 137 155 179 137 155 179 137 155 179 137 156 180 137 156 179 137 156 180 137 155 180 137 155 179 137 155 180 137 156 180 137 155 179 137 155 179 136 155 179 137 156 180 137 155 179 136 155 179 137 155 179 137 156 180 137 155 179 137 156 180 137 155 179 136 155 179 137 155 179 136 155 179 137 155 179 137 155 179 136 155 179 137 155 179 136 155 179 137 155 179 137 155 179 137 155 179 137 155 179 137 155 179 137 155 179 136 155 178 137 155 179 137 155 179 137 155 179 137 155 179 137 155 179 137 155 179 136 154 178 136 154 178 137 155 179 136 155 178 136 155 178 136 155 179 136 155 179 136 154 178 136 155 179 136 154 178 136 155 178 136 154 178 136 155 179 136 154 178 136 154 178 136 155 178 137 155 179 136 154 178 136 154 178 136 154 178 136 154 178 136 154 178 136 154 178 136 154 177 137 155 178 137 155 178 136 154 178 136 154 178 136 154 178 136 154 178 137 155 178 136 154 178 136 154 178 136 154 178 136 154 178 136 154 178 136 154 178 136 154 178 136 154 178 136 154 177 136 154 177 136 154 177 136 154 177 136 154 178 136 154 177 136 154 178 135 154 177 135 153 176 135 153 177 135 153 177 135 153 177 136 154 177 136 153 177 136 154 177 136 153 177 135 153 177 135 153 176 135 153 176 135 153 176 135 153 176 135 153 176 135 153 177 135 152 176 135 152 176 135 153 176 135 153 176 135 153 175 135 153 176 134 152 175 135 152 175 134 152 175 135 152 175 135 152 176 134 152 175 134 151 174 135 153 175 135 152 175 134 152 175 134 151 174 134 151 174 135 152 175 134 152 175 134 152 175 133 151 173 134 151 174 134 151 173 134 151 173 134 151 174 134 151 173 132 148 170 112 118 126 105 107 111 102 104 107 101 103 106 102 105 108 103 105 108 103 106 109 102 104 107 103 105 108 103 105 108 103 105 108 103 105 108 104 106 109 104 106 109 103 105 108 104 107 110 103 105 108 103 105 108 103 105 108 103 105 108 104 106 109 104 107 110 104 107 110 104 107 110 104 106 109 104 106 109 103 106 108 103 106 109 105 107 111 104 106 109 103 105 109 103 106 109 104 106 110 103 105 108 104 106 109 105 107 111 104 107 110 104 106 109 104 106 109 104 107 110 103 106 109 104 107 110 104 107 110 104 107 110 104 106 109 103 106 109 104 106 109 103 105 108 102 104 107 104 107 110 104 107 110 103 106 109 103 105 108 103 106 109 103 105 108 104 106 109 103 105 108 103 106 109 104 106 109 106 108 112 105 108 112 106 110 114 124 137 154 134 152 175 134 152 175 135 152 176 134 152 175 134 152 176 135 153 177 135 152 176 135 152 176 134 152 175 134 152 175 135 153 176 135 153 176 135 153 176 135 153 177 136 153 177 135 153 176 135 153 176 135 153 176 135 153 177 135 153 176 135 153 176 135 153 177 135 152 176 135 153 177 135 153 177 136 154 178 136 153 177 136 154 178 136 154 178 135 154 178 135 153 177 136 154 178 136 154 177 136 154 177 136 154 178 136 154 178 136 154 177 136 154 178 136 154 177 136 154 178 136 155 179 136 154 178 136 154 178 136 154 178 136 154 178 136 155 179 136 155 178 136 154 178 136 155 178 136 154 178 137 155 179 137 155 178 136 155 179 136 155 179 136 155 178 136 155 179 136 154 178 
137 156 180 137 155 180 137 155 179 137 156 180 137 155 179 137 155 180 137 155 180 137 156 180 137 155 179 137 155 180 137 156 180 137 156 180 137 155 179 137 155 179 137 155 179 136 155 179 137 155 179 137 155 179 137 155 180 137 155 179 137 156 180 137 155 180 137 155 179 137 155 179 136 155 179 137 155 179 137 155 179 137 155 179 137 155 179 136 155 179 137 155 179 137 155 179 137 155 179 137 156 180 137 155 179 137 155 179 136 154 178 137 155 179 137 155 179 137 155 179 136 155 179 137 155 179 136 154 178 137 155 179 136 155 178 136 154 178 137 155 179 137 155 179 137 155 179 136 155 179 136 154 178 136 154 178 137 155 179 136 155 179 136 155 179 136 154 177 136 155 179 137 155 179 136 154 178 136 155 178 136 154 178 136 154 178 136 154 178 136 154 178 136 154 178 136 154 178 136 155 179 136 154 177 135 154 178 136 154 177 136 154 178 136 154 177 136 154 177 136 154 177 136 154 178 136 154 177 136 154 178 136 154 178 136 154 177 136 154 177 136 154 177 136 154 177 136 154 177 136 154 178 136 154 177 136 154 177 135 153 177 135 154 177 136 154 177 135 153 177 135 153 177 135 153 177 136 154 177 135 153 176 135 153 177 135 153 176 136 154 178 135 153 176 135 153 176 135 153 176 135 153 176 135 153 177 135 153 177 135 152 176 135 153 176 135 152 175 134 152 175 135 152 175 135 152 176 134 152 176 135 153 175 134 152 174 135 152 175 135 152 175 134 151 174 135 152 175 135 152 175 134 151 174 135 152 175 134 151 173 134 152 175 134 151 174 133 151 174 133 151 173 134 151 173 133 151 173 133 150 172 133 150 173 133 150 172 133 150 172 134 151 173 133 150 172 132 149 171 133 150 172 133 150 173 131 146 167 110 116 124 102 104 107 102 104 106 102 103 106 100 102 104 100 102 104 100 102 105 101 103 106 100 102 104 102 104 106 101 103 105 101 103 105 103 105 107 101 103 105 102 104 106 103 105 107 102 104 107 102 104 106 102 105 107 102 103 106 103 105 108 103 105 108 103 105 108 103 105 108 103 105 108 103 105 107 102 104 107 102 104 106 103 105 108 103 105 107 104 106 109 102 105 107 103 105 108 103 105 108 102 104 107 103 105 108 102 104 107 102 104 106 102 104 106 103 105 108 103 105 108 103 105 108 102 104 107 102 105 107 103 105 108 103 105 108 103 106 108 103 105 108 102 105 108 102 105 107 102 104 107 102 104 107 104 106 109 103 105 107 103 105 107 103 105 108 102 104 107 102 104 108 105 107 111 106 109 113 123 135 151 133 151 173 134 151 174 134 151 174 134 152 175 134 151 174 134 152 175 134 152 175 134 151 174 135 152 175 134 152 174 134 152 175 135 153 176 135 152 175 135 152 176 134 152 175 134 152 175 135 153 176 134 152 175 135 152 176 135 153 176 135 153 176 135 153 176 135 153 176 134 152 175 136 154 177 135 153 177 135 153 177 135 153 176 135 153 176 135 153 177 135 153 177 135 153 177 135 153 177 135 153 177 136 154 178 135 154 178 136 153 177 136 154 178 135 153 177 135 153 177 136 154 178 136 153 177 136 154 178 136 154 178 136 154 178 136 154 177 135 154 178 137 155 179 136 154 178 137 155 179 136 154 178 136 154 178 136 154 178 136 154 178 136 154 178 136 154 178 136 155 179 136 154 178 
137 155 179 137 155 179 137 156 180 137 155 179 137 156 180 137 156 180 137 155 179 137 155 179 137 156 180 137 155 179 137 155 179 137 155 179 137 155 180 137 155 179 137 155 179 137 155 179 137 155 179 137 155 180 137 155 179 136 155 179 137 155 179 137 155 179 137 155 179 136 155 179 137 155 179 136 155 179 137 155 179 137 155 179 137 155 179 137 155 179 137 155 179 136 155 179 136 155 179 137 155 180 137 155 179 136 155 178 136 155 179 137 155 179 136 155 179 137 155 179 138 156 179 137 155 179 136 155 178 137 155 179 136 155 179 136 155 179 136 155 179 137 155 179 136 155 179 136 154 178 136 154 178 136 155 179 137 155 179 136 154 178 137 155 179 136 154 178 136 154 179 136 155 179 136 154 178 136 154 178 137 155 178 136 155 178 136 155 179 136 154 178 136 154 178 136 154 178 137 155 179 137 155 178 136 154 178 136 154 178 136 154 177 136 154 178 136 154 178 136 154 178 136 154 178 136 154 178 136 154 178 136 154 178 136 154 178 136 154 178 136 154 178 136 154 178 135 153 177 135 153 177 136 154 177 135 153 177 135 153 176 135 153 177 135 153 177 135 153 177 135 153 177 135 153 177 136 154 177 135 153 176 135 153 176 135 152 175 135 153 176 135 153 176 134 152 175 135 153 176 134 152 175 134 152 175 134 151 174 135 152 176 134 152 175 135 152 175 135 153 176 134 152 175 134 152 175 134 152 175 133 151 173 134 152 174 133 151 173 134 151 174 134 151 174 134 151 173 134 151 173 133 150 172 133 150 173 133 150 173 133 150 173 133 150 172 133 150 173 133 150 172 133 151 173 133 150 172 133 150 172 132 148 170 132 149 171 132 149 171 132 148 170 132 149 171 131 148 169 132 149 171 132 148 170 131 148 170 129 145 165 112 118 127 101 103 105 101 103 106 100 101 103 99 100 102 99 100 102 99 100 102 100 101 103 99 100 102 99 100 101 101 102 104 100 102 104 101 102 104 99 101 103 100 102 104 101 102 104 101 103 105 101 103 105 103 105 107 102 103 106 102 103 106 102 103 105 100 101 104 102 104 106 101 102 105 100 102 105 102 104 106 102 103 106 101 103 106 102 104 106 101 103 105 101 102 105 101 103 106 101 103 105 102 104 106 101 103 105 101 103 106 101 103 106 101 102 104 102 103 106 101 103 105 102 103 106 102 104 106 102 104 107 102 104 107 101 103 105 101 102 105 102 104 106 101 103 105 101 103 105 101 103 106 103 105 107 100 102 105 101 102 104 100 102 104 103 105 108 102 104 107 104 107 111 123 135 152 132 149 172 132 150 172 133 150 172 133 150 172 134 151 174 132 149 172 133 150 172 133 150 173 134 151 174 135 152 175 134 151 174 134 151 174 135 152 175 134 151 174 134 151 174 134 151 174 134 152 175 134 151 174 135 152 175 134 152 175 135 153 176 134 152 175 134 152 176 134 152 175 135 153 176 134 152 175 135 153 176 135 153 176 135 152 175 134 152 176 135 153 177 135 153 177 135 153 176 136 153 177 135 153 177 135 153 177 136 154 177 135 153 177 136 154 178 136 154 177 135 153 177 136 154 178 135 153 177 135 153 177 136 154 177 136 154 178 135 154 177 136 154 178 135 154 177 136 154 178 136 154 178 136 154 178 136 154 178 136 154 178 136 154 178 136 154 178 136 154 178 136 155 179 136 154 178 
137 156 180 137 155 179 137 155 179 137 155 180 137 155 180 137 156 180 137 155 179 137 156 180 137 156 180 137 155 179 137 155 179 136 155 179 137 155 179 137 155 180 137 155 179 136 155 179 137 156 180 137 155 179 137 155 179 136 155 179 136 155 179 137 156 180 137 155 179 137 155 179 137 155 179 136 155 179 137 155 179 137 155 179 136 155 179 136 154 179 137 155 179 137 155 179 136 155 179 137 155 178 137 155 179 137 155 179 136 155 179 137 155 179 137 155 179 137 155 179 136 155 179 136 155 179 136 155 179 137 155 179 136 155 179 137 155 179 136 154 178 136 154 178 136 155 179 136 154 178 136 154 178 136 154 178 136 154 178 136 154 178 136 154 178 136 154 178 136 155 179 136 154 178 136 154 179 136 154 178 136 154 178 136 155 179 136 154 178 136 154 178 136 154 178 136 155 179 135 154 177 135 153 177 136 154 178 136 154 178 136 154 177 136 154 178 136 154 178 136 154 177 135 153 177 136 154 177 135 153 177 135 154 178 136 154 177 135 153 177 135 153 176 136 154 177 135 153 177 135 153 176 135 153 177 135 153 177 135 152 176 135 153 177 135 153 176 135 153 176 135 152 176 134 152 176 134 152 175 135 153 176 135 153 176 135 152 175 134 152 175 135 153 176 134 152 175 135 152 175 134 152 175 134 152 175 134 152 176 134 152 175 133 151 174 134 152 175 134 151 174 134 151 174 133 151 173 134 151 174 135 152 175 133 151 173 133 150 172 134 151 174 133 150 173 133 151 173 132 149 171 133 151 173 133 150 172 133 150 172 132 149 171 132 149 171 133 150 172 131 148 170 132 148 170 131 147 169 131 147 168 132 148 170 131 147 169 130 147 169 132 148 170 132 148 170 131 147 168 131 147 168 131 147 168 131 147 168 131 147 168 130 145 166 113 120 130 100 102 104 98 99 100 98 99 100 97 98 100 99 100 102 98 98 100 99 100 101 99 100 102 99 100 101 98 99 100 97 98 100 99 100 101 98 99 100 99 100 102 99 101 103 99 100 102 98 100 101 100 101 103 98 99 101 98 100 102 101 102 104 101 103 105 100 101 103 99 100 102 100 101 103 100 101 103 100 101 103 100 101 103 101 102 104 100 101 103 100 102 104 100 101 103 99 100 102 100 101 103 101 102 104 101 102 104 101 103 105 101 102 104 99 100 102 100 102 104 99 100 101 98 100 101 100 101 103 101 102 104 100 102 104 99 100 103 100 101 103 100 101 104 100 102 104 99 101 103 101 102 104 100 102 105 100 102 104 99 101 103 104 108 112 125 138 156 132 148 169 132 149 171 131 147 169 132 149 171 132 148 170 133 149 171 132 149 171 134 151 173 133 150 172 133 150 173 133 151 174 134 151 174 134 151 174 133 151 174 133 150 173 132 149 172 134 151 174 134 151 174 135 152 175 134 151 174 133 151 174 135 152 175 133 151 174 134 152 175 135 153 176 134 152 175 135 152 176 135 153 176 135 153 176 134 152 175 134 152 175 135 153 176 135 153 176 135 152 176 135 153 177 135 153 176 135 153 176 135 153 177 135 154 177 135 153 176 135 153 176 135 154 177 135 153 177 136 154 178 136 154 177 136 154 177 136 154 178 135 153 177 135 153 177 136 154 178 136 154 178 136 154 178 136 154 178 136 154 178 136 154 178 136 154 178 135 153 177 136 154 178 136 154 178 136 155 178 
137 155 179 137 156 180 137 155 180 137 156 180 137 155 179 137 155 179 137 155 180 137 155 180 137 156 180 137 155 179 137 155 179 137 155 179 137 156 180 137 155 179 137 156 180 137 156 180 137 155 179 137 155 179 137 156 180 137 155 180 137 155 179 137 155 179 137 155 179 137 155 179 137 155 179 137 155 179 137 155 179 137 155 179 137 155 180 137 155 179 137 155 179 137 155 179 137 155 179 136 155 179 137 155 179 136 155 179 136 155 179 136 155 179 137 155 179 137 155 179 137 155 179 136 155 178 136 154 178 137 155 179 136 154 179 136 154 178 137 155 179 137 155 179 136 155 178 136 154 178 136 155 179 136 154 178 136 155 179 137 155 179 136 154 178 137 155 178 136 154 178 136 154 178 136 155 178 137 155 179 136 154 179 136 154 178 136 154 177 136 154 178 135 154 178 136 154 178 136 154 177 136 154 178 136 154 178 136 154 177 136 154 178 136 154 178 135 153 176 135 153 176 136 154 177 136 154 178 136 154 178 135 153 177 135 153 177 135 153 177 136 154 178 135 153 177 135 152 176 134 152 176 134 152 176 135 152 176 135 153 176 135 153 176 135 153 176 134 152 176 135 152 175 135 153 176 135 153 176 135 152 176 134 152 175 134 151 175 134 151 174 134 152 175 134 152 175 134 152 175 134 151 174 135 152 175 133 150 173 134 151 174 133 151 173 134 151 173 133 150 173 134 151 173 133 151 173 133 150 173 133 150 172 134 151 173 133 150 172 133 150 172 132 148 170 132 149 171 132 148 170 133 150 172 132 148 170 132 149 170 133 150 172 132 148 170 132 148 170 131 147 169 131 148 169 131 148 169 130 147 168 131 147 168 130 146 167 130 146 167 130 146 166 130 146 167 130 146 166 129 144 164 130 145 166 129 144 164 129 144 165 129 144 165 128 144 164 117 126 139 98 99 101 98 99 100 96 97 98 96 97 98 96 96 97 97 97 98 96 97 99 96 96 98 98 99 101 97 97 98 98 99 100 97 98 99 97 98 99 96 97 99 98 98 99 98 99 100 97 98 99 98 99 101 97 98 99 99 100 102 99 100 101 99 100 102 98 99 100 99 100 101 100 101 102 98 99 100 97 98 99 97 98 100 99 100 101 97 98 100 99 100 101 99 99 101 97 98 100 99 100 102 99 100 102 98 99 101 99 100 101 99 100 101 99 99 101 98 99 101 98 99 101 98 99 101 98 99 100 98 98 100 100 101 103 99 100 101 98 98 100 98 99 100 96 98 99 99 100 102 99 100 102 100 102 104 108 113 119 126 140 159 129 145 166 131 147 169 131 147 168 131 147 169 132 148 170 132 148 170 131 147 169 131 148 170 133 149 171 132 149 171 133 149 172 132 149 171 133 150 172 132 149 171 133 150 172 132 149 171 133 150 172 133 150 172 134 151 173 133 150 173 134 151 173 134 151 173 134 151 174 134 151 173 134 151 174 135 152 175 134 151 174 134 152 175 133 151 173 135 152 175 134 152 174 135 153 176 135 152 175 135 152 175 135 153 177 134 152 176 136 153 177 136 153 176 135 153 176 135 153 176 135 153 176 135 153 177 135 154 177 135 153 177 136 154 177 135 153 176 135 153 177 135 154 177 135 153 177 135 153 177 136 154 177 135 153 177 136 154 178 136 154 178 136 154 177 135 153 177 135 153 177 135 154 178 136 154 177 136 154 177 137 155 179 
138 156 180 137 155 179 137 155 179 137 156 180 137 155 179 137 156 180 137 156 180 137 156 180 137 155 179 137 155 179 137 156 180 136 155 179 137 155 180 137 155 179 137 155 179 137 155 179 137 156 180 137 156 180 137 155 180 137 155 179 137 156 179 137 155 179 137 155 179 137 155 179 136 155 179 136 155 179 136 155 179 137 155 179 137 155 179 137 155 179 136 155 179 137 155 179 136 155 179 136 155 179 136 155 179 136 155 179 136 155 179 137 155 179 136 154 179 136 155 179 137 155 179 136 155 179 136 155 179 137 155 179 137 155 179 136 155 179 136 154 178 136 155 178 136 154 178 137 155 179 136 154 179 136 155 178 136 154 178 137 155 179 136 154 178 136 154 178 136 154 178 136 154 178 136 154 178 136 154 178 136 154 178 136 154 178 136 154 178 136 154 178 136 154 178 137 155 178 136 154 178 135 153 177 135 154 177 136 154 178 136 153 177 136 154 177 136 154 178 135 153 177 136 153 177 135 153 176 135 152 176 135 153 177 135 153 176 135 153 177 135 153 176 135 153 176 135 153 176 135 153 176 136 153 177 135 153 176 134 152 176 135 153 176 136 153 176 134 152 175 134 152 175 134 152 175 134 152 175 135 152 175 134 152 175 134 152 174 134 151 174 135 152 175 134 151 174 134 151 174 134 151 174 134 152 175 134 151 174 133 151 173 133 150 173 134 151 174 133 150 173 133 150 173 133 150 172 133 150 172 132 149 172 132 149 171 133 149 172 132 148 170 132 148 170 132 149 171 132 148 170 131 147 169 132 148 170 131 147 169 131 147 169 130 146 167 131 148 169 131 147 169 129 145 166 130 146 166 131 147 168 130 146 167 129 145 165 130 145 166 129 145 165 129 144 165 129 144 165 128 144 164 127 142 162 128 142 162 127 142 162 127 141 160 126 141 160 128 142 161 119 130 145 100 102 106 95 96 97 93 93 94 91 91 91 95 95 96 93 94 94 93 93 93 94 94 95 95 96 97 95 95 96 96 96 97 94 94 95 96 97 98 94 94 95 96 96 97 97 98 99 95 96 97 96 97 98 94 95 95 97 97 98 97 97 98 97 98 100 98 98 99 97 98 99 95 95 96 96 97 98 96 97 98 97 98 99 96 97 97 96 96 97 97 98 99 98 99 100 96 97 98 98 99 100 96 97 98 96 97 98 97 98 99 97 97 98 96 97 99 97 98 100 97 97 98 96 96 97 96 97 98 96 97 98 96 96 97 96 96 97 97 98 99 96 97 98 97 97 99 96 97 99 112 120 131 128 142 162 129 144 164 130 145 165 130 145 166 130 146 168 129 144 164 130 145 166 131 147 168 132 148 169 130 147 168 131 147 168 131 148 169 131 147 169 131 148 170 132 149 171 132 149 171 132 149 171 132 149 171 132 149 171 132 149 172 131 148 170 133 150 172 133 150 172 133 150 173 133 150 173 133 150 173 133 151 174 133 150 173 134 151 174 134 151 174 134 151 173 134 151 174 133 151 174 133 151 174 134 152 175 134 151 174 134 151 174 135 152 176 134 151 175 134 152 175 134 152 175 135 153 176 135 153 176 134 151 174 135 153 176 135 153 176 135 153 176 135 153 176 135 153 176 135 153 176 135 153 176 136 154 177 135 153 177 135 153 177 135 153 177 136 154 177 136 154 178 135 153 176 136 154 178 135 153 177 136 154 178 136 154 177 136 154 178 
137 155 179 137 156 179 137 155 180 137 155 179 137 155 180 137 156 180 137 155 179 137 155 179 137 155 179 137 155 180 137 155 179 137 155 179 137 155 179 136 155 179 137 155 179 137 155 180 137 155 179 137 155 180 136 155 179 137 155 180 137 155 180 137 155 179 136 155 179 137 155 179 137 155 179 137 155 179 137 155 179 137 155 179 136 155 179 137 155 180 137 155 179 137 155 179 137 155 179 137 155 179 137 155 179 137 155 179 136 154 179 136 155 179 136 155 179 136 155 179 137 155 179 137 155 179 136 155 179 136 154 178 137 155 179 136 155 179 136 154 178 136 155 178 136 154 178 136 154 178 137 155 178 136 155 179 136 154 178 136 155 179 136 154 178 136 155 179 137 155 178 136 154 178 135 154 178 136 154 178 136 153 177 136 154 177 135 153 177 136 154 177 136 154 178 136 154 178 136 154 178 136 154 178 136 154 177 136 154 178 135 154 177 136 154 177 135 153 176 135 153 177 135 153 177 135 153 177 135 153 177 135 153 176 135 152 176 135 153 176 135 153 176 135 153 177 135 153 176 135 153 177 135 153 176 135 153 176 135 152 176 134 152 175 134 152 175 134 152 175 134 152 175 134 152 175 134 152 175 134 152 175 134 152 174 133 150 173 134 151 174 133 150 173 134 151 174 133 150 173 134 152 174 133 150 173 133 150 172 132 149 172 133 150 172 133 151 173 133 150 172 132 149 171 132 149 171 132 149 171 131 148 170 131 148 170 132 148 170 132 148 170 131 148 169 131 147 169 131 147 169 130 146 168 130 146 167 131 147 168 131 146 167 129 144 165 131 147 169 130 146 167 129 144 164 129 145 165 129 145 165 128 143 163 128 143 163 128 143 163 127 142 162 127 141 160 127 142 161 125 139 158 126 139 157 126 140 159 126 140 158 125 139 157 125 138 156 124 137 156 125 138 155 123 136 154 104 109 116 91 91 92 91 91 92 91 91 91 90 89 89 91 90 91 93 92 93 91 91 91 92 92 93 94 93 94 94 94 94 93 93 94 94 94 94 94 94 95 93 93 94 94 94 95 95 95 95 94 94 95 95 96 97 94 94 94 94 95 95 95 95 96 95 95 96 94 94 95 95 95 96 96 96 97 94 94 95 96 97 98 94 94 95 96 96 97 95 95 96 94 94 95 94 94 95 94 94 95 94 95 95 95 95 96 94 94 95 93 93 94 93 94 94 95 95 96 94 94 95 94 94 95 96 96 96 93 93 93 93 93 94 95 95 96 96 96 97 100 103 108 119 130 145 127 141 160 127 142 161 127 142 161 129 144 164 128 143 163 128 143 163 128 143 163 130 145 165 129 144 164 128 144 164 131 146 167 130 146 167 130 146 167 130 146 168 131 147 168 130 146 168 132 148 170 131 147 168 131 148 169 133 149 171 132 149 171 133 149 171 133 149 171 132 149 171 132 149 171 133 150 172 133 150 172 133 150 172 132 149 171 132 149 171 133 151 173 133 150 173 133 151 174 132 149 172 134 151 174 135 152 175 134 151 174 134 152 175 134 152 175 134 152 175 134 151 174 135 152 175 134 151 174 135 153 176 134 152 176 135 152 175 135 153 176 135 153 176 135 153 176 135 153 177 135 153 176 135 153 176 135 153 176 136 154 177 135 153 176 135 153 176 135 153 177 135 153 176 136 154 177 136 154 178 136 154 178 136 154 178 135 153 177 135 154 178 
137 155 180 137 155 179 137 155 179 136 155 180 137 155 179 137 155 180 137 155 180 137 155 180 137 155 179 137 155 179 137 155 180 137 155 179 137 155 179 137 155 179 137 155 179 137 155 179 137 155 179 137 155 179 137 155 180 137 155 179 137 155 179 137 155 179 137 155 179 137 155 179 137 155 179 137 155 179 137 155 179 136 155 179 137 155 179 136 155 179 137 155 179 136 155 179 136 155 179 137 155 179 136 154 178 136 154 179 136 154 179 136 154 179 136 155 179 136 155 179 136 154 178 136 155 178 137 155 179 136 154 178 136 154 178 137 155 179 136 154 178 136 154 178 136 154 178 136 155 178 136 155 179 136 154 179 136 154 178 137 155 179 136 154 178 136 154 178 137 155 179 136 154 178 136 154 178 136 154 178 136 154 178 135 153 177 136 154 177 136 154 177 136 153 177 136 154 178 136 154 177 136 153 177 135 153 177 136 153 177 135 153 177 135 153 177 136 154 177 136 154 177 135 153 176 135 153 177 135 153 177 135 153 177 135 153 176 135 153 176 135 152 175 135 153 176 135 153 176 134 152 175 134 152 175 135 152 176 135 152 175 134 152 175 135 153 176 134 152 175 134 151 174 134 151 174 134 152 175 134 152 175 133 150 173 133 151 174 133 150 173 134 151 174 134 151 173 133 150 172 133 150 173 132 149 172 132 149 171 132 149 171 133 149 172 133 149 171 131 148 169 132 148 170 131 147 169 132 148 169 132 149 171 131 147 168 131 147 169 131 148 169 131 147 168 131 147 168 132 147 168 130 146 167 129 144 165 129 145 166 129 144 164 128 144 164 130 145 166 128 144 164 128 143 163 128 142 162 129 144 164 128 142 162 127 141 161 126 141 160 125 140 158 125 139 158 124 137 156 124 137 155 126 140 158 123 136 153 124 138 156 123 135 152 121 134 151 122 134 151 122 134 151 120 132 148 120 131 147 111 119 132 93 95 99 89 88 87 88 87 86 89 88 88 89 88 88 89 88 88 90 89 89 91 91 91 88 88 88 89 89 89 91 91 91 92 91 92 91 90 90 91 91 91 91 91 91 90 89 89 91 91 91 91 91 91 93 93 93 93 93 93 94 94 94 92 91 91 92 91 92 91 91 91 94 93 94 93 93 93 91 91 92 92 92 92 93 92 93 93 93 94 92 92 92 90 90 90 91 91 91 92 91 92 92 92 92 93 93 93 92 92 92 91 91 92 92 92 92 92 92 92 92 92 92 91 91 91 92 92 92 93 93 94 109 115 125 123 135 152 125 139 157 125 139 157 124 138 156 126 140 159 126 141 160 127 141 160 126 140 159 128 143 162 126 140 160 129 144 164 129 144 164 128 143 163 129 144 164 128 143 163 128 144 164 129 145 165 131 147 168 131 147 169 130 146 168 131 147 168 131 147 168 131 147 169 131 147 169 131 147 169 131 147 169 132 148 169 131 147 169 132 149 171 132 149 171 132 149 171 133 150 172 133 150 172 133 150 172 133 150 172 133 150 172 134 151 174 134 151 173 134 151 173 134 151 174 133 150 173 134 152 175 133 151 174 134 152 175 134 152 175 134 152 175 135 152 175 134 151 174 135 152 175 135 153 176 134 152 175 134 152 175 135 153 176 135 153 176 135 153 176 135 153 176 135 153 176 135 153 176 136 153 176 135 153 177 136 153 177 135 153 176 135 153 177 136 154 177 136 154 178 136 154 177 
137 155 179 137 155 179 137 156 180 137 155 179 137 155 179 137 156 180 137 155 179 136 155 179 137 155 180 137 155 179 137 155 179 136 155 179 137 155 179 137 156 180 137 155 179 137 156 180 137 155 179 137 156 180 136 155 179 137 155 179 137 155 180 137 155 179 137 155 179 137 155 179 137 155 179 137 155 179 137 155 179 137 155 179 136 155 179 137 155 179 137 155 179 136 155 179 136 154 178 137 155 179 136 155 179 136 155 179 136 155 179 136 155 179 136 154 178 136 154 178 136 155 179 137 155 179 136 155 179 136 154 178 136 154 178 137 155 179 137 155 179 136 154 178 136 155 178 136 154 178 136 155 178 136 155 178 136 154 178 136 154 178 136 154 178 136 154 178 135 154 177 137 155 178 136 154 178 136 154 177 135 154 178 136 154 178 136 154 178 136 154 177 135 153 177 136 153 177 135 153 177 135 153 177 135 154 178 135 153 177 136 154 177 135 153 177 135 153 177 136 153 177 135 153 176 135 153 177 136 153 177 135 153 176 135 153 176 135 153 177 135 153 176 134 152 176 134 152 175 134 152 176 135 153 176 135 152 175 135 152 175 135 152 175 135 152 175 134 151 175 134 151 173 134 152 175 135 152 175 133 150 173 133 150 173 134 151 174 134 151 174 133 150 172 133 150 173 133 150 173 133 150 172 132 148 170 131 148 170 132 149 171 133 149 172 132 149 171 133 150 172 131 148 169 132 148 170 131 148 170 131 148 169 130 146 168 131 147 168 131 147 169 130 146 167 130 145 166 129 145 165 131 147 168 129 145 165 130 146 166 128 143 163 128 142 162 129 144 163 127 142 161 127 141 160 127 141 160 126 140 159 125 139 158 123 137 155 125 138 156 126 139 157 124 137 155 123 137 155 123 136 153 122 135 152 121 133 149 122 134 151 121 133 149 121 133 149 118 130 145 119 131 146 118 129 144 117 129 144 117 128 143 116 126 139 103 109 117 88 87 88 83 82 81 85 84 84 86 85 84 86 85 84 86 84 84 86 85 85 87 86 86 88 87 87 88 87 87 90 89 89 88 87 87 87 86 85 88 87 87 90 89 89 89 89 89 90 89 90 88 87 87 89 88 88 89 88 88 89 88 88 90 89 89 90 89 90 89 89 89 88 87 87 88 87 87 88 88 87 91 90 90 88 87 87 91 90 90 88 87 87 89 88 88 90 89 89 88 87 87 88 87 86 87 86 86 87 87 86 87 86 85 87 87 87 90 89 89 101 105 112 116 126 139 119 131 146 120 133 149 123 135 152 122 135 152 124 137 154 124 137 155 123 136 153 124 137 155 124 137 155 125 139 157 125 139 158 126 140 159 127 141 160 128 143 162 128 143 162 127 142 161 128 143 163 128 143 162 129 145 165 129 144 165 129 145 165 129 145 166 130 146 167 130 146 168 130 147 168 131 147 168 131 148 169 131 148 170 131 147 168 131 148 170 132 148 170 132 149 171 131 148 169 133 150 172 132 149 172 133 150 173 133 150 172 133 150 173 133 150 173 133 150 173 133 150 173 134 151 174 134 151 173 134 151 174 134 151 174 134 152 175 134 152 175 134 152 175 134 152 175 135 152 175 134 152 175 134 152 175 134 152 175 135 153 176 134 152 175 135 152 176 135 152 175 135 153 176 135 153 176 134 152 175 135 152 176 135 153 177 135 153 176 135 153 176 136 154 177 136 154 177 135 154 177 
137 155 179 137 155 179 137 155 179 137 155 179 137 155 179 137 155 179 137 155 179 137 156 180 137 155 179 136 155 179 137 155 179 136 155 179 137 155 179 137 155 179 136 155 178 137 155 179 137 156 180 136 155 179 136 155 179 137 155 180 136 155 178 137 155 179 136 155 179 137 155 180 137 155 179 137 155 179 136 155 179 137 155 179 137 155 179 137 155 179 137 155 179 137 155 179 136 155 179 136 154 178 137 155 179 136 155 179 137 155 179 136 155 179 137 155 179 136 155 178 136 155 179 136 155 179 136 154 178 136 155 178 137 155 178 136 155 178 136 154 178 136 155 179 137 155 179 136 154 178 135 154 178 136 154 178 136 154 178 136 154 178 136 154 178 136 154 178 135 154 178 136 154 177 136 154 177 136 154 178 135 153 177 136 154 178 135 153 177 136 154 178 136 154 177 136 154 177 136 153 177 135 153 177 135 153 177 135 153 177 135 153 177 135 153 176 135 152 176 135 153 176 136 153 177 135 152 176 135 153 176 135 152 175 135 153 176 134 152 176 135 153 176 135 153 176 135 152 176 134 151 174 134 152 175 134 152 175 134 152 175 134 151 174 134 152 175 134 151 173 133 151 173 133 150 173 134 151 174 134 151 173 133 151 173 134 151 173 132 149 171 133 150 172 132 149 171 133 150 172 132 149 171 132 149 171 133 149 171 132 149 171 132 149 171 132 148 169 132 149 170 131 148 169 131 147 168 131 147 169 132 148 170 130 146 167 130 146 166 131 147 168 130 145 166 129 144 164 129 144 165 129 144 164 129 144 164 128 143 163 127 142 161 128 143 163 127 141 161 127 141 161 126 140 158 126 140 159 124 138 156 125 138 156 124 137 155 124 137 154 123 136 153 124 136 154 122 134 150 121 134 150 121 134 150 120 132 148 119 130 145 118 129 143 117 128 144 115 125 139 115 125 139 113 123 137 112 122 135 111 121 133 111 120 133 111 120 132 106 113 124 95 99 105 84 83 83 81 79 78 82 81 80 81 80 79 82 80 79 83 82 81 82 81 80 83 82 81 83 82 81 83 81 80 83 81 80 85 83 83 84 83 83 84 83 82 84 82 82 86 85 84 85 84 83 84 83 82 85 83 82 86 85 85 87 86 86 85 84 84 84 83 82 86 84 84 86 85 85 87 86 85 86 85 84 86 84 84 86 85 85 86 85 85 85 84 83 85 84 84 83 82 81 84 82 81 86 85 84 86 85 85 94 97 101 110 118 130 116 127 141 115 126 140 116 127 141 116 127 141 118 129 144 120 132 148 120 132 148 121 133 149 122 134 150 122 135 151 124 137 154 123 137 154 124 137 154 124 137 155 125 139 157 126 140 159 126 140 159 127 141 160 127 142 161 127 142 161 127 142 162 126 140 159 129 144 165 129 144 164 129 144 165 130 145 165 129 144 165 130 145 166 131 147 168 129 145 165 131 147 168 131 147 168 131 147 168 132 148 170 132 148 170 132 149 171 132 148 170 133 149 171 132 148 170 133 150 172 133 150 173 132 149 171 133 150 173 133 150 172 132 149 172 133 150 173 133 150 173 133 150 173 134 151 173 134 151 173 134 152 175 134 151 174 134 151 174 134 152 175 135 152 175 134 152 175 135 152 175 135 152 175 134 152 175 135 153 177 135 153 176 136 153 177 135 153 177 135 152 176 135 152 176 135 153 176 135 153 176 135 153 176 135 153 176 
137 156 180 137 155 179 137 155 179 137 155 179 137 155 179 137 155 179 137 155 179 136 155 179 137 155 179 137 155 179 137 155 179 137 155 179 137 155 179 137 155 179 137 155 179 136 155 179 137 155 179 137 155 180 137 155 179 137 155 179 137 155 179 137 155 179 137 155 179 136 155 179 136 155 179 136 155 179 136 155 178 137 155 179 136 155 179 136 155 179 137 155 179 136 155 179 136 155 179 137 155 179 137 155 179 136 154 178 137 154 178 136 155 179 137 155 179 136 155 179 136 154 178 136 155 179 136 155 178 136 155 178 136 154 178 136 154 178 136 154 178 136 154 178 136 155 179 136 154 178 136 154 178 136 153 177 136 154 178 136 155 178 136 154 178 136 154 178 136 154 178 136 154 178 136 154 177 136 154 178 136 154 177 136 154 178 136 154 177 136 154 178 136 154 177 136 154 177 136 155 178 136 154 177 135 153 176 135 153 177 136 154 177 135 153 176 135 153 177 135 153 177 135 152 176 135 153 176 135 153 177 135 153 176 134 152 175 136 154 177 135 152 176 134 152 175 135 153 176 134 151 174 134 152 175 134 151 174 134 151 174 134 152 175 134 152 175 134 151 174 133 151 173 134 151 174 133 150 173 134 151 174 133 151 173 133 150 173 132 149 171 132 149 171 133 150 172 132 149 171 133 150 172 133 149 171 132 149 170 132 149 171 132 148 170 132 148 170 131 147 168 131 147 169 131 147 168 130 146 168 130 147 168 131 147 168 130 146 167 129 144 164 128 143 164 129 145 165 128 143 163 128 143 163 128 143 162 128 143 163 127 142 161 127 141 159 127 141 161 125 139 158 126 139 158 124 138 156 125 138 156 124 137 154 122 135 152 124 136 154 121 134 150 122 135 151 121 133 149 120 132 148 118 129 144 118 130 145 117 128 142 117 127 142 113 122 135 113 123 136 113 123 136 112 122 134 111 120 132 110 118 130 106 114 125 107 115 126 103 110 120 102 109 119 98 104 113 90 93 98 78 77 78 75 73 71 77 75 73 79 77 75 77 75 73 79 77 76 77 75 74 78 76 74 81 80 79 80 78 77 82 80 79 80 79 77 79 78 77 82 81 80 80 78 77 81 80 79 82 80 79 82 80 80 82 81 80 81 79 78 81 80 79 80 79 78 81 79 78 81 79 78 80 78 77 79 78 77 80 78 77 82 80 79 78 76 75 79 78 77 80 78 77 82 81 81 93 96 101 104 110 120 107 115 127 110 118 130 111 120 132 113 122 135 113 123 136 116 126 140 115 126 140 116 126 141 119 130 146 118 129 143 121 133 149 121 133 149 121 134 150 122 134 151 123 136 153 124 136 153 124 137 154 123 136 153 124 137 154 126 140 158 127 141 160 127 141 160 127 141 160 127 141 160 127 141 161 128 143 163 129 144 164 128 143 163 129 145 166 130 146 167 131 146 166 130 146 166 130 146 167 130 146 167 130 146 168 131 147 168 132 148 169 131 147 169 132 148 169 132 149 171 131 147 169 132 149 171 131 148 170 133 150 172 132 149 171 133 149 171 134 151 173 132 149 171 132 150 172 133 151 173 134 151 173 134 151 174 133 151 174 134 152 175 134 151 175 134 151 174 134 152 175 134 152 174 135 152 175 134 152 175 134 152 175 134 152 175 135 152 175 134 152 175 135 153 176 135 152 175 135 153 176 135 153 176 135 153 176 135 153 176 134 152 175 
137 155 179 137 156 180 137 156 180 137 155 179 137 155 179 137 155 179 137 155 179 137 155 179 137 155 179 137 155 179 137 155 179 137 155 179 137 155 179 137 155 180 137 155 179 137 155 179 137 155 179 137 155 179 137 155 179 137 155 179 137 155 179 137 155 179 137 155 179 137 155 179 136 155 179 137 155 179 136 155 179 137 155 179 136 154 178 136 155 179 136 154 178 137 155 179 136 155 179 137 155 179 136 155 179 137 155 179 136 154 178 136 154 178 137 155 179 136 155 179 136 154 178 136 155 178 136 154 178 137 155 178 136 154 178 136 154 178 136 155 178 136 154 178 136 154 178 136 155 178 136 155 178 136 154 178 136 154 178 136 154 178 136 154 178 136 154 178 136 154 178 136 154 178 136 154 178 136 154 177 135 153 177 136 154 177 135 153 177 136 154 178 136 154 178 135 153 177 135 153 177 136 153 177 135 153 177 136 153 177 135 153 176 134 152 175 135 153 176 136 153 177 135 153 176 136 153 177 135 153 176 135 152 176 135 153 176 134 152 176 134 152 175 134 152 175 135 152 175 134 152 175 134 152 175 134 151 174 134 151 174 134 151 174 134 152 175 134 151 173 134 151 174 133 150 173 134 151 173 133 150 173 134 151 174 132 149 171 133 149 172 132 149 171 132 149 171 133 149 171 133 149 172 132 148 170 132 148 169 132 149 171 131 148 170 131 147 169 131 147 168 130 146 168 131 147 168 131 147 168 130 146 167 130 146 166 130 146 166 129 145 165 129 145 165 129 144 164 129 144 164 128 143 163 127 141 160 127 142 161 127 141 160 126 140 159 126 141 160 126 139 157 124 137 155 123 136 154 124 137 155 123 136 153 124 137 154 120 132 149 120 132 148 119 130 145 118 130 145 120 132 147 117 128 143 116 127 141 115 125 139 115 125 138 113 123 136 113 122 135 109 118 129 109 117 129 106 113 124 105 112 123 104 111 121 101 107 116 100 107 116 97 102 111 96 101 109 91 96 103 91 95 102 83 86 91 76 77 79 69 68 67 67 65 62 70 67 65 71 69 67 71 69 67 75 72 70 74 71 70 73 71 69 75 73 71 75 73 71 76 74 72 76 74 72 76 74 73 76 74 72 76 74 72 75 73 71 74 72 70 74 72 70 76 74 72 76 74 72 74 72 70 73 71 69 73 71 69 72 70 68 71 69 67 74 73 72 80 81 83 88 91 96 95 100 108 100 107 116 100 107 116 105 113 123 108 116 126 106 114 125 109 118 130 110 119 131 112 121 133 114 123 136 116 125 139 115 125 139 116 126 140 117 128 143 119 130 145 121 132 148 119 130 146 121 133 150 121 134 151 123 136 153 123 136 153 124 137 154 124 137 154 125 138 156 126 140 158 127 141 160 126 140 159 127 142 161 128 143 162 127 142 162 128 143 162 129 144 163 129 144 164 129 145 165 130 145 165 130 146 166 130 145 166 131 147 168 130 146 166 130 146 167 132 148 169 131 147 168 131 148 169 132 148 170 131 148 169 133 149 171 133 150 172 133 149 171 133 149 171 133 150 172 133 149 171 133 150 172 133 150 172 133 151 173 134 151 174 134 151 174 133 151 173 134 151 174 135 152 175 134 151 174 134 152 175 133 151 174 134 152 175 134 151 174 134 152 175 134 151 174 135 153 176 134 151 174 135 153 177 135 153 176 135 153 176 136 153 177 135 153 176 135 153 176 
137 155 179 137 156 180 137 155 180 137 155 179 137 156 180 137 155 179 136 155 179 137 155 179 137 156 180 136 155 179 137 155 179 137 155 180 137 155 179 137 155 179 137 155 179 137 155 179 136 155 179 137 155 179 137 155 179 137 155 179 137 155 179 137 155 179 136 155 179 137 155 179 137 155 180 136 155 179 137 155 179 137 155 179 137 155 179 137 155 179 137 155 179 136 154 178 136 154 178 137 155 179 137 155 179 136 155 178 137 155 179 136 154 179 136 155 178 136 154 178 136 155 179 136 154 178 136 154 178 137 155 179 136 154 179 136 154 178 136 154 178 135 154 177 136 155 179 136 154 178 136 154 178 136 154 177 136 154 178 136 154 178 136 154 178 136 154 178 136 154 177 136 154 178 136 154 178 135 153 177 136 154 177 136 154 177 136 154 177 136 154 177 135 153 177 136 154 178 136 154 177 135 153 177 135 153 177 136 154 177 135 153 177 135 153 177 135 153 176 135 153 177 135 152 176 134 152 175 134 152 175 134 152 175 134 151 175 134 152 175 135 152 175 135 152 175 134 152 174 135 152 175 134 152 175 134 152 175 134 151 174 134 151 174 134 151 174 133 150 173 133 150 173 133 151 174 132 150 172 134 151 173 133 150 172 133 150 172 132 149 172 132 149 171 133 150 173 133 150 172 132 149 171 132 149 171 132 149 171 132 148 170 132 148 170 130 147 168 131 147 169 130 147 168 130 146 167 130 146 167 129 144 164 130 146 166 129 144 164 128 143 164 129 144 164 128 144 164 129 144 164 128 143 163 128 142 162 127 141 160 127 141 161 125 139 158 124 138 157 125 139 158 124 138 156 123 136 153 124 137 154 122 135 151 122 134 151 122 134 150 120 132 148 120 132 147 119 130 145 118 129 144 117 127 142 115 125 138 115 124 138 114 124 137 112 121 134 109 117 129 110 119 130 108 116 127 105 113 123 104 111 121 105 112 123 100 107 116 96 102 110 96 101 109 91 96 103 91 95 102 83 86 92 84 88 93 80 84 89 75 77 81 72 74 77 65 65 67 60 59 59 60 58 57 62 59 57 64 61 59 64 61 59 64 62 60 64 62 60 67 64 62 67 65 62 67 64 62 66 64 62 66 63 61 65 63 61 65 62 60 66 63 61 66 64 62 64 61 59 63 60 58 63 61 59 64 63 63 71 72 74 74 76 79 84 88 93 87 91 97 90 95 102 93 98 105 95 100 108 98 103 111 98 104 112 105 112 122 102 109 120 107 114 125 107 115 126 110 119 131 110 119 131 112 121 133 110 119 131 114 124 137 115 125 139 118 128 143 118 129 144 118 129 144 119 131 146 119 131 146 122 135 152 123 136 153 123 136 153 124 137 154 124 137 155 124 137 155 125 139 157 126 140 159 126 140 159 128 142 161 128 143 162 128 143 162 128 142 162 128 143 163 130 145 165 130 145 165 130 145 166 130 146 166 130 145 166 130 145 166 130 146 167 132 149 170 130 146 168 131 148 169 131 147 169 132 148 169 131 148 169 132 149 171 132 149 171 132 149 171 133 150 172 132 148 170 132 149 171 134 151 173 133 150 172 133 150 172 133 150 173 133 150 173 133 150 173 135 152 174 134 151 174 134 152 174 134 152 174 134 151 174 134 151 175 133 151 174 134 151 174 135 152 175 134 152 175 134 152 175 135 153 176 135 152 175 135 153 176 135 153 177 135 153 176 
137 155 179 137 155 180 137 155 179 137 155 179 137 155 180 137 155 179 137 155 179 137 155 179 136 155 179 137 156 180 137 155 179 137 155 179 136 155 179 137 155 179 137 155 179 137 155 179 137 155 179 137 155 179 137 155 179 137 155 179 137 155 179 137 155 179 137 155 179 137 155 179 136 155 179 137 155 179 137 155 179 137 155 178 137 155 179 136 155 179 137 155 179 137 155 178 136 155 179 137 155 179 136 155 179 137 155 179 136 155 178 136 154 178 136 155 179 137 155 179 136 155 179 136 154 178 136 154 178 136 154 178 136 154 178 136 155 178 136 155 179 136 154 178 136 154 178 136 154 178 136 154 178 136 154 178 136 154 178 136 154 177 135 154 177 136 154 178 135 153 177 136 154 178 135 153 177 135 153 177 136 153 177 135 154 177 135 153 176 136 154 177 135 153 177 136 154 177 135 153 176 135 153 176 136 154 178 135 153 176 136 153 177 135 153 176 135 152 176 135 152 176 135 152 176 135 153 176 135 153 176 135 153 176 135 153 176 135 152 176 134 152 175 135 152 175 134 152 175 134 152 174 135 152 175 134 151 175 134 152 175 134 151 174 134 151 173 134 152 174 133 150 173 134 151 173 133 150 173 133 150 172 133 150 172 133 150 173 132 149 172 133 150 172 133 150 172 132 149 171 132 148 170 132 149 170 131 147 169 132 148 169 131 147 168 131 147 169 131 148 170 129 145 166 131 147 168 130 146 167 130 146 166 129 145 165 129 145 165 130 146 166 129 144 164 128 144 164 128 143 162 127 141 160 127 142 162 126 141 160 127 140 159 125 140 158 125 139 157 126 139 158 124 137 155 124 137 154 124 137 154 122 135 152 121 134 150 121 134 150 120 131 146 120 132 147 119 131 146 117 128 143 117 128 142 115 125 139 116 127 141 113 122 135 111 120 132 111 120 132 109 117 129 108 116 127 104 112 122 105 113 124 101 108 117 100 106 115 96 102 110 95 100 108 93 97 105 91 96 102 87 91 97 84 87 93 82 85 91 75 78 82 71 73 77 69 71 75 66 68 72 60 62 64 53 54 55 49 48 49 47 46 47 50 48 48 48 46 46 47 46 45 48 46 45 49 48 46 47 45 43 48 46 44 49 47 46 49 47 46 47 46 45 52 51 51 54 54 55 60 61 63 61 63 65 66 68 72 73 75 79 76 79 83 82 85 90 85 89 95 88 92 98 94 99 107 93 98 106 95 101 109 96 102 110 102 109 119 103 110 120 103 110 119 108 116 127 107 115 127 111 120 132 112 122 135 114 123 136 115 124 138 116 126 140 115 125 139 119 129 144 118 128 143 120 131 146 119 131 146 120 132 148 122 134 151 121 134 150 122 135 152 123 136 153 124 137 155 125 138 156 125 139 157 126 140 159 126 140 158 127 141 160 126 141 160 128 142 162 127 142 162 128 143 162 129 144 164 128 142 162 128 143 163 129 145 165 130 146 167 130 146 167 130 145 166 131 147 168 131 147 168 132 148 170 131 147 168 132 149 170 132 148 170 132 148 170 132 149 171 132 148 170 133 149 171 132 149 171 133 150 172 133 149 171 132 149 171 133 150 173 133 150 173 133 151 173 133 151 173 134 151 174 133 150 173 133 151 173 134 151 174 134 151 174 134 151 174 134 151 174 135 152 175 135 152 175 134 152 175 135 153 176 135 152 175 134 152 175 135 153 177 135 153 176 
137 155 180 137 155 179 137 155 179 137 155 180 137 155 179 137 156 180 137 155 180 137 156 180 137 155 179 136 155 179 136 155 179 137 155 180 137 155 179 137 155 178 137 155 179 137 155 179 137 155 179 136 154 178 137 155 179 136 155 179 136 155 179 137 156 180 137 155 180 137 155 179 137 155 179 136 154 178 136 154 178 137 155 179 136 155 179 137 155 179 137 155 179 137 155 179 136 155 178 137 155 179 137 155 179 137 155 179 136 155 178 137 155 179 136 154 178 136 154 178 136 154 178 137 155 179 136 154 178 136 154 178 136 154 178 136 154 178 136 155 178 136 154 177 136 154 178 136 154 178 136 155 178 136 155 178 136 154 178 136 154 178 136 154 178 137 155 178 135 153 177 136 154 178 136 154 177 135 153 177 136 154 178 136 154 178 135 153 177 135 153 177 136 154 177 135 153 177 136 154 177 135 154 178 135 153 177 135 153 176 135 152 176 135 153 176 135 153 176 135 153 176 135 153 176 135 153 176 134 152 175 135 152 176 135 152 175 134 152 176 134 152 175 135 152 175 134 152 175 134 151 175 133 151 173 134 152 175 133 151 173 134 151 174 133 151 174 134 151 174 134 151 173 133 150 173 133 150 173 133 150 173 133 150 172 133 150 172 133 150 172 133 149 171 133 150 172 133 149 171 132 149 170 132 148 170 132 148 170 132 149 171 131 148 169 131 147 169 132 149 170 131 147 168 131 147 168 130 146 167 129 145 165 129 144 165 130 145 166 129 145 165 130 146 167 128 144 164 128 143 162 129 144 164 128 142 162 127 142 161 127 142 161 127 142 161 126 140 159 125 139 157 125 139 157 123 136 154 125 138 155 122 134 151 123 136 153 121 133 150 120 132 147 119 131 146 120 131 146 117 128 142 117 128 143 116 127 141 113 123 136 115 125 139 113 122 134 112 121 133 109 117 129 110 118 130 106 114 125 104 111 121 104 111 121 101 107 116 99 105 113 99 106 115 96 102 110 94 99 106 92 97 105 91 95 102 85 88 94 83 87 93 79 82 87 77 80 85 76 79 84 73 75 79 69 71 74 64 66 69 61 62 65 62 63 66 56 57 59 55 56 59 53 54 56 50 51 53 53 54 56 54 55 58 55 56 59 55 56 58 56 57 60 60 62 65 66 67 70 70 72 76 77 79 84 74 76 80 80 83 87 80 84 89 83 87 94 88 92 98 87 91 97 90 95 102 96 101 109 97 102 110 99 105 113 101 108 117 103 110 120 106 114 125 107 115 126 108 117 129 110 118 130 111 120 132 112 122 134 115 125 138 115 125 138 116 126 140 117 128 142 117 128 143 119 131 146 120 132 148 120 131 147 122 134 151 122 134 150 124 137 154 124 137 155 122 135 152 124 138 155 125 138 156 126 140 158 126 140 159 126 140 158 128 142 160 128 142 162 127 142 161 127 142 161 129 144 164 130 145 165 130 145 166 130 146 166 130 145 165 130 146 166 131 146 167 131 147 169 130 146 167 131 147 168 131 147 169 131 147 168 132 148 170 132 148 170 132 149 170 132 148 170 132 149 172 132 148 170 132 149 172 132 149 172 132 149 171 133 149 171 133 151 173 133 150 172 133 150 173 133 151 173 134 151 174 134 151 174 134 152 174 134 151 174 134 151 174 134 152 175 135 152 175 134 152 175 134 152 174 135 152 175 135 153 176 135 152 176 134 152 175 134 152 175 
137 156 180 137 156 180 137 155 179 137 156 180 137 155 179 137 155 179 137 155 179 137 155 179 137 155 179 137 155 179 137 155 179 136 155 179 137 155 180 137 155 179 137 155 179 137 155 179 137 155 179 137 155 179 136 155 179 136 155 179 137 155 179 136 155 179 136 154 178 137 155 179 136 155 178 137 155 179 136 154 178 136 155 179 137 155 179 137 155 179 136 154 178 137 155 179 137 155 178 137 155 179 137 155 179 137 155 179 136 154 178 137 155 179 136 155 179 136 155 179 136 154 178 136 155 179 136 154 178 136 154 178 136 154 178 136 155 179 136 154 178 136 154 178 136 154 178 136 154 177 136 154 177 136 154 178 136 154 178 136 154 177 135 154 177 135 154 177 136 154 177 136 154 178 136 154 178 136 154 178 136 154 178 136 154 178 136 154 177 135 153 177 136 154 177 135 153 176 135 153 176 135 153 177 135 153 177 135 152 176 135 153 176 135 153 177 135 153 176 135 153 176 135 153 176 134 152 175 134 152 175 134 152 175 134 152 175 134 152 175 134 152 175 134 152 175 134 152 175 134 151 174 134 152 175 134 151 174 135 152 175 134 151 174 133 151 174 133 151 173 133 150 172 133 151 173 133 150 172 133 150 172 133 150 173 132 149 172 134 151 173 132 149 171 133 150 173 132 149 171 132 149 171 132 148 170 132 148 169 132 148 169 131 147 168 132 148 170 132 148 169 131 147 168 131 146 167 130 146 167 129 145 166 130 146 166 130 146 166 128 144 164 128 143 163 130 145 166 128 143 162 128 143 162 129 144 164 127 142 162 127 142 161 128 143 162 125 139 158 126 140 158 124 138 156 126 139 158 124 137 155 124 138 155 123 136 153 124 136 154 122 134 151 121 133 149 121 134 150 120 132 148 118 129 144 119 130 145 116 127 141 118 128 142 114 124 137 115 125 138 113 122 135 112 122 135 111 120 133 110 119 131 106 114 125 105 112 122 103 110 120 103 110 120 102 109 119 99 105 114 97 103 112 97 103 111 93 98 105 91 96 103 92 97 104 88 92 99 87 91 97 83 86 92 83 86 92 81 84 89 79 83 88 75 78 82 74 76 80 73 76 80 70 72 75 72 74 78 74 77 81 71 73 77 72 74 78 74 77 81 74 77 81 77 80 84 80 83 88 77 79 84 83 86 91 84 87 92 86 91 97 87 91 97 93 98 105 92 97 104 94 99 106 99 104 113 98 104 113 100 107 116 103 110 120 105 112 123 104 111 122 105 112 123 108 116 127 110 119 131 110 119 131 111 121 133 112 121 134 115 125 138 115 125 139 117 127 141 119 130 144 119 130 145 121 132 148 119 131 146 121 133 149 122 134 151 121 133 150 123 136 153 123 136 153 124 137 154 124 137 155 124 137 155 125 139 157 126 140 158 128 142 161 127 141 161 127 142 161 127 141 161 129 143 163 129 144 163 129 144 164 130 145 165 130 145 166 129 145 165 130 145 166 131 147 168 130 145 166 130 146 167 131 147 168 131 147 168 131 147 169 131 148 170 132 149 171 132 148 169 132 149 170 132 148 170 133 149 171 133 149 171 133 149 171 133 150 172 133 150 172 132 149 171 133 150 173 133 150 173 134 151 173 133 150 173 134 151 174 133 151 173 134 151 174 134 151 174 134 151 174 134 152 175 135 152 175 135 152 175 135 152 175 135 152 176 135 152 176 135 152 176 135 152 175 
137 155 179 137 155 179 137 155 179 137 155 180 137 155 179 137 155 179 137 155 179 137 155 179 137 155 179 137 155 179 137 155 179 137 155 179 137 155 179 137 155 179 137 155 179 137 155 179 137 155 179 136 155 179 137 155 179 136 155 179 137 155 179 136 155 178 137 155 179 137 155 179 137 155 179 137 155 179 137 155 179 137 155 179 137 155 179 137 155 179 136 155 179 136 155 179 136 155 179 136 155 179 136 155 179 136 154 178 136 154 178 136 154 178 137 155 179 136 155 178 136 154 178 136 154 178 136 154 178 137 155 179 136 154 178 136 154 178 136 154 177 136 154 178 135 154 178 136 154 178 135 154 177 136 154 177 135 154 178 136 154 178 136 154 178 136 154 178 135 154 178 136 154 178 135 153 177 136 154 178 136 154 177 135 153 177 136 153 177 136 154 178 136 153 177 135 153 177 135 153 176 135 153 176 135 153 176 135 153 176 135 153 176 135 154 177 135 153 176 135 153 176 136 153 176 135 153 177 135 153 176 135 153 176 135 152 175 135 152 175 135 153 176 134 152 175 134 151 174 135 153 176 135 152 175 133 151 173 134 152 175 134 151 174 134 151 174 134 151 174 134 151 174 133 150 173 133 151 174 132 149 171 133 150 172 134 151 173 133 150 172 132 149 171 132 149 172 133 150 172 132 148 170 132 149 171 131 148 170 131 148 170 131 148 169 131 147 169 131 147 168 130 146 166 132 148 169 131 147 169 131 147 168 130 146 166 129 144 164 129 145 165 129 144 164 129 144 164 129 144 164 128 144 164 128 143 163 129 143 163 128 143 162 127 141 160 128 143 162 126 140 159 126 140 159 125 138 156 125 138 155 126 139 158 125 139 157 124 137 154 124 137 154 123 135 152 122 135 151 122 134 150 121 132 148 119 131 146 120 131 146 119 130 145 118 130 145 118 128 143 115 126 140 113 123 136 115 125 139 113 122 135 113 122 134 110 118 130 110 119 130 108 116 126 108 116 128 107 115 125 105 112 122 102 109 118 102 108 118 101 107 116 99 105 114 99 105 114 96 101 109 98 104 112 94 99 107 93 98 105 93 97 104 91 96 103 91 96 103 90 95 101 91 96 102 88 92 99 87 91 97 89 93 100 90 94 101 89 94 100 90 94 100 92 97 105 89 94 100 93 98 106 93 98 105 94 99 107 95 101 109 96 102 110 100 106 115 101 108 117 101 107 117 101 108 117 104 111 121 106 113 124 107 115 126 108 116 127 109 117 129 111 120 132 113 122 135 112 121 133 113 122 135 113 122 135 115 125 139 118 128 142 116 126 140 118 129 144 121 132 148 119 131 146 121 133 149 121 134 150 121 132 148 121 134 150 123 136 153 124 137 155 124 137 155 124 137 154 124 137 155 125 139 157 126 140 158 127 141 160 126 140 159 128 142 161 127 142 162 128 143 162 128 143 162 129 144 165 130 145 166 130 145 165 130 145 166 130 145 166 130 145 166 130 145 166 131 147 168 130 146 167 131 147 168 131 147 168 132 148 169 131 148 169 132 148 170 132 148 170 131 148 169 132 149 171 132 149 171 133 149 172 133 149 171 133 149 172 133 150 172 133 150 173 134 151 173 134 151 174 133 151 173 133 151 173 133 151 173 134 151 174 134 151 174 134 151 174 134 151 174 135 152 176 134 152 175 134 152 175 134 152 175 135 153 176 134 152 175 135 152 176 135 153 177 
137 156 179 137 155 180 137 155 179 137 155 179 137 155 179 137 156 180 136 155 179 136 155 179 136 155 179 137 155 179 137 155 179 137 155 179 137 155 179 137 155 179 137 155 179 137 155 179 137 155 179 136 155 179 136 155 179 137 155 179 136 155 179 137 155 179 137 155 179 137 155 179 137 155 179 136 155 179 137 155 179 136 154 178 136 155 179 137 155 179 137 155 179 136 154 178 136 155 179 136 155 179 136 155 179 137 155 179 136 155 179 137 155 179 136 155 179 136 154 178 136 154 178 137 155 178 136 154 178 136 154 178 136 154 177 136 154 178 136 154 178 136 154 178 136 154 178 137 155 179 136 154 178 137 155 179 135 154 178 136 154 177 136 154 177 136 154 177 136 154 178 135 154 177 135 153 176 136 154 178 135 154 177 136 154 178 136 154 178 136 154 177 135 154 177 135 153 177 135 153 177 135 153 176 135 153 177 136 154 178 136 153 177 135 152 175 134 152 176 135 153 176 135 153 176 135 153 176 135 153 176 134 152 175 134 152 175 135 152 175 134 152 174 135 153 176 134 152 174 134 152 175 135 153 176 134 152 175 134 151 174 134 151 174 134 152 174 134 151 174 133 150 173 134 151 174 134 151 174 133 151 173 133 151 173 132 150 172 133 150 172 132 149 171 133 150 172 133 149 171 133 150 172 132 149 171 132 149 171 132 148 170 132 148 170 132 148 170 131 147 168 131 147 168 131 147 168 131 147 169 131 147 169 131 147 168 130 146 167 130 145 166 130 145 166 130 146 166 129 145 165 129 145 165 129 144 164 127 142 162 128 143 162 129 144 164 128 142 161 127 141 161 126 140 159 127 141 159 126 140 158 126 140 159 125 139 157 124 137 155 124 137 155 124 137 154 122 135 152 122 134 151 122 135 152 121 133 150 121 133 149 119 130 146 121 133 149 120 132 148 118 129 144 120 131 146 117 128 142 117 128 142 117 127 141 113 123 135 113 123 137 111 120 132 112 122 134 111 120 132 110 119 131 109 118 129 110 118 130 109 117 129 106 114 125 106 114 125 103 110 121 102 108 118 100 106 115 101 108 117 102 109 119 102 109 119 101 108 117 101 108 118 102 108 117 101 107 117 97 103 111 100 106 115 102 108 117 99 106 115 101 108 117 101 108 117 104 111 120 102 108 117 102 109 119 104 111 122 105 112 123 106 114 125 108 115 126 105 113 124 106 114 125 107 115 126 108 115 126 112 120 133 111 120 132 111 120 132 113 122 134 113 122 135 112 122 135 114 124 137 116 126 139 116 127 142 119 130 145 118 129 143 118 129 143 118 129 145 121 133 148 121 133 149 121 133 150 122 134 150 123 136 153 123 136 153 125 139 157 124 137 154 125 138 156 125 139 157 125 138 156 126 140 159 127 141 160 127 141 160 127 141 160 127 141 160 127 142 162 128 143 162 129 144 164 128 144 164 128 143 163 129 145 165 129 145 166 130 146 166 129 145 166 130 146 166 130 147 168 130 146 167 133 149 170 131 148 169 131 148 169 132 148 170 131 147 168 132 148 170 132 148 170 132 148 170 133 150 172 133 150 172 132 149 171 134 151 173 133 150 172 133 149 171 133 150 173 133 150 172 133 151 173 133 150 173 133 150 173 134 151 174 135 152 175 134 151 174 134 151 174 134 151 174 134 151 174 134 152 175 135 152 175 134 152 175 134 152 175 135 153 176 134 152 175 
137 156 180 137 155 179 137 155 179 136 155 179 137 155 179 136 155 179 137 156 180 137 155 179 137 155 179 137 155 179 136 155 179 137 155 179 137 155 179 137 155 180 137 155 179 136 155 179 137 156 180 137 155 179 136 154 178 137 155 180 136 155 179 137 155 179 137 155 179 137 155 179 136 155 179 136 155 179 136 155 178 137 155 179 136 155 179 137 155 179 137 155 178 136 155 179 137 155 179 136 154 178 136 155 179 136 155 179 136 155 178 136 154 178 136 154 179 136 155 179 136 154 178 136 154 178 136 154 178 136 155 179 136 154 177 136 154 178 136 154 178 136 154 178 136 154 178 136 154 178 136 154 179 136 154 177 136 154 178 136 154 177 136 154 178 136 154 177 136 154 178 136 154 178 135 153 177 136 154 177 136 154 178 136 154 178 136 154 177 135 153 177 136 154 177 136 154 177 135 153 177 136 154 177 135 153 176 135 153 177 135 153 177 135 152 176 135 153 176 135 152 176 136 153 176 135 153 177 135 153 176 134 152 175 135 153 175 135 152 175 134 152 175 134 152 175 134 151 174 134 152 175 135 153 176 133 151 174 135 153 176 135 152 174 134 152 175 133 151 174 134 152 175 134 151 173 133 150 173 133 150 173 133 151 173 133 150 173 133 151 173 133 150 172 133 150 172 133 150 173 132 149 171 132 149 171 131 148 169 133 149 171 132 149 170 133 149 171 132 148 170 132 148 169 132 148 170 132 148 170 131 147 168 131 147 169 132 148 170 131 146 167 131 148 169 132 148 169 130 146 167 129 145 165 130 145 166 128 143 164 129 144 165 128 144 164 128 143 163 128 143 163 127 142 161 128 142 161 128 142 162 128 142 162 126 141 160 126 140 158 125 139 158 125 138 156 124 137 155 124 137 155 125 138 156 125 138 155 123 135 152 122 134 150 121 133 150 120 133 149 121 133 149 120 131 147 120 132 148 120 132 147 120 131 146 118 129 143 117 128 143 117 128 143 116 127 141 115 126 140 116 126 140 114 124 137 113 122 135 112 121 134 114 123 136 114 123 136 110 119 131 111 120 132 111 120 132 110 118 130 109 117 128 108 117 128 108 116 127 106 114 125 108 117 128 107 115 126 110 118 129 108 116 128 108 116 127 109 118 129 108 116 127 108 115 126 108 116 127 109 117 129 108 116 128 110 118 130 110 118 130 110 118 130 110 119 131 113 122 135 111 120 132 113 123 136 114 123 137 114 123 136 115 125 139 117 127 141 115 125 138 117 128 142 116 127 140 116 127 141 118 129 143 119 131 146 120 131 147 120 131 146 120 131 146 122 134 150 120 132 148 123 136 153 122 135 152 123 136 153 125 138 156 125 138 156 124 137 154 124 138 156 126 140 158 126 140 158 127 141 160 126 141 160 125 140 158 129 143 162 129 144 163 127 141 161 129 144 165 129 144 164 130 145 165 129 144 164 129 145 165 129 144 165 129 144 165 130 146 167 130 145 166 131 146 167 131 146 167 131 147 168 132 148 169 132 148 169 133 150 172 130 147 168 132 149 170 132 149 171 132 149 171 133 150 172 133 150 172 133 150 172 132 148 170 134 150 173 133 150 172 133 150 172 133 150 172 133 150 172 134 151 174 134 151 173 133 151 173 133 150 173 134 151 173 134 152 175 134 151 174 134 152 175 134 152 175 135 152 174 134 151 174 134 152 175 134 152 175 135 152 175 135 152 175 
136 155 179 137 155 179 137 156 180 137 155 180 137 155 179 137 155 179 136 155 179 137 155 179 137 155 179 137 155 179 137 155 180 137 155 179 137 155 179 136 155 179 137 155 179 137 155 179 137 155 179 137 155 179 137 155 179 137 155 179 137 155 179 136 154 178 136 155 179 136 155 179 137 155 179 137 155 179 137 155 179 137 155 179 137 155 179 136 155 179 137 155 179 136 155 179 136 155 178 136 154 178 136 155 179 136 154 178 137 155 179 136 155 178 136 154 178 136 154 178 136 154 178 136 155 179 136 155 179 137 155 179 136 154 178 136 154 178 136 154 178 136 154 178 136 154 178 136 154 178 136 154 178 136 154 178 137 155 179 136 154 177 136 154 178 136 154 178 136 154 177 136 154 178 136 154 177 136 154 177 135 153 177 135 154 178 135 153 177 136 154 177 135 153 176 135 153 176 135 153 177 136 154 177 135 154 177 135 153 177 135 153 177 136 153 177 135 153 176 134 152 175 135 153 176 135 152 176 135 153 176 135 153 177 135 152 175 135 152 176 135 153 176 134 151 174 135 153 176 135 152 176 135 153 176 134 152 175 134 152 174 134 151 174 134 151 174 134 151 174 134 152 174 134 151 174 134 152 175 134 152 174 133 150 173 133 150 173 133 151 174 133 150 173 133 150 173 133 151 173 132 149 172 132 149 171 133 150 172 132 149 172 133 150 171 132 149 171 132 148 170 132 149 170 132 149 171 132 148 170 132 149 171 131 147 169 131 147 169 132 148 169 130 146 167 130 146 167 131 147 169 130 146 167 130 146 167 129 144 165 130 145 165 128 144 163 128 144 164 129 145 165 129 144 164 129 144 164 128 143 162 127 141 160 127 142 160 126 140 159 127 141 160 127 141 159 126 140 158 126 140 159 127 141 160 126 139 158 125 138 156 125 138 156 124 137 155 124 136 154 121 134 151 123 135 152 121 133 150 122 135 151 122 134 150 120 131 147 121 133 149 122 134 150 119 131 146 119 130 145 121 133 149 121 132 147 119 130 145 117 128 143 119 130 144 116 127 141 117 128 142 115 126 139 116 126 140 116 127 141 114 124 137 113 122 136 116 126 140 114 124 137 113 122 135 114 124 137 115 124 137 114 124 138 113 123 136 116 125 139 113 122 135 114 124 136 113 123 135 114 124 137 115 125 139 115 125 139 117 127 141 114 124 137 117 127 141 116 126 141 116 127 140 116 126 140 117 128 142 119 130 145 119 130 145 121 132 147 120 131 146 118 129 144 120 131 148 120 132 148 121 133 149 121 133 150 122 134 150 122 134 151 125 137 155 122 135 152 124 137 154 124 137 154 125 138 155 124 137 154 125 138 156 125 138 156 126 140 158 126 140 159 126 140 159 127 141 160 127 142 161 129 143 163 129 144 163 128 143 162 128 142 161 127 141 161 129 145 165 129 145 165 129 145 165 130 146 166 130 146 167 130 146 166 130 146 166 131 147 167 131 147 168 131 147 169 131 147 169 131 147 168 131 147 168 131 148 169 133 150 172 131 148 169 132 149 170 131 148 169 132 149 171 131 148 170 133 150 172 133 150 172 133 150 173 133 150 173 133 150 173 134 151 174 133 150 173 132 149 172 134 150 173 134 151 174 134 151 173 134 152 175 134 151 174 135 153 175 134 152 175 134 152 175 134 151 174 133 150 173 134 152 175 134 152 175 135 153 176 135 153 176 135 153 176 
137 156 180 137 155 180 137 156 180 137 155 180 137 155 179 137 155 179 137 155 179 137 155 178 136 155 179 137 155 180 137 155 179 137 155 180 137 155 179 137 155 179 137 155 180 137 155 179 137 155 179 137 155 179 137 155 179 137 155 179 137 155 179 136 155 179 137 155 179 136 155 178 137 155 179 136 155 179 136 155 179 136 155 179 136 155 179 136 155 179 137 155 179 136 154 178 136 155 179 136 154 179 136 155 179 136 155 178 136 154 178 136 154 178 137 155 179 136 155 178 136 155 179 136 154 178 137 155 179 136 154 178 136 154 178 136 154 177 136 154 178 137 155 178 136 154 178 136 154 178 136 154 178 136 154 178 136 154 178 136 154 178 136 154 177 136 154 177 136 154 178 136 154 177 136 154 177 136 154 178 136 154 177 135 154 177 136 154 177 135 153 177 135 153 177 136 154 178 135 153 177 136 154 177 135 154 177 136 154 177 135 154 177 135 153 176 135 153 176 136 153 177 135 153 177 134 152 176 135 153 176 135 152 175 135 153 176 135 153 176 134 152 175 135 152 176 134 152 175 135 152 176 134 152 175 135 152 175 135 152 175 135 152 176 134 152 175 133 151 174 134 151 174 134 151 174 133 150 173 133 151 173 134 151 174 133 151 173 133 150 173 133 150 173 133 150 172 133 150 172 133 150 172 133 150 173 133 150 172 132 150 173 132 150 172 132 149 171 132 149 170 133 150 172 132 148 170 132 148 170 131 147 169 132 148 169 132 148 170 130 147 168 131 147 169 131 147 168 130 146 167 132 148 169 130 146 167 130 146 167 131 146 166 129 145 165 130 146 167 129 144 165 129 144 164 129 145 165 129 144 164 129 144 164 128 143 162 128 143 162 127 142 161 127 142 162 126 141 160 126 140 160 126 140 159 127 141 160 126 140 159 126 139 158 125 139 157 126 140 158 127 141 159 126 139 156 125 138 155 123 136 154 124 138 155 124 137 154 122 134 150 123 136 153 123 136 153 123 136 152 123 136 153 122 135 151 122 134 150 121 132 148 121 132 148 119 130 146 121 132 148 119 130 145 120 131 146 120 132 147 119 130 145 119 130 145 119 130 145 118 129 144 120 132 147 119 130 145 118 129 144 119 130 145 119 131 146 119 130 145 120 132 148 119 130 145 120 131 146 120 131 146 119 130 145 120 132 147 120 132 147 119 130 145 121 133 149 121 132 147 121 133 149 121 133 149 121 133 150 121 133 149 123 135 151 121 133 149 121 133 150 121 134 151 123 136 152 124 137 154 123 135 153 123 136 153 124 137 154 123 137 155 124 138 155 125 138 155 126 140 158 126 140 158 126 139 156 125 139 158 125 139 158 127 140 159 127 141 160 127 141 160 128 142 162 128 142 162 129 143 163 129 144 164 128 143 163 128 144 164 129 144 164 130 146 166 130 145 166 130 145 166 130 145 166 131 146 167 131 147 168 131 147 168 130 146 167 131 146 167 132 148 170 131 148 170 131 148 169 131 147 168 131 147 168 132 148 170 132 148 170 132 148 170 133 149 172 132 149 171 132 148 170 133 150 172 133 150 172 133 150 173 134 151 173 132 149 171 133 150 172 133 150 172 133 150 172 133 150 173 134 151 174 134 151 174 134 151 174 134 151 174 133 151 173 134 151 174 134 152 175 135 152 175 134 151 174 135 152 175 134 152 175 134 152 175 134 151 174 134 152 175 135 153 176 
137 155 179 137 155 179 137 156 180 137 155 179 137 155 179 137 155 179 137 155 179 137 155 179 137 155 179 137 155 179 137 155 179 137 155 179 137 155 179 136 155 179 137 155 179 137 155 179 137 155 179 137 155 179 136 155 179 136 155 179 137 155 179 137 155 179 137 155 179 136 155 179 136 155 179 136 155 179 137 155 179 137 155 179 137 155 179 137 155 178 136 155 178 137 155 179 137 155 178 137 155 179 136 155 179 137 155 179 137 155 179 137 155 179 136 154 178 136 155 179 136 154 178 136 154 178 136 155 179 136 155 178 136 155 179 136 155 178 136 155 179 136 154 178 136 154 178 137 155 179 136 154 178 136 154 178 136 154 178 136 154 178 136 154 177 136 155 179 135 154 177 136 154 177 136 154 178 136 154 178 135 153 177 136 154 177 136 154 177 136 154 178 135 153 176 136 154 177 135 153 177 135 153 177 136 154 177 135 153 176 135 153 176 135 153 176 135 153 176 135 153 176 135 153 177 135 152 175 134 152 175 136 153 177 134 152 175 134 153 176 135 152 175 135 153 176 136 153 177 135 153 176 135 152 175 134 152 175 135 152 175 134 152 175 134 152 175 134 152 175 134 151 174 134 152 175 135 152 175 134 151 173 133 151 174 133 151 174 133 150 173 134 151 174 134 151 173 133 150 173 133 150 173 134 151 173 133 150 173 132 149 171 132 150 172 133 150 173 132 149 171 133 150 172 132 149 171 132 149 171 132 149 171 131 148 170 131 147 169 132 148 170 131 147 168 131 148 169 132 148 169 130 146 167 131 147 168 131 147 168 131 147 168 130 146 167 131 147 168 129 145 166 129 145 166 130 146 167 129 145 166 129 145 165 128 143 163 129 144 164 128 143 163 127 141 161 128 144 164 128 143 164 128 143 163 129 144 163 129 144 163 128 142 162 127 141 159 126 140 159 126 139 158 127 141 160 126 140 159 126 140 158 126 140 158 124 138 156 126 140 158 125 139 157 124 137 154 126 140 158 124 137 154 124 137 154 124 137 154 124 137 155 123 136 154 124 136 154 124 137 154 122 135 152 123 135 152 123 136 152 124 137 154 121 133 150 121 133 150 122 134 151 122 135 151 123 135 152 122 134 151 122 135 151 121 133 149 121 133 149 123 135 152 124 136 153 121 133 149 124 137 154 121 133 150 123 135 151 123 135 151 122 134 150 121 134 150 124 137 154 123 135 153 123 136 152 124 137 154 125 138 155 123 135 152 124 136 153 125 138 155 125 138 155 125 138 156 124 137 155 125 139 157 124 137 155 126 139 157 126 140 158 126 140 159 126 140 158 127 141 160 127 142 161 128 142 162 128 142 161 127 142 161 128 143 162 129 143 163 129 143 163 128 143 163 129 145 165 129 144 164 128 143 163 130 145 165 129 144 163 129 144 165 130 145 165 129 144 164 130 146 167 129 145 165 130 146 167 130 146 168 130 146 168 132 148 169 131 147 168 132 149 170 132 148 169 131 147 169 131 148 169 132 149 170 132 149 171 132 149 171 131 148 170 132 149 170 133 150 172 133 151 173 133 150 172 132 149 171 132 149 171 132 149 172 133 151 173 133 150 173 134 151 173 135 152 174 133 150 173 134 151 174 134 152 175 134 151 174 134 151 174 134 151 174 134 151 174 134 151 174 134 151 174 134 152 175 135 152 175 135 152 175 135 152 175 134 152 175 134 152 175 135 153 176 
136 155 179 137 155 179 137 155 179 137 156 180 137 155 179 137 155 180 137 155 179 137 155 180 137 155 179 137 155 180 136 154 178 137 155 179 136 155 179 137 155 179 136 155 179 137 155 179 137 155 179 137 155 179 137 155 179 137 155 179 137 155 179 137 155 179 137 155 179 137 155 179 136 155 179 136 155 179 137 155 179 137 155 179 137 155 179 136 155 179 136 155 179 137 155 179 137 155 179 136 155 178 136 154 178 136 155 178 136 155 179 136 154 178 137 155 179 137 155 179 136 155 179 136 154 178 136 154 178 137 155 179 136 154 178 136 154 178 136 155 179 136 154 178 136 154 178 136 154 178 135 153 177 136 154 178 136 154 178 136 155 179 135 154 177 136 154 178 136 154 178 136 154 178 136 154 178 136 154 177 136 154 178 136 154 177 135 154 177 136 154 178 135 153 177 135 153 177 135 153 176 135 153 176 136 154 178 135 153 177 135 153 177 135 153 176 135 153 177 135 153 177 135 153 177 135 153 177 136 154 177 135 153 176 135 153 176 135 153 176 135 153 176 135 153 176 134 151 174 135 152 175 134 152 175 135 152 176 134 152 175 134 152 175 134 152 175 134 152 175 134 152 175 134 152 174 134 151 174 134 152 175 134 151 173 133 150 173 134 151 173 134 151 174 134 151 174 133 150 173 133 151 173 134 151 173 133 150 172 134 151 173 132 149 171 133 150 173 133 150 172 133 149 171 133 150 172 133 150 172 132 149 171 132 149 172 133 149 171 132 148 171 132 148 170 132 149 170 132 148 169 132 148 170 130 147 168 131 147 169 130 147 168 131 147 168 131 147 169 131 147 168 131 146 167 131 147 168 130 145 166 129 145 165 129 145 165 128 144 164 129 144 165 130 146 166 129 144 164 130 145 165 130 145 165 129 144 164 129 144 164 128 143 163 129 144 164 128 143 163 128 143 163 128 143 162 128 143 162 128 142 161 128 142 160 127 141 160 128 142 161 127 140 158 127 141 160 126 140 158 127 141 159 126 140 159 126 140 159 126 140 158 125 139 157 125 139 157 126 140 158 125 138 156 125 139 158 125 139 157 125 138 156 125 139 156 123 137 155 125 138 156 124 138 156 124 137 154 123 137 154 124 137 154 124 138 156 126 139 157 125 138 156 126 139 157 124 137 154 125 138 156 125 139 157 124 138 156 124 138 156 125 138 156 124 137 155 125 138 156 125 138 156 124 137 155 127 141 159 124 137 155 127 140 158 125 139 157 126 140 159 127 140 159 128 141 160 128 142 161 127 141 159 126 140 158 127 141 160 128 142 161 128 143 162 128 142 162 128 143 162 128 143 162 128 143 162 128 143 163 128 143 162 129 144 164 129 144 164 130 145 165 130 145 165 129 144 164 130 146 166 129 145 165 131 146 167 131 147 168 131 147 167 130 146 166 130 146 167 130 146 167 130 146 168 131 147 168 131 147 168 131 146 167 132 148 170 132 149 171 132 148 170 132 149 170 132 149 171 131 148 170 132 149 170 132 148 170 133 150 173 132 149 171 133 149 172 133 150 172 133 150 173 132 149 172 133 150 172 133 151 173 133 150 173 133 150 172 133 150 173 133 150 172 133 150 173 134 151 174 134 151 174 134 152 175 134 151 174 135 152 175 134 152 174 134 151 174 135 152 175 134 151 174 135 153 176 135 152 176 135 152 175 134 152 175 135 152 176 134 152 175 134 152 175 
137 155 180 136 155 179 137 156 180 137 155 179 137 155 179 137 155 179 137 155 179 137 155 179 137 155 179 137 155 179 137 155 179 137 155 179 137 155 179 137 155 179 137 155 178 137 155 179 137 155 179 136 155 179 137 155 179 136 155 179 137 155 180 137 156 180 137 155 179 137 155 179 137 155 179 136 155 179 137 155 179 137 155 179 136 155 179 137 155 179 136 155 179 136 155 179 137 155 179 137 155 179 137 155 179 136 154 178 136 155 179 137 155 179 136 154 178 137 155 179 136 154 178 136 155 178 136 154 178 137 155 179 136 155 179 136 154 178 136 154 178 136 154 178 137 155 179 137 155 179 136 154 178 136 154 178 136 154 178 136 155 179 136 154 178 136 154 178 136 154 178 136 154 178 136 154 178 136 154 178 136 154 178 136 154 178 135 153 177 135 153 176 135 153 177 136 154 178 135 153 177 135 153 177 136 154 178 135 153 177 135 153 177 135 154 177 136 154 177 135 153 177 136 154 177 135 153 177 136 153 177 135 153 176 135 152 176 135 153 176 135 152 175 135 153 177 135 152 176 135 153 177 135 153 176 134 152 175 135 152 175 135 152 175 134 152 175 135 152 175 135 152 175 134 152 175 134 151 175 135 153 176 135 152 176 134 151 174 134 152 175 134 152 175 134 151 174 134 152 175 134 151 174 134 150 172 134 151 173 133 151 173 133 150 173 133 150 173 133 150 172 133 151 174 133 150 172 132 148 170 132 149 171 132 150 172 132 149 171 133 149 171 132 148 170 132 149 171 131 148 170 132 149 171 132 148 170 132 148 170 131 147 169 132 148 170 132 148 170 131 148 169 130 146 168 130 146 166 131 147 168 131 147 168 131 148 169 131 147 169 131 147 168 131 147 168 130 145 166 130 146 166 130 145 166 130 146 166 130 146 166 129 145 165 130 145 166 130 145 165 130 145 166 128 143 163 129 144 163 128 143 163 128 142 162 128 143 163 127 142 162 127 141 160 128 143 162 129 144 163 128 143 162 126 140 159 128 142 162 127 142 160 127 141 160 129 143 162 127 141 160 127 141 160 128 142 161 127 142 161 127 140 159 126 140 159 127 141 159 126 140 158 127 141 160 127 141 160 126 140 158 126 140 158 126 139 158 127 141 160 126 140 159 127 141 159 125 139 157 127 141 159 126 140 159 127 141 160 126 139 157 126 140 159 127 141 160 127 141 160 128 143 162 127 141 160 126 140 159 127 141 160 127 141 160 128 143 162 128 142 161 128 143 162 127 142 161 128 143 163 128 142 162 129 144 164 129 144 164 129 145 165 129 144 163 129 144 164 130 145 165 129 144 164 129 144 164 129 145 165 130 145 165 129 145 165 129 145 165 130 145 165 131 147 168 130 146 166 130 145 166 131 147 168 130 146 167 130 146 167 130 146 167 130 146 167 132 148 169 131 147 168 131 147 169 132 148 169 132 149 170 132 149 170 132 149 171 132 149 171 132 149 171 132 149 171 133 149 171 133 149 171 132 149 171 132 149 171 133 150 172 133 150 172 133 150 173 133 151 174 133 150 172 133 150 173 133 150 173 133 150 172 133 150 173 134 151 174 134 151 173 133 151 173 134 151 174 134 151 174 133 151 174 134 151 173 134 151 174 134 152 176 134 152 175 135 152 175 134 152 174 134 151 173 135 153 176 134 152 175 135 153 176 134 152 175 135 153 176 135 152 176 135 153 176 
137 155 179 137 155 180 137 155 179 136 155 179 137 155 179 137 155 179 137 155 179 136 155 179 136 155 179 137 155 179 137 155 179 137 155 179 136 155 179 137 155 179 136 154 178 137 155 179 137 155 179 137 155 179 137 155 179 137 155 179 137 155 179 137 155 179 137 155 179 137 155 179 136 155 179 137 155 179 136 154 178 137 155 179 137 155 179 137 155 179 136 155 179 136 155 179 137 155 179 137 155 179 136 155 179 137 155 179 136 155 179 137 155 178 136 154 178 137 155 179 136 154 178 136 154 178 136 155 179 136 154 178 136 154 178 137 155 179 136 154 178 136 155 178 136 154 178 136 154 178 136 154 177 136 154 178 136 154 177 136 154 177 136 154 178 136 154 178 136 154 178 136 154 177 136 154 177 135 153 177 136 154 177 136 154 177 136 154 177 136 154 178 136 154 177 135 154 178 136 154 178 135 153 177 135 153 177 135 153 177 135 154 177 135 153 177 135 153 177 135 153 177 135 153 177 135 153 177 135 153 176 135 153 177 135 153 176 135 153 176 135 153 176 135 153 177 135 153 177 135 153 177 135 152 176 135 153 176 134 152 176 135 152 175 135 153 176 134 152 175 135 152 175 134 152 174 134 152 175 134 152 174 134 151 174 133 151 174 135 152 175 134 151 174 134 151 173 134 151 174 133 150 173 134 151 174 134 152 175 134 151 173 134 152 175 134 151 173 133 151 173 134 152 174 133 150 172 133 151 173 133 150 173 134 151 174 133 150 172 133 150 172 133 150 173 133 150 172 133 150 171 132 149 171 131 148 170 133 149 171 132 148 170 131 148 170 131 148 169 131 148 170 132 148 170 131 148 170 132 148 170 131 148 169 132 148 169 132 148 170 132 148 169 131 147 168 131 147 168 131 147 168 131 147 169 131 148 169 131 147 167 130 146 167 130 146 167 130 145 166 131 147 167 130 146 167 131 146 167 131 146 167 130 145 165 129 144 164 129 144 164 129 144 164 129 144 164 130 145 165 129 145 165 129 144 164 129 144 164 129 144 164 130 145 165 128 143 163 129 144 164 129 144 164 129 144 163 129 144 164 129 143 163 129 143 162 128 143 162 129 144 164 127 142 161 128 143 163 127 141 161 129 143 163 129 143 162 128 143 163 128 142 162 129 143 163 128 143 162 128 143 163 129 143 162 127 141 160 128 143 162 128 143 162 129 144 164 129 144 163 129 144 164 127 142 162 129 144 164 128 143 163 129 144 164 128 143 162 128 143 162 129 145 165 129 144 164 129 144 164 130 145 165 129 144 165 129 144 164 130 145 165 130 145 166 131 146 167 130 146 166 130 145 166 129 145 165 130 145 166 131 146 167 130 145 166 130 145 166 131 147 168 131 147 168 131 147 169 132 148 169 131 148 169 131 147 168 131 148 169 131 147 169 131 147 168 131 148 169 132 148 170 132 149 170 132 148 170 132 149 171 132 149 170 132 149 171 132 148 170 132 149 172 132 149 172 133 150 172 132 148 170 133 149 171 133 149 172 133 150 173 133 150 172 134 151 173 133 150 172 134 151 173 133 150 173 133 150 172 134 151 174 134 151 174 134 151 174 134 151 173 134 151 174 134 152 174 134 151 174 134 152 175 134 152 175 134 152 175 134 151 174 135 152 175 135 153 176 134 152 175 135 153 176 134 152 175 135 153 176 135 152 175 134 151 174 135 153 176 135 153 176 135 153 176 
136 155 180 137 155 179 137 155 179 137 156 180 137 155 179 137 155 179 137 155 179 136 155 179 137 155 179 137 155 179 137 155 179 137 155 179 136 155 179 137 155 179 137 155 179 137 155 179 136 155 179 137 155 179 137 155 180 136 155 179 137 155 179 137 155 179 137 155 179 137 155 179 137 155 179 137 155 179 136 155 179 137 155 179 136 155 178 136 155 179 137 155 179 137 155 179 137 155 179 137 155 179 137 155 179 136 154 178 136 155 178 136 155 178 137 155 179 137 155 178 136 154 178 136 154 178 136 155 179 136 155 179 136 154 178 136 154 178 136 154 178 136 154 178 136 155 179 136 154 178 137 155 178 136 154 178 136 154 178 136 155 178 136 154 178 136 154 178 136 155 178 136 154 178 136 154 178 136 154 177 135 153 177 136 154 178 136 154 177 135 154 178 136 154 177 136 154 177 136 154 178 136 154 177 136 154 178 136 154 177 136 153 177 136 154 177 135 153 177 136 153 177 135 153 176 135 153 176 135 153 177 135 153 177 135 153 177 136 154 177 136 154 177 135 153 176 135 153 177 135 153 176 135 153 176 135 153 176 135 153 176 135 153 176 135 153 176 135 153 176 135 153 176 135 153 176 135 152 176 134 152 175 135 152 175 135 152 176 134 152 175 134 151 174 134 151 174 135 152 175 134 151 174 134 151 174 135 152 174 133 151 173 134 151 174 134 151 174 133 150 173 134 151 173 134 151 174 133 151 173 133 150 173 134 151 174 133 150 173 134 151 173 133 150 172 134 151 174 133 150 171 133 150 172 133 150 172 133 150 172 132 149 172 132 149 171 133 149 171 132 149 171 133 149 171 133 149 171 133 149 171 132 149 171 132 148 170 133 150 172 131 147 169 132 148 170 131 147 169 132 148 170 132 148 170 132 148 169 131 147 168 130 147 168 131 148 169 132 148 170 132 148 170 130 146 167 130 147 168 130 146 167 131 147 168 131 147 168 131 147 167 131 147 168 130 146 166 131 147 168 130 146 168 130 145 166 130 146 167 131 147 167 129 145 166 129 145 165 130 145 165 130 146 167 130 146 167 130 145 166 130 145 165 129 145 165 130 145 165 129 144 165 130 146 166 130 146 166 130 146 167 130 145 166 130 145 166 129 145 165 129 144 164 130 145 165 129 144 165 129 144 164 129 145 165 129 144 164 130 145 165 129 144 164 129 144 164 129 144 164 130 146 166 129 145 165 130 146 166 131 146 167 130 145 166 131 146 167 130 146 166 130 145 166 130 146 167 131 147 168 130 146 167 131 147 167 131 147 168 130 146 166 130 146 167 131 147 168 130 146 167 131 147 169 131 147 168 131 147 168 130 146 167 132 148 169 131 147 168 132 148 169 131 147 168 132 148 169 131 148 169 132 148 170 131 147 168 132 149 170 133 149 171 132 148 170 132 148 170 131 148 169 133 149 172 133 150 171 133 150 172 133 150 172 133 150 172 133 149 171 133 150 172 133 150 172 133 150 173 134 151 173 133 150 173 133 150 172 133 150 173 134 151 174 133 151 173 133 150 172 134 151 174 133 150 173 134 151 174 133 151 173 134 151 173 134 152 175 133 150 173 134 152 175 134 152 174 135 152 175 134 151 174 134 152 175 134 152 175 135 153 176 135 152 175 135 153 176 135 152 176 135 152 175 135 153 176 134 152 175 135 153 176 135 153 176 135 153 176 135 153 177 135 153 177 
137 155 179 137 155 179 137 155 179 137 155 180 136 155 179 137 155 179 137 155 180 137 155 179 137 156 179 137 155 179 136 155 179 137 156 180 137 155 179 137 155 179 137 155 179 137 155 179 137 155 179 137 155 179 137 155 179 137 155 179 137 155 179 136 155 179 137 155 179 137 156 179 136 154 178 136 155 178 137 155 179 137 155 179 136 154 178 136 155 179 137 155 179 137 155 179 136 155 179 137 155 179 136 155 179 136 154 178 136 155 179 136 155 179 137 155 178 137 155 179 136 154 178 137 155 179 137 155 179 136 155 179 137 155 179 136 155 179 136 154 178 136 154 178 136 154 178 137 155 179 136 155 179 136 155 178 136 154 178 136 155 179 136 154 178 136 154 178 136 154 178 136 154 178 136 155 178 136 154 178 136 154 178 136 155 178 136 154 178 136 154 178 136 154 178 136 155 178 137 155 178 137 155 178 136 154 178 136 153 177 136 154 177 136 154 177 135 154 178 136 154 177 136 154 178 135 153 177 135 153 176 134 152 176 135 153 176 136 153 177 135 153 177 135 153 176 136 154 177 135 153 176 135 153 177 135 153 176 135 153 177 135 153 177 135 153 176 135 153 176 135 153 176 135 153 176 135 153 176 135 152 175 135 152 176 135 152 175 135 153 176 134 152 175 135 152 175 135 153 176 134 151 174 134 152 175 134 152 175 134 152 174 134 151 174 134 151 174 134 152 175 134 151 174 134 151 174 134 151 174 134 151 174 133 150 172 134 151 174 133 150 172 133 151 173 134 151 173 133 151 173 133 150 173 133 150 172 132 149 171 133 150 173 132 149 172 133 150 172 132 149 171 133 150 172 133 150 172 133 149 172 133 150 173 132 149 171 133 149 172 132 149 170 132 149 171 132 148 170 132 148 170 132 148 170 131 147 169 133 149 170 132 149 170 132 148 170 132 148 170 131 147 168 131 148 170 131 147 169 131 147 169 131 147 168 132 148 169 131 147 168 131 147 168 131 147 168 131 147 168 131 147 168 131 147 169 131 146 167 131 148 169 132 147 168 131 147 168 132 147 168 131 147 168 131 147 168 130 145 166 131 147 168 130 146 167 130 146 166 130 146 167 130 146 166 131 147 167 130 146 167 130 146 166 130 145 166 130 146 166 130 146 167 131 146 167 131 146 167 130 146 167 131 146 167 130 146 167 130 146 167 130 146 167 130 146 167 131 146 167 130 146 167 131 147 167 130 146 167 132 148 169 131 147 168 130 146 167 131 147 168 131 147 168 131 147 168 132 148 169 130 146 167 131 147 168 130 146 167 132 147 168 131 147 169 131 148 169 131 147 169 131 148 169 131 147 168 131 147 169 132 149 170 131 148 169 132 148 170 131 148 169 132 148 170 132 149 171 132 148 170 131 148 169 133 149 171 132 149 171 133 150 172 133 149 171 133 149 171 134 151 173 133 150 172 132 149 170 132 149 171 133 149 171 134 151 173 132 149 172 134 151 173 133 150 172 133 150 173 133 150 171 134 151 173 133 150 172 133 150 172 133 150 173 134 151 174 133 150 173 134 152 175 134 151 173 134 152 175 134 151 174 134 152 174 134 151 174 134 151 174 134 152 174 135 152 176 135 152 175 135 152 175 134 152 175 134 151 174 135 153 176 135 152 175 134 152 175 134 151 174 134 152 175 135 153 176 135 152 176 135 153 176 135 153 177 134 152 175 135 153 177 135 153 176 
137 155 180 137 155 179 137 155 179 137 156 180 137 155 180 137 155 179 137 156 180 137 156 180 136 155 179 137 155 179 137 155 180 137 155 179 137 155 179 136 155 179 137 155 179 137 155 179 136 155 179 137 155 179 137 155 179 137 155 179 136 155 179 136 154 178 137 155 179 137 156 180 137 155 179 136 155 179 136 155 179 137 155 179 137 155 179 137 155 179 137 155 179 137 155 179 137 155 179 137 155 179 137 155 179 136 155 179 137 155 179 136 155 179 137 155 179 136 154 178 136 154 178 137 155 179 137 155 179 136 155 179 136 154 178 136 154 178 136 155 178 136 154 178 137 155 178 136 155 179 136 154 178 137 155 179 136 154 178 136 154 178 136 154 178 135 154 177 136 154 178 136 154 178 136 154 178 136 154 178 136 154 178 136 154 177 136 154 178 136 154 178 136 154 178 136 154 178 136 154 178 136 154 178 136 154 178 136 154 178 136 154 177 136 154 177 135 153 177 135 153 176 136 154 177 135 153 177 135 153 177 135 153 176 135 153 177 136 154 177 135 153 176 136 154 177 136 153 177 136 154 177 135 153 177 136 154 177 135 153 176 135 153 177 135 153 177 135 153 177 136 153 176 135 153 176 135 153 176 135 152 175 135 153 176 134 152 176 135 153 176 135 153 176 135 153 176 134 152 175 135 152 175 135 153 176 134 152 175 135 152 175 134 152 175 134 151 175 135 152 175 134 152 175 134 151 174 134 151 174 134 152 175 134 151 174 134 151 174 133 151 174 134 151 174 134 151 174 134 151 173 133 151 173 133 150 172 133 150 173 134 151 173 134 151 174 134 151 174 133 150 173 134 151 173 133 150 172 133 150 172 133 150 171 134 151 173 133 149 171 133 150 173 133 150 172 133 150 171 133 150 172 132 149 171 134 151 173 131 148 170 133 149 171 132 149 171 132 149 171 132 148 170 132 149 171 133 150 171 132 149 171 132 148 170 132 149 171 132 148 170 131 148 169 133 150 172 132 148 169 132 148 170 132 148 170 132 149 171 131 147 168 131 147 169 131 147 169 132 149 170 132 148 169 131 148 169 131 147 168 132 148 170 132 148 170 132 149 170 132 148 169 132 148 170 131 147 168 131 147 168 131 147 168 131 147 168 130 146 168 131 146 167 131 147 168 132 148 170 131 147 168 131 147 169 132 148 169 131 147 169 131 147 168 131 146 168 131 148 169 131 148 169 131 147 168 131 147 169 131 147 169 131 147 167 131 148 169 131 147 168 132 148 169 132 148 170 131 148 169 132 148 169 131 147 168 132 148 170 132 148 170 132 149 171 132 149 170 132 148 169 132 148 169 133 150 172 132 149 170 132 148 170 133 149 171 133 150 172 133 150 172 132 148 170 133 150 172 132 149 171 133 150 171 132 149 171 132 149 171 133 149 171 132 150 172 133 150 172 132 149 171 133 150 172 133 150 172 134 151 173 133 150 172 133 151 173 133 150 172 134 152 174 134 151 173 134 151 174 134 151 174 133 151 174 134 152 175 135 152 175 134 152 175 134 151 174 134 151 175 134 152 174 134 152 175 134 151 174 134 151 174 134 152 174 134 152 175 135 153 176 134 152 175 135 152 175 135 153 176 134 152 175 135 153 176 134 152 174 135 153 176 136 153 177 136 153 177 135 153 176 135 153 177 135 153 176 135 152 175 135 153 176 135 153 176 135 153 176 135 153 176 135 153 177 
137 155 180 137 156 180 137 155 179 137 155 179 137 155 179 137 156 180 137 155 179 137 155 179 137 155 180 137 155 179 137 155 179 137 155 179 136 155 179 137 156 179 137 155 179 137 155 179 137 155 179 137 155 179 137 155 179 137 155 179 137 155 179 137 155 179 137 155 179 137 155 179 137 155 179 137 155 179 137 155 179 137 155 179 137 155 179 137 155 179 136 155 179 136 155 179 137 155 179 136 155 179 137 155 179 137 155 179 136 154 178 137 155 179 137 155 179 137 155 179 136 154 178 136 155 178 136 155 178 137 155 179 136 155 178 137 155 178 136 155 178 136 155 179 136 155 179 137 155 178 136 154 178 136 155 178 137 155 179 136 154 178 136 155 178 136 155 178 136 154 178 136 154 178 136 154 178 136 154 178 136 154 178 136 154 178 137 155 179 136 154 178 136 154 177 136 154 178 137 155 178 137 155 178 135 153 177 136 154 178 135 153 177 136 153 177 136 154 177 136 154 178 136 154 178 136 154 178 136 154 177 135 153 177 135 154 177 135 153 177 136 154 177 135 153 176 135 153 177 135 153 177 135 153 176 136 154 177 136 154 177 135 152 176 136 153 177 136 154 178 135 153 177 135 153 177 135 153 176 135 152 176 135 153 177 135 153 177 134 152 175 136 154 177 135 153 176 134 152 175 135 153 175 135 153 176 134 152 175 135 152 175 135 153 176 135 152 175 135 152 175 134 151 174 134 152 176 135 152 176 134 152 175 133 151 173 134 151 174 134 152 174 134 152 175 134 151 174 134 151 174 134 151 174 134 151 174 134 152 175 133 150 173 134 151 174 133 151 174 133 150 173 134 151 174 133 150 172 132 149 172 133 150 172 133 150 173 134 151 174 133 150 172 133 150 173 133 150 172 133 150 172 133 150 172 133 150 172 133 150 172 133 150 172 132 149 171 133 150 172 132 149 171 133 150 172 132 149 171 132 148 170 132 149 171 132 149 171 132 149 171 134 151 173 132 149 171 132 149 171 132 148 170 133 149 171 132 149 171 132 148 170 131 148 169 132 149 170 133 149 171 132 149 171 132 149 170 131 148 169 132 148 170 132 149 170 132 148 170 132 148 169 132 148 170 132 148 169 132 149 170 131 148 169 133 149 172 133 149 171 132 148 170 132 149 171 132 149 171 131 148 170 132 148 170 133 149 170 133 149 172 133 149 171 133 149 170 132 148 170 132 149 171 132 149 171 131 147 168 132 149 170 133 149 171 133 149 170 132 148 170 132 149 171 132 149 171 132 149 170 132 149 170 132 148 170 133 149 171 132 149 171 133 150 172 131 148 170 132 149 171 132 148 170 132 149 171 133 149 172 133 150 172 132 149 171 133 150 172 133 150 172 132 149 170 133 150 173 133 150 172 133 150 172 133 150 172 132 149 171 133 150 172 133 150 172 133 150 173 134 152 174 133 150 173 133 150 173 134 151 174 134 151 174 134 151 174 133 150 173 134 152 175 135 152 174 134 151 174 134 151 174 134 151 173 134 151 174 134 151 174 134 152 174 134 152 175 135 152 175 135 152 175 134 151 174 134 152 175 134 152 175 135 152 176 135 153 176 135 153 176 135 152 175 135 152 175 135 153 176 134 152 175 135 153 176 135 153 176 135 152 175 135 153 176 135 153 176 135 153 177 135 152 175 135 153 176 135 153 176 134 152 175 135 153 177 135 153 176 135 153 177 136 154 177 
137 155 179 137 156 180 137 156 180 137 155 179 137 155 179 137 155 179 137 155 179 137 155 179 137 155 179 137 155 180 137 155 179 137 155 179 137 155 179 137 155 179 137 155 179 137 155 179 137 155 180 137 155 179 137 155 179 137 155 179 137 155 179 137 155 179 137 155 179 136 155 179 137 155 179 137 155 179 137 155 179 136 155 179 136 154 178 136 155 179 137 155 179 137 155 179 137 155 179 136 155 179 136 155 179 137 155 179 137 155 179 136 155 179 136 155 179 136 155 179 136 155 178 137 155 179 137 155 179 136 155 179 136 155 178 136 154 178 137 155 179 136 155 179 137 155 179 136 155 178 136 154 178 136 154 178 136 154 178 136 154 178 136 154 178 136 154 178 136 155 179 136 155 178 136 154 178 136 154 178 136 155 179 136 154 178 136 154 178 136 154 177 136 154 177 136 154 178 136 154 178 136 154 178 136 154 177 136 154 178 136 155 178 137 155 178 136 154 178 135 154 177 136 154 178 136 154 177 136 154 177 136 154 178 135 153 177 135 153 177 135 153 177 136 154 177 136 154 177 135 153 177 136 154 177 135 153 176 135 153 176 136 154 177 135 153 177 136 154 177 135 153 177 136 154 177 135 153 176 135 152 176 135 153 177 135 153 177 135 153 177 134 152 175 135 153 177 135 153 177 135 153 176 135 153 177 135 153 176 135 153 176 135 152 176 135 153 176 135 153 177 135 152 175 135 153 176 134 152 175 134 152 175 134 152 174 135 152 175 135 153 175 134 152 174 134 152 175 135 153 176 134 152 175 135 153 176 134 151 173 134 152 175 134 151 174 133 150 173 134 152 175 134 151 174 134 151 174 133 151 173 134 150 173 134 151 173 134 151 174 134 151 174 134 151 173 134 151 173 133 150 173 134 151 174 133 150 173 134 151 174 133 150 173 133 150 172 133 150 173 134 151 173 133 150 172 133 149 171 133 150 173 133 151 173 133 150 171 133 150 172 134 150 173 133 150 172 133 150 173 133 150 172 132 149 171 134 151 173 132 149 171 133 150 173 131 148 170 133 149 171 132 149 171 132 149 171 133 150 172 133 149 171 133 150 172 132 149 171 133 149 172 133 149 171 133 149 171 132 149 171 133 149 171 132 149 171 133 150 172 133 149 171 132 149 171 132 149 170 132 148 170 133 149 171 131 148 170 133 149 171 133 149 171 133 150 172 133 149 171 133 150 172 133 149 171 132 149 170 132 148 170 131 148 170 133 150 172 133 149 171 132 149 171 132 149 170 133 150 172 132 149 172 133 151 173 133 150 172 133 150 172 133 150 173 133 150 172 134 150 173 133 150 172 133 150 172 133 150 173 133 150 173 132 149 171 134 151 173 133 150 173 133 150 172 133 150 172 134 151 174 134 151 174 135 152 175 134 151 174 133 151 173 133 151 173 133 150 173 133 150 173 133 150 172 134 152 174 135 152 175 133 151 173 134 151 173 135 152 175 134 151 174 134 151 174 134 151 174 133 151 173 134 152 175 134 151 174 135 152 175 134 151 174 134 152 175 134 152 174 134 152 174 135 152 175 135 152 175 135 153 175 135 152 175 134 152 175 135 152 175 135 153 177 135 152 175 135 152 175 135 153 176 135 153 176 135 153 176 135 152 176 135 153 176 136 154 177 135 153 176 135 153 176 135 153 177 135 153 177 136 154 177 136 154 178 135 152 176 135 153 177 135 153 177 
137 155 179 137 155 179 137 155 179 136 155 179 137 156 180 137 156 180 137 156 180 137 155 179 137 155 179 137 156 180 137 155 179 137 155 179 137 155 179 137 155 179 137 155 180 137 155 179 137 155 179 136 155 179 137 155 179 136 155 179 137 155 179 137 155 179 136 154 178 137 155 179 137 155 179 137 155 179 137 155 179 136 155 179 137 155 179 136 154 178 137 155 179 137 155 179 136 155 179 136 155 179 137 155 179 137 155 179 137 155 179 137 155 179 136 154 178 136 155 179 137 155 179 136 155 179 136 155 179 136 155 179 137 155 179 136 154 178 136 155 179 136 154 178 136 155 179 136 155 179 136 154 178 136 154 178 137 155 178 136 154 178 136 154 178 136 154 178 136 154 178 136 154 178 136 154 178 136 154 178 136 154 177 136 154 178 136 154 178 136 155 178 136 154 178 136 155 179 135 154 177 136 154 177 136 154 178 136 154 178 136 154 178 136 154 178 136 154 177 136 154 178 136 154 177 136 154 178 137 154 178 136 154 177 136 154 178 135 153 177 136 154 178 136 154 178 135 154 178 135 154 177 135 153 177 135 153 177 135 153 177 135 153 177 136 154 177 136 154 177 136 154 177 135 153 176 136 154 177 135 153 177 135 153 177 135 153 177 134 152 176 135 152 176 136 154 178 135 153 177 136 153 176 135 153 177 135 153 176 135 152 176 135 153 176 134 152 175 135 153 176 135 153 177 135 153 176 134 152 175 135 153 176 135 152 175 134 152 175 135 152 175 134 152 175 135 153 176 135 152 176 135 152 175 134 152 175 133 150 173 134 152 175 134 152 175 135 152 175 134 152 175 134 152 175 134 152 174 134 151 174 135 152 175 134 152 175 133 150 173 134 152 175 134 151 174 133 151 174 133 150 173 134 151 174 135 152 175 134 152 175 134 152 174 134 151 173 133 150 173 133 151 174 133 150 173 134 151 174 133 150 172 134 151 173 133 150 173 133 150 173 133 150 172 134 150 172 134 151 173 134 151 173 133 150 172 134 151 173 133 151 173 133 150 172 133 150 173 133 150 173 133 151 173 134 151 173 133 150 172 133 150 172 133 150 172 133 150 172 133 150 172 134 150 173 132 149 171 133 150 172 133 150 172 133 150 172 133 150 172 133 151 173 133 150 172 133 149 171 133 150 173 133 150 173 133 150 173 133 150 173 132 149 171 132 149 171 134 150 173 133 150 173 133 149 171 134 151 173 132 149 171 134 151 173 133 150 172 134 151 173 132 150 172 134 151 173 134 151 173 133 149 172 132 149 171 134 151 173 133 150 172 133 150 172 134 151 174 134 151 173 133 150 173 133 150 173 133 150 173 134 151 173 134 150 173 133 150 173 134 151 174 133 150 173 133 150 173 133 150 173 134 151 174 134 151 173 133 150 172 133 151 174 135 152 174 134 152 175 134 151 174 134 151 174 134 151 174 134 151 174 134 152 174 134 152 174 135 152 175 134 152 175 135 152 175 135 152 174 135 152 175 135 153 176 135 153 176 135 152 175 135 153 176 136 153 176 135 153 176 134 152 175 134 152 175 134 152 175 135 153 176 134 151 175 135 152 175 135 152 176 135 152 175 135 153 176 135 153 176 135 153 176 135 153 177 134 152 176 135 153 176 135 153 176 135 153 176 134 152 175 135 153 176 135 152 176 135 153 176 135 153 177 135 153 177 135 153 177 135 153 176 135 154 177 
137 156 180 137 155 179 137 155 179 137 155 179 137 155 180 137 156 179 137 155 179 137 156 180 137 155 179 136 155 179 137 155 179 137 155 179 137 155 179 137 155 179 137 155 179 137 155 179 137 155 180 137 155 179 137 155 179 137 155 179 137 155 179 137 155 179 137 155 179 137 155 179 137 155 179 137 155 179 137 156 180 137 155 179 137 155 179 137 155 179 137 155 179 137 155 179 136 155 179 137 155 179 137 155 179 137 155 179 136 155 178 136 155 179 136 155 179 136 155 178 137 155 179 136 155 179 136 155 178 136 155 178 137 155 179 136 154 178 136 154 178 137 155 179 136 155 179 136 154 179 136 155 179 136 154 178 136 155 178 136 154 178 136 154 178 136 155 179 136 154 178 137 155 178 136 155 178 136 154 178 136 155 179 136 154 178 137 155 179 136 154 178 136 154 178 136 154 178 136 154 177 136 154 178 135 153 177 135 154 177 136 154 178 136 154 178 136 154 177 136 154 177 136 154 177 136 154 178 136 154 178 136 154 178 136 154 178 136 154 178 136 154 178 136 154 177 136 154 178 136 154 178 136 154 177 136 154 177 135 153 176 135 153 177 135 152 176 135 153 177 136 154 177 136 154 177 135 153 177 136 154 177 136 154 178 135 153 177 136 154 177 135 153 177 135 153 177 135 153 177 135 153 177 136 154 177 135 153 176 135 153 176 135 153 176 135 153 176 135 153 176 135 153 176 136 153 176 135 153 176 135 152 176 134 152 175 135 152 176 135 152 175 135 153 176 135 152 175 135 152 175 134 152 175 135 152 175 135 152 175 135 152 175 134 152 175 135 153 176 134 152 175 135 152 175 134 152 175 134 151 174 134 152 175 134 152 175 134 152 175 134 152 175 135 152 175 134 151 174 134 151 174 134 152 175 134 152 175 134 152 174 134 152 174 134 152 175 134 151 174 133 151 173 134 152 175 133 151 173 134 151 174 134 151 174 134 151 174 134 151 174 134 151 174 134 151 174 133 150 173 134 151 173 134 151 174 134 151 173 133 150 173 133 150 173 134 151 173 134 152 174 133 151 173 133 150 173 133 151 173 133 150 172 133 150 173 133 150 172 133 149 171 133 150 172 133 151 173 133 150 173 134 151 173 134 151 173 134 151 173 134 151 173 133 151 173 133 150 173 134 151 173 133 151 173 134 151 173 134 151 173 134 151 173 134 151 173 133 151 173 133 150 173 133 150 173 133 150 172 133 150 173 134 151 174 133 150 172 134 151 174 133 150 173 133 151 174 135 152 175 134 152 175 134 151 174 134 151 174 134 151 174 133 151 173 134 151 174 134 151 174 135 152 174 134 151 174 133 150 172 134 152 175 133 150 173 134 151 174 133 151 174 134 151 174 135 152 175 133 151 173 135 152 175 135 152 175 134 151 174 134 151 174 135 152 175 135 152 174 135 152 175 134 152 175 135 152 174 134 151 174 135 152 175 135 152 175 135 152 175 134 152 175 134 152 175 134 152 174 135 152 175 135 152 175 135 153 176 135 153 176 135 152 176 134 152 175 135 153 176 135 152 176 135 152 175 135 153 176 135 153 176 135 153 176 135 153 176 135 153 176 135 152 176 135 152 175 135 153 176 134 152 176 135 153 176 136 154 177 135 153 176 136 153 177 135 153 176 135 154 177 135 153 176 135 153 177 135 153 177 136 154 177 135 153 177 136 154 177 136 154 177 136 154 177 
137 155 180 137 155 179 137 156 180 137 155 179 137 155 179 137 155 180 137 155 179 137 156 180 137 156 179 137 155 179 137 155 180 137 155 179 137 155 180 137 155 179 137 155 179 136 155 179 137 155 179 137 155 179 137 155 179 137 155 179 137 155 179 137 155 179 137 155 179 137 155 179 137 155 179 137 155 180 137 155 179 137 155 179 137 155 179 136 155 179 137 155 179 137 155 179 137 155 179 137 155 179 137 155 179 136 154 178 136 155 179 137 155 179 136 155 178 137 155 179 137 155 178 137 155 179 136 155 178 136 155 178 137 155 179 137 155 179 136 154 178 136 154 178 137 155 179 136 154 178 137 155 179 137 155 179 137 155 178 136 155 179 137 155 179 136 154 178 136 155 179 137 155 179 136 154 178 136 154 178 136 154 178 136 154 178 136 154 178 136 155 179 136 154 178 136 154 178 136 155 179 136 154 178 136 154 177 136 154 178 136 154 178 136 154 177 136 154 178 136 154 178 136 154 178 136 154 178 136 154 178 136 154 178 136 154 177 136 154 178 136 154 178 136 154 177 136 154 178 136 154 178 136 154 178 135 153 176 136 154 177 136 154 178 136 154 178 136 154 178 136 154 178 136 153 177 135 153 176 136 154 177 135 154 178 135 153 177 135 153 177 135 153 176 136 153 177 135 153 177 135 154 177 135 153 177 136 153 177 135 153 177 135 153 176 135 153 176 135 153 177 135 153 177 135 153 177 135 153 176 135 152 176 135 153 176 135 153 177 135 152 176 135 153 176 135 153 177 135 153 176 135 153 176 135 152 175 135 152 176 134 152 175 134 152 176 134 152 175 134 152 175 135 152 176 135 152 176 135 153 176 134 152 175 134 152 174 135 152 175 135 153 176 134 152 176 135 153 176 134 151 174 135 153 176 134 152 175 134 152 176 134 152 175 134 151 175 134 151 174 134 151 174 135 153 176 135 152 176 135 152 175 134 152 175 135 152 175 134 152 175 134 152 175 134 152 175 134 151 174 134 151 174 134 151 174 133 151 173 134 151 174 134 152 174 134 152 175 134 151 173 134 152 175 134 151 174 134 151 174 134 152 174 134 151 174 134 152 175 134 151 173 133 151 174 134 151 174 134 151 174 134 152 174 134 151 173 135 152 175 135 152 174 135 152 175 134 151 174 133 151 173 134 152 174 134 151 173 134 151 174 133 151 173 134 151 174 134 151 173 134 151 174 134 151 174 134 151 174 133 151 174 134 151 174 134 152 174 134 151 174 134 151 174 134 151 174 133 150 173 133 151 173 134 151 174 134 151 174 134 151 174 134 152 174 134 151 174 134 152 174 134 152 175 134 151 174 134 151 174 135 152 175 133 150 172 134 152 175 133 151 173 135 152 175 134 152 175 134 152 175 134 151 174 134 151 174 134 152 175 135 152 175 134 151 174 134 152 175 135 152 175 134 152 175 135 152 175 135 153 176 135 152 175 134 151 174 134 152 175 135 152 176 135 153 176 135 153 176 134 152 175 135 153 176 135 153 176 135 152 175 135 153 176 134 152 175 135 153 176 135 153 176 135 153 177 134 152 176 136 153 177 135 153 176 136 154 177 136 153 177 136 154 177 135 152 175 135 153 177 135 153 177 136 154 177 136 154 177 134 152 176 135 153 177 135 153 176 135 153 177 136 153 177 135 153 177 135 153 176 135 153 177 136 153 177 136 154 177 136 154 178 136 154 178 
137 155 180 137 155 179 136 155 179 137 156 180 137 155 179 137 156 180 137 155 179 137 155 179 137 155 180 137 155 179 137 155 179 137 155 179 137 155 180 137 155 179 137 155 179 137 155 179 137 155 179 137 155 179 137 155 179 137 155 179 138 156 180 137 155 179 137 155 180 137 155 179 137 155 179 137 155 179 137 155 179 137 155 179 137 155 180 137 155 179 136 155 179 137 155 180 137 155 179 136 155 179 136 155 179 137 155 179 137 155 179 137 155 179 137 155 178 137 155 179 137 155 179 137 155 179 136 155 179 136 155 179 137 155 179 136 154 178 136 155 178 136 155 179 136 155 179 136 155 179 137 155 179 136 155 179 137 155 179 136 154 178 136 155 179 136 155 178 137 155 179 136 154 178 136 154 178 136 154 178 137 155 178 136 154 178 137 155 178 136 154 178 136 154 178 136 154 178 137 155 179 136 154 178 136 154 178 137 155 179 136 155 179 136 154 178 136 154 178 136 154 178 136 155 179 136 155 178 136 154 178 136 154 178 136 154 178 136 154 178 136 154 178 136 154 178 136 154 177 136 154 178 136 154 178 136 154 178 136 154 178 136 154 178 136 154 178 135 153 177 136 154 177 136 154 178 136 154 177 136 154 178 136 154 177 136 154 178 136 154 177 136 154 177 136 154 178 136 154 178 135 153 177 135 153 176 136 154 177 135 153 177 136 153 177 135 153 177 136 153 176 134 152 176 135 153 176 135 153 176 135 153 176 135 153 176 135 153 176 135 153 176 135 153 177 135 153 177 135 153 176 135 153 177 134 152 175 135 152 175 135 153 177 135 153 176 135 153 177 135 153 176 135 152 176 135 152 175 134 152 176 135 153 176 135 152 175 135 153 176 135 153 176 135 152 176 135 153 176 135 152 176 134 152 175 135 153 176 134 152 175 135 153 176 134 151 174 134 152 175 135 152 176 135 153 177 135 152 175 134 152 175 135 152 175 135 152 175 134 152 175 135 152 176 135 152 176 134 152 175 134 152 174 135 152 175 134 152 175 134 151 174 134 152 175 134 152 175 134 152 175 134 152 175 134 151 174 135 152 175 134 151 174 134 151 174 133 151 174 134 151 174 134 152 175 135 152 175 134 151 174 135 152 175 134 151 174 134 152 175 134 151 175 134 151 174 134 151 173 135 152 175 134 152 174 135 152 175 134 152 175 134 151 174 134 151 174 134 151 174 134 151 174 134 151 174 135 153 176 134 151 174 134 152 174 133 151 173 134 152 174 134 151 174 134 151 174 134 152 175 134 152 175 135 152 175 134 152 174 134 151 174 134 152 174 134 152 174 134 152 175 134 151 174 134 152 175 134 152 175 134 152 174 134 152 175 135 152 175 134 152 174 135 152 175 134 152 175 134 152 175 135 152 175 134 152 174 134 152 175 135 152 175 135 152 175 135 153 176 134 152 175 134 152 175 134 152 175 135 152 175 135 152 176 134 152 176 135 153 176 135 153 176 134 153 176 134 152 175 135 153 176 135 153 176 135 153 176 135 153 176 135 153 176 135 153 176 135 153 176 135 153 176 135 153 177 135 153 176 136 153 177 135 153 177 135 153 177 136 153 177 136 153 177 135 153 177 135 153 176 135 153 177 136 154 177 136 154 177 136 154 177 135 153 177 135 153 177 136 154 177 135 153 177 135 153 177 136 154 177 134 152 176 136 154 178 136 153 177 135 154 178 135 153 177 
137 155 179 137 155 180 137 155 179 137 155 179 137 155 180 137 155 179 137 155 179 137 155 179 137 155 179 137 155 180 137 155 179 137 155 179 137 155 179 137 155 179 137 156 180 137 156 180 137 155 179 137 155 179 136 155 179 137 155 179 137 155 180 137 155 179 137 156 180 137 155 179 137 155 179 137 155 179 137 155 179 137 155 179 137 155 179 137 155 180 137 155 179 137 155 179 137 155 179 137 155 179 137 155 179 136 155 179 137 155 179 137 155 179 137 155 179 137 155 179 137 155 179 136 155 179 137 155 179 136 155 179 136 154 178 137 155 179 137 155 179 136 154 178 137 155 179 137 155 179 137 155 178 137 155 179 137 155 179 137 155 179 137 155 179 137 155 179 137 155 179 137 155 179 136 154 178 136 154 178 136 155 178 137 155 179 136 154 178 137 155 178 137 155 179 136 154 178 137 155 179 136 154 178 136 154 178 137 155 179 136 154 178 136 154 178 136 154 178 136 154 178 136 155 178 136 154 178 136 154 178 136 154 178 137 155 179 136 154 178 135 154 177 136 154 178 135 154 178 137 155 179 136 154 178 136 154 177 135 154 177 136 154 178 135 153 177 136 154 178 136 154 178 136 154 178 135 153 177 136 154 177 136 154 177 136 154 178 135 154 177 136 154 178 135 153 177 135 154 177 136 154 178 136 153 177 135 153 177 135 153 176 136 154 178 135 153 177 136 154 177 135 153 177 135 153 177 135 153 177 135 153 177 135 153 176 135 153 176 135 153 176 135 153 176 135 153 177 135 153 176 135 153 177 136 154 178 135 153 176 135 153 177 135 153 176 135 153 176 135 152 176 135 152 175 136 153 176 136 153 177 134 152 175 135 153 176 135 153 176 135 153 176 135 153 177 135 153 176 135 153 176 134 152 176 134 152 175 135 152 176 135 153 175 134 152 175 134 152 175 135 153 176 135 152 175 135 152 175 134 151 174 135 153 176 135 153 176 135 152 176 134 152 174 135 153 176 134 152 175 134 152 175 135 153 176 135 152 176 135 152 175 135 153 176 135 152 175 134 152 175 134 152 175 134 152 174 134 151 174 135 153 176 134 152 175 134 152 174 134 152 175 135 152 175 135 152 176 134 152 175 135 153 176 135 152 175 134 152 175 135 152 175 135 152 175 134 152 175 134 152 175 135 152 176 135 153 176 134 152 176 134 151 174 134 152 175 134 152 174 135 152 175 134 152 175 135 152 175 135 152 175 135 153 176 135 152 175 135 152 176 134 151 175 134 151 174 134 152 175 134 152 175 134 152 175 134 152 175 135 153 176 135 152 175 135 153 176 134 152 175 135 153 176 134 152 175 134 152 175 134 152 174 135 152 175 134 152 175 134 152 176 135 153 176 135 152 176 135 152 175 134 152 175 135 153 176 135 153 176 135 152 176 136 153 176 135 153 176 134 152 175 135 153 176 135 152 176 136 154 177 135 153 176 135 153 177 135 153 176 135 153 176 135 153 177 135 153 176 135 153 176 135 153 176 136 153 177 135 153 177 136 154 178 136 153 176 135 153 176 135 153 176 135 152 176 135 152 176 135 153 177 136 153 177 136 154 177 136 154 177 136 154 177 136 154 178 136 154 177 135 154 177 136 154 177 136 154 177 136 154 177 135 153 177 136 154 177 135 153 176 135 154 177 136 153 177 135 154 177 136 154 178 135 154 177 135 153 177 135 154 177 136 154 177 
137 156 180 137 156 180 137 156 180 137 155 179 137 155 179 137 156 180 137 156 180 137 155 179 137 155 179 137 155 179 137 155 179 137 155 180 137 155 179 137 155 179 137 156 180 137 155 180 137 155 179 137 155 179 137 155 179 137 155 179 137 155 179 137 155 179 137 155 179 137 155 179 137 155 179 137 155 179 137 155 179 137 155 179 137 155 179 137 155 179 137 155 179 136 155 179 137 155 179 136 155 179 137 155 179 136 155 179 137 155 179 137 155 179 137 155 179 136 155 179 137 155 179 136 155 179 137 155 180 137 155 179 137 155 179 137 155 179 136 155 179 137 155 179 136 155 178 136 154 178 136 155 178 137 155 179 137 155 179 137 155 179 136 154 178 136 154 178 136 154 178 137 155 178 136 155 179 136 155 179 137 155 179 136 155 178 136 154 178 136 154 178 136 155 179 136 154 178 136 154 178 136 155 178 136 154 178 136 154 178 137 155 179 136 154 178 136 154 178 136 154 178 136 154 178 137 155 178 136 154 178 136 155 179 135 154 178 136 154 178 136 154 178 136 154 178 136 154 178 136 154 178 136 154 177 136 154 178 136 154 177 136 154 178 136 154 177 136 154 177 136 154 178 136 154 177 136 154 178 136 154 177 136 154 177 136 154 178 135 154 177 135 153 177 136 154 177 136 154 178 135 154 178 135 154 177 136 154 178 135 153 177 135 153 177 136 153 177 135 153 177 135 153 177 136 154 178 135 153 176 136 153 177 135 153 177 136 154 177 135 153 177 136 153 177 136 154 177 136 153 177 136 154 177 136 154 178 135 153 177 135 153 176 135 153 176 135 153 176 134 152 175 135 153 177 136 154 177 135 153 176 135 153 176 136 153 177 135 153 176 135 153 176 135 153 176 135 153 176 135 152 176 135 153 176 135 153 177 134 152 175 135 153 176 135 153 177 135 153 177 135 153 176 135 153 176 135 153 176 135 153 176 135 153 176 135 152 175 135 153 176 135 153 176 135 152 176 135 153 176 135 153 176 135 153 176 135 153 177 135 152 175 135 153 176 135 153 176 134 152 175 135 153 176 135 152 175 135 153 176 135 153 176 134 152 175 135 152 175 135 153 176 135 153 176 135 153 176 135 153 176 135 153 176 135 153 176 135 153 176 135 153 176 134 152 175 134 152 175 135 152 175 134 152 175 134 152 175 135 152 175 135 153 176 134 152 176 135 153 176 135 152 175 135 152 176 135 152 175 135 152 175 135 153 176 135 153 176 134 152 175 135 153 176 135 152 175 135 153 176 135 152 176 134 152 176 135 152 176 135 152 176 135 152 175 135 153 176 135 152 175 135 153 176 134 152 175 134 152 175 135 153 176 135 153 176 135 152 175 135 152 175 135 153 176 135 153 176 135 153 176 135 153 176 134 152 175 135 153 177 135 152 175 135 153 176 135 153 176 135 153 176 135 153 176 135 153 176 136 153 177 135 153 176 134 152 175 135 153 176 135 153 176 135 153 176 136 154 177 135 153 176 135 153 177 135 153 177 135 153 177 135 153 177 136 154 177 135 153 176 135 153 177 135 153 176 135 153 176 136 154 177 136 154 177 136 153 177 136 154 177 135 153 177 135 153 177 136 153 177 135 153 177 135 153 177 136 153 176 135 153 176 136 154 178 136 154 178 136 154 177 136 154 177 136 154 177 136 154 178 136 154 177 136 154 178 135 153 177 136 154 178 136 154 178 
137 155 179 137 155 179 137 156 180 137 155 179 137 155 179 137 155 179 137 155 179 137 155 179 137 156 180 137 155 179 137 156 179 137 155 179 137 155 179 137 155 179 137 155 179 137 155 179 137 155 180 137 155 179 137 155 179 137 155 179 137 155 179 137 155 179 137 155 179 137 155 179 136 155 179 137 155 179 136 155 179 137 155 179 136 155 179 136 155 179 137 155 179 137 155 179 136 155 179 137 155 179 137 155 180 137 155 180 137 155 179 136 155 179 137 155 179 137 155 179 137 155 179 137 155 179 137 155 179 136 154 178 137 155 179 137 155 179 137 155 179 137 155 179 136 155 178 136 155 178 136 155 179 137 155 179 137 155 179 137 155 179 136 155 179 137 155 179 136 155 179 137 155 179 137 155 179 136 155 179 136 155 179 137 155 179 136 155 178 136 154 178 136 155 179 137 155 178 137 155 178 136 154 178 136 155 178 137 155 179 136 155 179 137 155 179 137 155 178 137 155 179 136 154 178 136 154 178 136 154 178 136 154 178 136 154 178 136 154 178 137 155 179 136 154 178 136 154 178 136 154 178 136 155 178 136 154 178 136 155 178 136 154 178 136 154 178 136 154 177 136 154 177 136 154 178 136 154 177 135 153 177 136 154 178 136 154 177 136 154 177 136 154 178 136 154 178 136 154 177 136 154 177 136 154 178 136 154 177 136 154 177 136 154 178 136 154 178 136 154 178 136 154 178 136 154 178 135 153 177 136 154 178 135 153 177 136 154 177 136 154 178 135 153 177 135 153 177 135 153 177 135 153 177 135 153 177 136 154 177 135 153 176 136 154 177 136 153 177 135 153 177 136 154 177 136 153 177 136 154 178 136 154 178 135 153 177 136 153 177 136 153 177 136 154 177 136 154 177 135 153 177 136 154 177 135 153 177 136 153 177 135 153 177 135 153 176 135 153 176 136 154 178 135 153 176 135 153 176 135 153 176 135 153 176 135 153 176 135 153 176 135 153 176 135 153 176 135 153 176 135 153 176 135 153 176 135 152 176 135 153 176 135 153 176 135 153 176 135 153 176 135 152 176 135 153 176 135 153 176 135 152 176 135 152 176 135 153 177 135 153 176 135 153 176 135 153 176 135 153 176 135 153 177 135 153 176 136 154 177 135 153 176 135 153 176 135 153 176 135 152 175 135 152 176 135 152 175 135 153 177 135 153 176 135 153 176 134 152 176 135 153 176 134 152 175 135 152 175 135 152 175 134 152 174 136 153 177 135 152 175 134 152 176 135 153 176 135 153 176 135 153 176 135 153 176 135 153 177 135 153 176 134 152 175 135 152 176 135 153 176 135 153 176 134 152 176 135 153 176 135 153 176 135 153 177 135 153 176 135 153 176 135 153 176 135 153 176 135 153 176 135 153 176 135 153 176 135 153 176 136 154 177 135 153 177 136 154 177 135 153 176 135 153 177 135 153 177 135 153 176 136 154 177 136 154 177 136 154 177 135 153 177 136 153 177 135 153 177 135 154 177 136 154 177 136 154 177 136 154 178 135 153 177 136 153 177 135 153 176 135 153 177 135 153 177 136 154 177 136 154 177 136 153 177 137 154 178 136 154 177 136 154 178 136 153 177 136 154 178 136 154 178 136 154 178 135 153 177 136 154 178 136 154 178 136 154 178 136 154 178 135 153 177 136 154 178 136 154 178 136 154 178 136 154 177 136 154 178 136 154 178 136 154 177 
137 155 180 137 155 180 137 155 179 138 156 180 137 155 179 137 155 180 137 155 179 137 155 179 137 155 179 137 156 180 137 155 180 137 155 180 137 155 179 137 155 179 137 155 179 137 155 179 137 155 179 137 155 179 137 155 179 137 155 179 137 155 179 137 155 180 137 156 180 137 155 179 137 155 179 137 155 179 137 155 179 137 155 179 137 155 179 137 155 179 137 155 179 136 155 179 136 155 179 137 155 179 137 155 179 136 155 179 137 155 179 137 155 179 137 155 179 137 155 179 137 155 179 137 155 179 137 155 179 137 155 179 137 155 179 137 155 179 137 155 179 136 155 179 137 155 179 137 155 179 137 155 179 137 155 179 136 155 179 136 154 178 136 155 178 137 155 179 137 155 179 136 155 179 136 155 179 137 155 179 137 155 179 136 154 178 137 155 179 136 154 178 136 154 178 136 155 178 137 155 179 136 155 178 136 155 178 137 155 179 136 154 178 136 155 179 136 155 179 137 155 179 137 155 178 137 155 179 136 155 179 136 154 178 136 154 178 136 155 178 136 154 178 136 154 178 136 155 178 136 154 178 136 154 178 136 155 179 136 154 178 136 154 178 136 154 178 136 154 178 135 154 178 136 154 178 136 154 178 136 154 178 136 154 178 136 154 178 136 155 178 135 154 178 136 154 178 136 154 178 136 154 178 136 154 178 136 154 178 136 154 178 136 154 177 136 154 177 136 154 178 136 154 178 136 154 178 136 155 179 135 153 177 135 153 176 135 153 177 135 153 177 136 154 178 135 153 177 136 154 178 136 154 177 135 153 177 135 153 177 135 153 177 136 154 178 136 154 177 136 154 178 136 153 177 136 154 177 136 154 177 136 154 177 135 153 176 136 154 177 135 153 177 135 153 177 136 154 177 135 153 177 136 153 177 136 153 177 136 154 177 136 154 177 136 154 177 135 153 177 136 154 177 136 154 178 136 154 177 136 153 177 135 153 177 135 153 176 135 153 176 135 153 176 136 154 177 135 153 176 135 153 177 135 153 177 135 153 177 135 153 176 135 153 176 135 154 177 135 153 176 135 153 177 135 153 176 136 154 177 135 153 176 136 154 177 135 153 176 136 153 176 136 153 177 135 153 177 136 153 177 135 153 176 135 153 177 136 153 177 135 153 176 135 153 177 135 153 176 135 153 177 135 153 177 135 153 177 135 152 175 135 152 176 135 153 177 135 153 176 135 153 176 134 152 175 135 153 177 135 153 176 135 152 175 135 153 176 135 153 177 135 153 177 136 153 177 135 153 177 135 153 176 135 153 176 135 153 176 135 153 176 135 153 176 135 153 176 135 153 177 135 153 176 135 153 177 136 153 177 135 153 177 136 154 177 136 153 177 135 153 177 135 153 177 135 153 177 135 153 177 136 154 177 135 153 177 135 153 177 135 153 176 136 154 177 135 153 177 136 154 177 136 154 177 136 154 178 135 153 176 136 154 178 135 153 177 136 154 177 135 153 176 136 154 178 136 154 178 136 154 177 135 153 177 136 154 177 136 154 178 135 153 177 136 154 177 135 153 177 136 153 177 135 153 177 136 154 178 136 154 178 136 154 178 135 153 177 135 154 177 136 153 177 136 154 178 136 154 178 136 154 177 136 154 178 136 154 178 136 155 178 135 153 177 136 154 178 136 154 178 135 154 177 136 154 177 136 154 178 136 154 178 135 153 177 135 154 177 136 154 178 136 154 178 
137 156 180 137 155 179 137 156 180 137 155 179 137 156 180 137 156 180 137 155 180 138 156 180 137 156 179 137 156 180 137 155 179 137 156 179 137 155 179 137 155 180 137 155 179 137 155 179 137 155 179 137 155 179 137 155 179 137 155 179 136 155 179 137 155 179 137 155 179 137 155 179 137 156 180 137 156 180 137 155 180 137 155 179 137 155 179 137 155 179 137 155 179 137 155 179 136 155 179 137 155 179 138 156 180 137 155 179 136 155 179 137 155 179 137 155 179 137 155 179 137 155 179 137 155 179 136 155 179 137 155 179 137 155 179 137 155 179 136 155 179 136 155 179 136 154 178 137 155 179 137 155 179 136 154 178 137 155 179 137 155 179 136 154 178 137 155 179 136 155 179 137 155 179 137 155 179 137 155 179 136 155 178 137 155 179 137 155 179 137 155 179 137 155 179 136 155 179 137 155 179 137 155 179 136 154 179 136 154 178 137 155 179 136 155 179 136 154 178 136 154 178 136 154 178 136 154 178 136 154 178 136 154 178 136 155 179 136 154 178 136 154 179 136 154 178 137 155 178 137 155 178 136 154 178 137 155 179 136 154 177 136 154 178 136 154 178 136 154 178 136 154 178 136 154 178 137 155 178 136 154 178 136 154 178 136 154 178 136 154 178 136 154 178 136 154 178 136 154 178 136 154 178 136 154 178 136 154 177 136 154 178 136 154 178 136 154 178 135 154 178 136 154 178 136 154 178 135 153 177 136 154 178 136 154 178 136 154 178 136 154 178 136 154 178 136 154 177 136 154 178 136 154 178 136 154 178 136 154 178 136 154 177 136 153 177 136 154 178 136 154 178 136 154 177 135 153 177 136 154 178 135 153 176 136 154 178 135 153 177 136 154 177 136 154 177 136 154 177 135 153 176 136 153 177 135 153 177 136 154 177 136 154 177 136 154 177 135 153 177 136 153 177 136 154 177 135 153 177 135 153 177 135 153 177 136 154 177 135 153 177 136 154 177 135 153 177 135 153 176 136 154 178 135 153 176 135 153 177 135 153 176 136 154 177 135 153 176 136 153 177 135 153 176 135 153 176 135 153 176 135 153 177 136 153 177 136 153 177 135 153 176 135 153 176 135 153 176 135 153 177 135 153 177 136 153 177 135 153 176 135 153 176 135 153 176 135 153 176 135 153 177 135 153 177 136 154 177 135 153 176 135 153 176 135 153 176 136 154 177 135 153 177 135 153 176 135 153 177 135 153 177 135 153 177 136 153 177 135 153 176 135 153 177 135 153 176 136 154 177 135 153 176 136 154 177 136 154 177 135 153 176 135 153 177 135 153 177 135 153 177 135 153 177 136 154 177 136 153 177 135 153 177 136 154 177 136 154 177 135 152 176 134 152 176 135 153 176 136 153 177 136 154 177 135 153 176 135 153 176 136 154 177 136 154 177 136 154 178 135 153 177 136 154 177 135 153 177 135 153 177 135 153 177 135 153 176 136 154 178 135 154 177 136 154 178 136 154 177 136 153 177 136 154 178 136 153 177 136 154 178 135 153 177 136 154 178 136 154 177 136 154 178 136 154 177 135 154 177 136 154 178 136 154 177 136 154 178 135 153 177 136 154 177 136 154 177 136 154 177 136 154 177 136 154 178 136 154 178 136 154 177 137 155 178 136 154 177 135 154 177 135 154 178 136 154 178 137 155 179 137 155 178 136 154 178 136 154 178 136 154 178 136 154 178 
137 155 180 137 156 180 137 155 179 137 155 179 137 155 179 137 156 179 137 156 180 137 156 180 137 155 179 137 156 179 137 155 180 137 155 179 137 155 179 137 156 180 137 156 180 137 155 179 137 155 180 137 155 180 137 155 180 137 156 180 137 155 179 137 155 180 137 155 180 137 155 179 137 155 180 137 155 179 137 155 179 137 155 179 137 155 179 137 155 179 137 155 179 137 156 179 136 155 179 137 155 179 137 155 179 137 155 179 136 155 179 137 155 179 137 155 179 137 155 179 137 155 179 137 155 179 137 155 179 137 155 179 137 155 179 137 155 179 137 155 179 137 155 179 136 155 179 137 156 180 137 155 179 136 155 179 136 155 179 136 155 178 137 155 179 137 155 179 136 155 179 136 155 179 137 155 178 136 155 179 137 155 179 137 155 179 136 155 179 137 155 179 136 154 178 137 155 179 136 154 179 136 155 179 136 155 178 137 155 179 137 155 179 137 155 179 136 155 179 136 155 179 137 155 179 136 155 178 137 155 179 137 155 178 136 154 178 136 154 179 136 155 178 136 154 178 137 155 179 137 154 178 136 154 178 136 155 179 136 154 178 136 154 177 136 154 178 136 155 178 136 154 178 136 154 178 136 154 178 136 154 179 136 154 178 136 154 178 136 154 178 137 155 179 136 154 178 136 154 178 136 154 178 136 154 177 136 154 178 136 154 178 136 154 178 136 154 178 136 154 178 136 154 178 136 154 178 136 154 178 136 154 178 135 153 177 136 154 177 136 154 177 135 154 177 136 154 178 137 155 178 136 154 178 136 154 177 136 154 177 136 154 178 136 154 177 136 154 178 135 154 178 136 154 178 136 154 178 135 153 177 136 154 177 136 154 177 135 153 176 135 153 177 136 154 177 135 153 177 136 154 178 135 153 176 136 154 177 136 154 178 136 154 178 136 154 178 136 154 177 135 153 177 136 154 177 136 154 178 136 153 177 136 154 177 135 153 177 135 153 177 136 153 177 135 153 177 136 153 177 136 154 177 135 153 177 135 153 177 136 154 177 136 154 177 136 154 177 135 153 177 135 153 176 135 153 177 135 153 177 135 153 177 135 153 177 135 153 177 136 153 177 136 153 177 135 153 176 136 154 177 135 154 177 135 153 177 135 153 177 135 153 177 136 154 177 136 154 178 136 154 177 136 154 177 135 153 177 136 154 177 135 153 177 135 153 177 136 154 177 135 153 176 136 154 177 136 154 177 136 154 178 136 153 177 136 154 178 135 153 177 136 153 177 136 153 177 135 153 177 136 154 178 135 154 177 135 153 176 135 153 177 136 153 177 135 153 176 136 154 177 135 153 177 136 154 178 136 154 177 135 153 176 136 154 177 135 153 177 136 154 177 135 153 177 136 154 177 135 153 177 136 154 177 135 153 177 135 153 177 136 154 178 136 154 177 136 154 177 136 154 178 136 154 177 135 153 177 136 153 177 136 154 177 136 154 177 136 154 177 136 154 177 136 154 178 135 153 177 136 154 178 136 154 177 136 154 178 136 154 178 136 154 178 136 154 178 136 154 178 136 154 178 136 154 177 136 154 178 136 154 177 137 155 178 136 154 177 136 154 178 135 153 176 136 154 178 136 154 178 136 155 178 136 154 178 136 154 177 136 154 178 136 154 178 136 154 178 136 154 178 136 154 178 136 154 178 137 155 178 136 154 178 136 154 178 136 154 178 136 154 178 136 154 178 
137 156 180 137 156 180 137 155 179 137 155 180 137 155 180 137 156 180 137 155 179 137 155 179 137 155 180 137 155 180 137 155 180 137 155 179 137 155 179 137 155 180 137 155 179 137 155 179 137 155 179 137 155 180 137 156 180 137 155 179 137 155 179 137 155 180 137 155 179 137 155 179 137 155 180 137 155 179 137 155 179 137 156 180 137 155 179 137 155 179 137 155 179 137 155 179 137 155 179 137 155 179 137 155 179 137 155 179 137 155 179 137 155 179 137 155 179 137 155 179 137 155 179 137 155 179 137 155 179 137 155 179 137 155 179 137 155 179 137 155 179 137 155 179 137 155 179 136 155 179 137 155 179 137 155 180 136 155 179 137 155 179 136 155 179 137 155 179 137 155 179 136 155 179 136 154 178 137 155 179 137 155 179 137 155 179 137 155 179 137 155 179 136 154 178 136 155 178 136 155 178 136 154 178 137 155 179 137 155 179 136 154 178 136 154 178 136 154 178 137 155 179 137 155 179 137 155 179 136 155 179 136 155 178 137 155 179 136 154 178 137 155 179 136 155 179 136 155 178 136 154 178 136 154 178 136 154 178 136 155 179 136 154 178 136 155 178 136 155 179 136 154 178 136 155 179 137 155 179 136 154 178 137 155 179 136 154 178 136 155 179 136 154 178 136 155 179 136 154 178 136 154 178 137 155 179 136 155 178 136 154 178 136 154 178 136 155 178 136 154 178 136 154 178 136 154 178 136 154 178 137 155 179 136 155 178 136 155 179 136 154 178 136 155 178 136 155 178 136 154 178 136 154 177 136 154 178 136 154 178 136 154 178 136 154 178 136 154 178 136 154 178 136 154 178 136 154 178 137 155 178 136 154 178 135 153 177 135 153 177 136 154 178 136 154 177 136 154 177 135 154 177 135 153 177 136 154 178 136 154 178 136 154 177 135 153 177 136 154 177 137 154 178 136 153 177 135 153 177 135 153 177 136 154 177 135 153 177 136 154 177 135 153 177 136 153 177 136 154 178 136 154 177 136 154 178 135 153 177 136 154 177 136 154 177 136 154 177 136 154 177 136 154 177 136 154 177 136 154 177 135 153 177 136 153 177 135 153 176 136 153 177 135 153 176 135 153 177 136 154 177 135 153 177 135 153 177 135 153 177 135 153 177 135 153 177 136 154 178 136 154 177 136 154 177 136 154 177 136 154 178 135 153 177 135 153 177 136 154 177 135 153 177 136 154 177 135 153 177 135 153 177 135 154 177 136 154 177 136 154 178 136 154 177 136 153 177 135 153 177 135 153 177 136 154 178 136 154 177 136 154 177 136 154 178 135 153 177 135 154 177 136 153 177 136 154 177 136 154 178 136 154 178 136 154 178 135 153 176 136 154 177 136 153 177 136 153 177 135 154 177 135 153 177 136 154 178 136 154 177 136 154 178 136 154 177 136 154 177 136 154 177 136 154 178 136 154 178 136 154 178 136 154 178 137 155 178 136 154 178 136 154 177 136 154 178 136 154 177 136 154 178 135 154 177 136 154 178 136 154 178 136 154 178 137 154 178 136 154 178 136 154 178 136 154 178 135 154 177 136 154 178 137 154 178 136 154 178 136 154 178 137 154 178 136 154 178 136 154 178 136 154 178 135 154 177 136 154 178 136 154 178 136 154 177 136 154 178 136 155 178 136 154 178 136 154 178 136 154 178 136 155 179 135 153 177 137 155 178 137 155 179 136 155 179 
137 155 179 137 156 180 137 156 180 137 155 179 137 155 179 137 156 180 137 156 180 137 156 180 137 155 180 137 155 180 136 155 179 137 155 180 137 155 179 137 155 179 137 155 179 137 156 180 137 156 180 137 155 180 137 155 179 137 155 179 137 155 180 137 155 179 137 155 179 137 155 180 137 155 179 137 155 179 137 155 180 137 155 179 137 155 180 137 155 179 137 155 179 137 155 179 137 155 179 137 155 180 137 155 179 137 156 180 137 155 179 137 156 180 137 155 179 137 155 179 137 155 179 137 155 179 137 155 179 137 155 180 137 155 179 136 155 179 137 155 179 137 155 179 137 155 179 137 155 179 137 155 179 137 155 179 137 155 179 137 155 179 137 155 179 137 155 179 137 155 179 136 155 180 137 155 179 136 155 179 137 155 179 137 155 179 136 155 179 136 155 179 137 155 179 136 155 179 137 155 179 137 155 179 137 155 179 136 155 179 136 154 178 137 155 179 137 155 179 136 155 178 137 155 178 137 155 179 136 155 179 136 155 179 136 155 179 137 155 179 137 155 179 137 155 179 136 154 178 137 155 178 136 155 178 136 154 178 136 154 178 136 155 178 136 155 179 136 155 179 136 154 178 136 155 179 136 155 179 136 155 178 136 155 179 136 154 178 137 155 179 136 154 179 136 154 178 137 155 179 136 154 178 136 154 178 136 154 178 136 154 178 136 154 178 137 155 179 136 154 178 136 155 178 135 154 177 136 154 177 136 155 178 136 155 178 136 155 179 136 154 178 136 154 178 136 154 178 136 154 178 137 155 178 136 154 178 136 154 178 136 154 177 136 154 178 136 155 178 136 154 178 136 154 178 136 154 178 136 154 178 136 155 178 136 154 178 136 154 178 136 154 178 136 154 178 136 155 179 136 154 178 136 154 178 135 154 178 136 155 178 137 155 178 136 154 178 135 153 177 136 154 178 136 154 177 136 154 178 136 154 177 136 154 177 136 154 178 136 153 177 136 154 178 136 154 177 136 154 177 136 154 177 135 153 177 136 154 178 136 154 177 136 154 177 136 154 178 136 154 177 135 153 177 136 154 177 136 154 177 136 153 177 136 154 177 136 154 177 136 154 178 136 154 177 136 154 177 136 154 177 136 154 178 136 154 178 135 153 177 136 154 177 136 154 178 136 154 178 136 154 177 136 154 177 136 154 177 136 154 177 135 153 177 136 154 178 136 154 177 136 154 178 135 153 177 136 154 177 136 154 177 136 154 178 136 154 177 136 154 178 136 154 178 136 154 177 135 153 177 136 154 178 135 153 177 136 154 177 136 154 177 136 154 178 136 154 177 136 154 177 136 154 178 136 154 178 135 153 177 136 154 178 135 153 177 136 154 177 136 154 177 136 154 177 136 154 177 136 154 178 136 154 178 136 154 178 135 153 177 135 154 177 136 154 178 136 154 178 136 154 177 136 154 178 136 154 178 137 155 178 136 154 177 136 154 178 136 154 177 136 154 178 136 154 177 136 154 178 136 154 177 135 153 177 136 154 178 136 154 178 135 154 177 136 154 177 136 154 178 136 154 178 136 154 178 136 154 177 136 154 178 136 154 178 136 154 178 136 154 178 136 154 178 136 154 178 136 154 178 136 154 178 136 155 179 137 154 178 136 154 178 136 154 178 136 155 178 136 154 178 136 154 178 136 154 178 137 155 179 136 155 179 136 154 178 136 154 178 136 154 178 136 154 178 
137 155 179 137 155 179 137 156 180 137 155 179 137 156 180 137 155 179 137 155 179 137 156 180 137 155 179 137 155 179 137 156 180 137 156 180 137 155 179 137 156 180 137 155 179 137 156 180 137 155 180 137 155 179 137 156 180 137 155 179 137 155 179 137 155 179 137 155 179 137 155 180 137 155 179 137 155 179 137 155 180 137 155 179 137 155 179 137 155 179 137 155 180 137 156 180 137 155 180 137 155 180 137 155 179 137 155 179 137 155 179 137 155 179 137 155 179 137 155 179 136 155 179 137 155 179 137 155 180 137 155 179 137 155 179 137 155 180 137 155 179 137 155 179 136 155 179 137 155 180 137 155 179 137 156 180 136 155 178 137 155 179 137 155 179 137 155 179 137 155 179 136 155 179 137 155 179 137 155 179 136 155 179 137 155 179 136 155 179 136 155 179 136 155 179 137 155 179 137 155 179 137 155 179 137 155 179 136 155 179 136 155 179 136 155 179 137 155 179 137 155 179 136 155 179 136 155 179 137 155 178 137 155 179 136 155 179 137 155 179 136 155 179 136 155 179 136 155 179 136 154 178 137 155 179 137 155 178 137 155 179 137 155 178 137 155 179 135 154 178 136 155 179 137 155 178 136 154 178 136 154 178 136 154 178 136 154 178 136 155 178 136 154 178 136 154 178 136 154 178 136 154 178 136 154 178 137 155 179 136 155 179 136 155 179 136 154 178 136 155 179 136 154 178 136 155 179 136 154 178 136 155 178 136 155 179 136 154 178 136 155 179 136 154 178 136 154 177 136 154 178 136 155 179 136 154 178 136 154 178 136 154 178 136 154 178 136 154 178 136 154 178 135 154 177 136 154 178 136 154 178 137 155 178 136 153 177 136 154 178 136 155 178 136 154 178 136 154 178 135 154 177 136 155 179 136 154 177 136 154 178 136 154 177 136 154 178 136 154 178 136 154 178 136 154 178 135 154 177 136 153 177 136 154 178 136 154 178 136 154 177 136 154 178 137 155 178 136 154 178 136 154 178 136 154 178 137 155 178 136 154 177 136 154 178 136 154 178 135 153 177 136 154 178 136 154 178 136 155 178 136 154 178 136 154 178 137 155 178 136 154 177 136 154 178 136 154 177 136 154 177 136 154 178 136 154 178 136 154 178 136 153 176 135 153 177 136 154 178 136 154 178 136 154 178 136 154 177 136 154 178 136 154 177 136 154 177 136 154 178 136 154 178 136 154 177 136 154 178 136 154 177 136 154 177 136 154 178 136 154 178 136 154 178 136 154 177 136 154 178 136 154 177 136 154 177 136 154 178 136 154 177 136 154 178 136 154 177 136 154 178 136 154 178 136 154 177 136 154 177 136 154 178 136 154 178 136 154 178 136 154 178 137 155 178 136 154 178 136 154 177 135 154 177 136 154 178 136 154 178 136 154 178 137 155 178 136 154 177 136 154 178 136 154 177 136 154 178 137 155 179 136 154 178 136 155 178 136 154 178 136 154 178 137 155 178 136 154 178 136 154 177 136 154 178 136 154 178 136 154 178 137 155 179 136 154 177 136 154 178 136 154 178 137 155 179 136 154 178 136 155 179 136 154 178 136 155 179 136 154 178 137 155 178 136 154 178 136 155 179 137 155 178 136 154 178 136 154 178 136 155 178 136 154 178 136 154 178 136 155 179 137 155 178 136 155 179 136 154 178 136 155 179 136 154 178 137 155 178 136 154 178 137 155 179 
137 155 180 138 156 180 137 156 180 137 155 179 137 155 179 137 156 180 137 155 179 137 155 179 137 155 179 137 155 179 137 155 180 137 156 180 137 156 180 137 155 179 137 155 179 137 155 180 137 156 179 137 155 179 137 156 180 137 155 179 137 155 179 137 155 179 137 155 179 137 155 179 137 155 180 138 156 180 137 155 180 137 155 180 137 155 179 137 156 180 137 155 179 137 155 179 136 155 179 137 155 179 137 156 180 137 155 179 136 155 179 137 155 180 137 155 179 137 155 179 137 155 179 137 155 179 137 155 180 137 155 179 137 155 179 137 155 180 137 155 179 137 155 179 136 155 179 137 155 179 136 155 179 136 155 179 137 155 179 136 155 179 137 155 179 137 155 179 137 155 179 137 155 179 137 155 179 136 155 179 137 155 179 137 155 179 137 155 179 136 155 179 137 155 179 136 155 179 137 155 179 137 155 179 137 155 179 136 155 179 137 155 179 136 155 179 136 155 179 136 155 178 137 155 179 137 155 179 136 155 179 137 155 179 136 155 179 137 155 179 137 155 179 136 154 178 137 155 179 136 155 179 137 155 179 136 155 178 137 155 179 136 154 178 137 155 179 137 155 179 136 155 179 136 155 179 136 155 179 136 155 178 136 154 178 137 155 179 136 155 179 136 155 179 136 155 179 137 155 179 137 155 179 136 154 178 136 155 179 136 154 178 136 155 179 136 155 179 137 155 179 136 154 178 137 155 179 136 154 178 137 155 179 136 154 178 136 154 178 137 155 178 136 154 178 136 155 178 136 154 178 137 155 178 137 155 179 136 154 178 136 155 178 137 155 179 137 155 178 136 154 178 136 154 178 136 154 178 136 154 178 136 154 178 136 154 178 137 155 179 136 154 178 136 154 178 137 155 178 136 155 179 136 154 178 136 154 178 136 154 177 136 154 178 135 153 177 136 154 178 136 154 177 136 154 178 136 154 178 137 155 179 137 155 178 136 154 178 136 155 178 136 154 178 136 154 178 136 154 178 136 154 178 136 155 178 137 154 178 137 155 178 136 154 178 136 154 178 136 154 178 136 154 178 136 154 178 136 155 178 135 153 177 136 154 178 136 154 178 136 154 177 136 154 178 136 154 178 136 154 178 136 154 178 136 154 178 136 154 178 136 154 178 136 154 178 136 154 178 136 154 178 136 154 178 136 154 178 136 154 178 136 154 178 136 154 177 136 154 178 136 154 177 136 154 178 136 154 177 136 154 178 136 154 178 136 154 178 136 154 177 136 155 178 136 154 178 136 154 177 136 154 178 136 154 178 136 154 178 136 154 177 136 154 177 136 155 178 136 154 178 136 154 177 136 154 178 136 154 178 135 154 177 136 154 177 136 154 178 136 154 178 136 154 178 136 154 178 136 154 178 136 154 178 136 154 178 136 154 178 136 155 178 136 154 178 136 154 178 136 154 178 137 155 178 136 154 178 136 154 178 137 155 178 137 155 178 136 154 178 136 154 178 136 154 178 136 154 178 136 154 178 136 155 178 136 154 178 136 154 178 136 154 178 136 154 178 136 154 178 136 154 178 136 155 179 137 155 179 136 154 178 137 155 179 136 154 178 136 155 179 136 154 178 136 155 179 137 155 179 137 155 179 136 154 178 137 155 178 136 154 178 136 154 178 136 154 178 137 155 179 136 154 178 137 155 178 136 155 179 136 154 178 136 154 178 137 155 178 137 155 179 136 154 178 
137 155 179 137 155 179 137 155 180 137 155 180 137 156 180 137 156 180 137 155 179 137 155 180 137 156 180 137 156 180 137 156 180 137 155 179 137 156 180 138 156 180 137 155 179 137 156 180 137 155 179 137 155 179 137 155 180 137 155 179 137 155 180 137 156 180 137 156 180 137 155 180 137 155 180 137 156 180 137 155 179 137 155 179 137 155 179 137 155 179 137 155 179 137 155 179 137 155 179 137 156 180 137 156 180 137 155 179 137 155 179 137 155 180 137 155 179 137 155 179 137 156 180 137 156 180 137 156 180 137 155 179 137 155 180 137 155 179 137 155 179 137 155 180 137 155 179 137 155 179 137 155 179 137 156 180 137 155 179 137 155 179 137 155 179 137 155 179 137 155 179 137 155 179 137 155 179 137 155 179 137 155 179 136 155 179 137 155 179 137 155 179 137 155 179 136 155 179 137 155 179 136 155 179 136 155 178 137 155 179 137 155 179 137 155 179 136 154 178 136 155 179 137 155 179 136 155 179 136 155 179 137 155 178 136 155 179 137 155 178 136 155 179 137 155 179 137 155 179 136 155 178 137 155 179 137 155 179 136 154 178 137 155 179 136 154 178 137 155 179 136 154 178 136 154 178 136 154 178 137 155 179 136 154 178 137 155 178 136 155 179 136 155 179 137 155 178 137 155 179 136 155 178 137 155 178 136 155 179 137 155 179 136 155 179 137 155 179 136 154 178 136 154 178 136 154 178 136 155 179 136 154 178 136 155 179 136 155 178 136 154 178 137 155 179 136 155 178 136 154 178 136 154 178 136 154 178 136 155 179 136 155 178 137 155 178 137 155 179 136 154 177 137 155 178 136 154 178 136 154 178 136 154 178 137 155 178 137 155 178 136 155 179 136 154 178 136 154 178 136 155 179 136 154 178 136 155 178 136 155 178 137 155 178 136 154 178 136 154 178 136 154 178 137 155 178 136 154 178 136 154 178 136 154 178 136 154 178 136 154 178 136 154 178 137 155 179 136 154 178 136 154 178 136 154 178 136 154 178 136 154 177 136 154 178 136 154 178 137 155 178 136 155 179 136 154 178 136 154 178 136 154 178 136 154 178 136 154 178 136 154 178 136 154 178 136 154 178 137 155 178 136 154 178 136 154 178 136 154 178 136 154 178 136 154 178 136 154 178 136 154 178 136 154 178 136 154 178 136 154 178 137 155 179 136 155 178 136 154 178 136 154 178 136 154 177 136 154 178 136 154 178 136 154 178 136 155 178 136 154 178 136 154 178 137 155 178 136 154 178 136 154 178 136 154 178 136 154 178 135 153 177 136 154 178 136 155 178 136 154 178 136 154 178 136 154 178 136 154 177 136 155 178 137 155 178 136 154 178 137 155 179 137 155 178 136 154 178 136 154 178 136 154 178 136 155 178 137 155 179 136 154 178 136 154 178 136 154 178 136 154 178 136 155 178 136 154 178 137 155 179 136 154 178 136 155 179 136 154 178 137 155 179 136 154 178 137 155 179 137 155 178 137 155 179 136 155 179 136 154 178 137 155 179 136 154 178 137 155 178 137 155 179 136 154 178 136 155 178 136 154 178 136 154 178 136 154 178 137 155 178 137 155 179 137 155 178 136 155 179 137 155 179 136 154 178 137 155 179 137 155 179 137 155 179 136 154 178 136 155 179 136 155 179 136 154 178 136 154 178 137 155 179 137 155 179 137 155 179 136 155 179 137 155 179 
137 155 180 137 155 179 137 156 180 137 156 180 137 156 180 137 156 180 137 155 179 137 155 179 137 156 180 137 156 180 137 155 180 137 156 180 137 155 179 137 156 180 137 155 180 137 155 179 137 155 179 137 156 180 138 156 180 137 155 180 137 155 179 137 155 179 137 155 180 137 155 179 137 155 179 137 155 179 137 156 180 137 156 180 137 156 180 137 155 179 137 155 179 137 155 179 137 156 180 137 155 179 137 155 179 137 155 179 137 155 179 137 155 179 137 155 179 137 155 180 137 155 179 137 155 180 137 155 180 137 156 180 136 155 179 137 155 179 136 155 179 137 155 179 137 155 179 137 155 179 137 155 179 137 155 179 137 155 179 137 155 179 136 155 179 137 155 179 137 155 179 137 155 179 137 155 179 137 155 179 136 155 179 137 155 179 136 155 179 137 155 179 137 155 179 137 155 179 137 155 179 137 155 179 137 155 179 136 154 178 137 156 180 137 155 179 137 155 179 137 155 179 136 155 179 137 155 179 137 155 179 137 155 179 137 155 179 137 155 179 137 155 179 137 155 179 137 155 179 137 155 179 137 155 179 137 155 179 137 155 179 136 155 179 137 155 178 137 155 179 136 155 179 137 155 179 137 155 179 137 155 179 136 155 179 137 155 179 136 155 179 136 155 179 136 155 179 136 154 178 137 155 179 136 155 179 137 155 179 136 155 178 136 154 178 137 155 179 137 155 178 136 155 179 136 154 178 136 155 179 136 154 178 137 155 179 137 155 179 137 155 179 136 155 179 137 155 178 136 155 179 137 155 179 136 155 179 136 155 179 136 154 178 136 155 178 136 154 178 136 154 178 136 154 178 136 155 179 136 154 178 137 155 178 136 154 178 136 155 178 136 154 178 136 155 179 136 154 178 137 155 179 136 154 178 136 155 178 136 154 178 136 154 178 136 154 178 136 154 178 136 154 178 136 154 178 136 155 179 136 154 178 136 154 178 136 154 178 136 155 179 136 155 179 136 154 178 136 154 178 137 155 178 136 155 179 137 155 178 137 155 178 136 155 179 137 155 178 136 154 178 136 154 178 137 155 179 136 154 178 136 154 178 135 153 177 136 154 178 136 154 178 137 155 178 136 154 178 136 154 178 136 154 178 136 154 178 136 154 178 136 154 178 136 153 177 136 155 179 136 154 178 136 154 178 136 154 178 136 154 178 136 155 178 136 155 178 137 155 178 136 154 178 136 154 178 137 155 179 136 155 179 136 155 178 136 154 178 137 155 179 136 154 178 136 154 178 136 155 179 136 154 178 136 154 178 136 154 178 136 154 178 136 155 179 136 155 178 136 154 178 136 154 178 136 154 178 136 155 179 136 154 178 137 155 179 136 155 179 136 154 178 136 154 178 136 154 178 136 154 178 136 154 178 136 154 178 136 154 177 137 155 179 137 155 178 136 154 178 136 154 178 136 155 178 137 155 179 136 154 178 136 154 178 136 154 178 136 155 179 136 155 178 136 154 178 137 155 179 136 154 178 136 155 179 136 154 178 136 154 178 136 154 178 136 154 178 136 154 178 137 155 179 136 155 178 137 155 179 136 155 179 136 154 178 137 155 179 136 154 178 136 154 178 136 154 178 136 155 179 137 155 179 136 155 179 136 155 179 136 154 178 137 155 178 136 154 178 136 155 179 137 155 179 137 155 178 136 155 179 137 155 179 136 155 178 137 155 179 136 155 179 137 155 179 
138 156 180 137 156 180 137 155 179 137 156 180 138 156 180 137 156 180 137 156 180 137 155 179 137 155 179 137 155 180 137 156 180 137 156 180 137 155 179 137 155 180 137 156 180 137 155 180 137 155 180 137 155 179 137 156 180 137 155 180 136 155 179 137 155 179 137 155 179 137 155 179 137 155 179 137 155 180 137 156 180 137 155 179 137 156 180 137 156 179 137 156 180 137 155 180 137 155 179 137 155 180 137 156 180 137 156 180 137 155 179 137 155 180 137 155 179 137 156 180 137 155 179 137 155 180 137 156 180 137 155 180 137 155 179 137 156 180 137 155 180 137 156 180 137 155 179 137 155 179 137 155 179 137 155 179 137 155 179 136 155 179 137 155 179 137 155 180 137 155 179 137 155 179 137 155 179 137 155 179 136 155 179 137 156 180 137 155 179 137 155 179 137 155 179 137 155 179 137 155 179 137 155 179 137 155 179 137 155 179 137 155 179 137 155 179 137 155 179 136 155 179 136 154 179 137 155 179 136 155 179 136 155 178 137 155 179 137 155 179 136 155 179 137 155 179 136 155 179 137 155 179 136 155 179 137 155 179 136 154 178 137 155 179 136 155 179 136 154 179 137 155 179 137 155 179 137 155 179 137 155 179 137 155 179 136 155 178 136 155 179 137 155 179 136 155 179 137 155 179 137 155 179 136 155 178 137 155 179 137 155 179 136 155 179 136 154 178 137 155 179 136 154 178 136 155 179 136 154 178 137 155 179 137 155 179 137 155 179 137 155 179 136 155 179 136 155 178 136 155 178 137 155 179 137 155 179 136 155 179 136 155 178 137 155 179 136 154 178 136 155 179 137 155 179 136 155 178 137 155 179 137 155 179 136 155 179 136 155 179 137 155 179 137 155 179 136 155 178 136 155 179 136 154 178 136 154 178 136 155 178 136 154 178 137 155 178 136 154 178 136 154 178 136 155 179 136 155 178 136 155 179 136 154 178 136 155 179 136 155 179 137 155 179 136 154 178 136 154 178 136 155 178 137 155 179 136 154 178 136 155 178 136 155 179 136 155 178 136 154 178 136 154 178 136 154 178 137 155 178 137 155 179 136 154 178 136 154 178 136 154 178 136 154 177 136 155 178 137 155 179 136 154 178 136 155 178 136 154 178 137 155 179 136 154 178 136 154 178 136 155 178 136 154 178 136 154 178 136 154 178 136 155 179 136 154 178 137 155 178 137 155 178 136 155 179 136 154 178 137 155 178 136 155 178 136 154 178 137 155 179 136 154 178 137 155 178 136 154 178 136 154 178 136 154 178 136 154 178 136 154 177 136 154 178 137 155 179 137 155 178 136 154 178 137 155 179 136 154 178 136 154 178 136 154 178 136 155 179 136 154 178 136 154 178 136 154 178 136 154 178 136 154 178 136 154 178 136 154 178 137 155 178 136 154 178 136 154 178 136 154 178 136 155 178 136 154 178 136 154 178 136 154 178 137 155 179 136 155 179 136 155 178 137 155 178 136 155 178 136 155 178 136 154 178 136 155 179 136 154 178 136 154 178 137 155 179 137 155 179 136 154 178 137 155 179 137 155 179 137 155 179 136 154 178 136 155 178 137 155 178 137 155 179 137 155 179 136 155 179 137 155 179 137 155 179 137 155 179 136 155 179 137 155 179 137 155 179 136 155 179 136 155 179 136 155 179 136 155 179 136 155 179 136 154 178 137 155 179 137 155 179 137 155 178 
137 156 180 137 155 180 137 155 180 137 156 180 137 155 179 137 156 180 137 155 179 137 155 180 137 156 180 137 155 179 137 156 180 137 155 180 137 156 180 137 156 180 137 155 179 137 155 179 137 155 180 137 156 180 137 156 180 137 155 180 137 155 179 137 155 180 137 156 180 137 156 180 137 155 179 137 156 180 137 156 180 137 155 180 137 156 180 137 155 179 137 156 180 137 155 179 137 155 179 137 155 179 137 155 179 137 156 179 136 155 179 137 155 179 137 156 180 137 155 180 137 155 179 137 156 180 137 155 179 137 155 179 137 156 180 137 155 179 137 155 179 137 155 179 137 155 179 137 155 179 137 155 179 137 156 180 137 155 180 137 155 179 137 155 180 137 155 179 137 155 179 137 155 179 137 155 179 137 155 179 137 155 179 137 155 179 137 156 180 137 155 179 137 156 180 137 156 180 137 155 179 136 155 179 137 155 179 137 155 179 137 155 179 137 155 178 137 155 179 136 155 179 137 155 179 137 155 179 136 155 179 137 155 179 137 155 179 137 155 179 137 155 179 137 155 179 136 155 179 137 155 179 137 155 179 137 155 179 137 155 180 137 155 179 137 155 179 137 155 179 136 154 178 137 155 179 137 155 179 136 155 178 137 155 179 137 155 179 136 155 179 136 155 178 136 155 179 137 155 179 137 155 179 137 155 179 136 154 178 137 155 179 137 155 179 137 155 179 136 155 179 137 155 179 137 155 179 137 155 179 136 155 179 137 155 179 136 155 179 137 155 179 137 155 179 137 155 179 137 155 178 136 155 179 137 155 179 137 155 179 136 154 178 136 154 178 136 155 178 137 155 179 137 155 179 136 155 179 136 155 179 137 155 179 137 155 179 137 155 179 137 155 179 136 154 178 137 155 179 136 155 179 137 155 179 137 155 178 136 154 178 136 155 178 136 154 178 137 155 179 137 155 179 136 154 178 137 155 178 136 154 178 137 155 179 136 154 178 137 155 179 137 155 179 136 155 179 137 155 179 137 155 179 136 155 178 137 155 178 137 155 179 136 154 178 136 154 178 136 155 179 137 155 179 136 155 179 136 155 179 136 154 178 137 155 179 137 155 179 136 154 178 136 154 178 137 155 179 137 155 179 135 154 178 137 155 179 136 155 178 136 154 178 136 154 178 136 154 177 137 155 178 136 154 178 136 154 178 136 154 178 137 155 178 136 154 178 136 154 178 136 154 178 137 155 179 137 155 179 136 155 179 137 155 178 136 154 178 136 154 178 137 155 179 136 155 179 136 155 179 137 155 179 136 154 178 136 154 179 137 155 179 136 155 178 136 155 179 136 155 178 137 155 178 137 155 179 137 155 178 136 155 179 137 155 179 137 155 178 136 154 178 136 154 178 137 155 179 136 154 178 136 155 179 137 155 179 137 155 179 137 155 179 137 155 179 137 155 178 136 155 179 136 154 178 136 154 178 136 155 179 136 154 178 136 155 179 136 154 179 136 155 179 137 155 178 136 155 179 137 155 179 137 155 179 137 155 179 137 155 179 137 155 179 136 155 178 137 155 179 137 155 179 136 155 179 136 155 179 137 155 179 137 155 179 137 155 179 136 154 178 136 155 178 137 155 178 136 155 179 136 154 178 136 154 178 137 155 179 137 155 179 137 155 179 137 155 179 137 155 179 136 154 178 137 155 179 136 155 178 137 155 179 137 155 179 137 155 178 137 155 179 136 155 179 
137 156 180 137 156 180 137 156 180 138 156 180 137 156 180 137 156 180 137 155 179 137 156 180 137 155 179 137 155 180 137 155 179 137 155 179 137 156 180 137 155 179 137 155 179 137 155 179 137 155 180 137 155 179 137 156 180 137 155 179 137 156 180 137 155 179 137 156 180 137 155 179 137 155 180 137 156 180 137 156 180 137 155 180 137 156 180 137 155 179 137 155 179 137 156 180 137 156 180 137 155 180 137 155 179 137 155 179 137 155 180 137 155 180 137 155 179 137 156 180 137 155 179 137 155 179 137 155 179 137 155 179 137 156 180 137 156 180 136 155 179 137 155 179 137 155 179 137 156 179 137 156 180 137 155 179 137 155 179 137 155 179 137 155 179 137 155 179 137 155 179 137 155 180 137 155 180 137 155 179 137 155 179 136 155 179 137 155 179 137 155 179 137 155 179 136 155 179 137 155 179 137 155 179 137 155 179 137 155 179 137 155 179 136 155 179 137 155 179 137 155 179 137 155 180 137 155 179 137 155 179 136 155 179 137 155 179 137 155 179 137 155 179 137 155 179 137 156 180 137 155 179 137 155 179 137 156 179 137 155 179 137 155 179 136 155 179 137 155 179 137 155 179 137 155 179 137 155 179 137 155 179 137 155 179 136 155 179 137 155 179 137 155 179 136 155 179 136 155 179 137 155 179 136 155 179 137 155 179 136 155 178 137 155 179 136 155 179 137 155 179 136 155 179 137 155 178 137 155 179 137 155 179 137 155 179 136 155 178 137 155 178 136 155 179 137 155 179 136 154 178 136 155 178 137 155 179 137 155 178 137 155 179 136 154 178 136 155 179 136 154 178 136 155 179 136 155 179 137 155 179 136 154 178 136 155 178 136 155 179 137 155 179 137 155 179 137 155 179 137 155 178 136 155 179 137 155 179 137 155 179 137 155 179 136 154 178 136 154 179 136 155 178 136 155 178 136 155 178 136 154 178 137 155 179 136 154 179 136 155 179 137 155 179 136 155 179 136 154 178 136 154 179 137 155 179 137 155 179 137 155 179 137 155 179 136 154 177 137 155 179 136 154 178 136 155 178 136 155 179 136 154 178 137 155 179 137 155 178 137 155 179 136 154 178 137 155 179 137 155 179 136 155 178 136 154 178 136 154 178 136 155 178 136 155 179 137 155 179 136 155 179 136 155 179 136 154 178 136 155 179 137 155 178 136 155 179 136 154 178 137 155 179 136 154 178 136 155 179 137 155 179 136 154 178 137 155 179 137 155 179 136 155 178 136 155 179 136 154 178 136 154 178 137 155 179 137 155 178 136 155 179 136 154 178 136 154 178 136 154 178 137 155 178 136 154 178 137 155 179 136 155 178 136 154 178 137 155 179 136 155 179 136 155 179 136 155 179 136 154 178 136 154 178 136 154 178 136 155 178 137 155 179 136 155 179 137 155 179 136 154 178 137 155 179 136 155 179 137 155 179 137 155 178 136 155 179 137 155 179 136 154 178 136 155 179 137 155 179 136 155 179 136 155 178 136 155 179 136 154 178 137 155 179 137 155 179 136 155 178 136 155 178 137 155 179 137 155 179 136 155 179 136 155 179 137 155 179 137 155 179 137 155 179 137 155 179 136 155 179 137 155 179 137 155 179 137 155 179 137 155 179 136 154 178 137 155 179 137 155 179 137 155 179 137 155 179 136 155 179 137 155 179 137 155 179 136 155 179 136 155 179 137 155 179 
137 156 180 137 156 180 136 155 179 137 156 180 137 156 180 137 155 180 137 155 179 137 156 180 136 155 179 137 155 179 137 155 180 137 156 180 137 156 180 137 155 180 137 156 180 137 156 180 137 156 180 137 156 180 137 155 180 137 156 180 137 155 179 137 155 180 137 155 179 137 156 180 137 155 179 137 155 180 137 156 179 137 155 179 137 156 180 137 155 179 137 156 180 137 155 180 137 155 180 137 155 180 137 155 180 137 155 180 137 155 180 137 155 179 137 155 179 137 155 180 137 156 180 137 155 179 137 156 180 137 155 179 137 155 179 137 155 179 137 155 179 137 155 179 137 155 179 137 155 179 137 155 180 137 155 179 137 156 180 137 155 179 137 155 179 137 155 179 137 155 179 137 156 180 137 155 179 137 156 179 137 155 179 137 155 179 137 155 180 137 155 179 137 155 179 137 155 179 137 155 179 137 155 179 137 155 179 137 155 180 136 155 179 137 155 179 137 155 179 137 155 179 137 155 179 137 155 179 137 155 179 137 155 180 137 155 179 137 155 179 137 155 179 137 155 179 137 155 179 137 155 179 137 155 179 137 155 179 137 155 179 136 155 179 137 155 179 137 155 179 137 155 179 137 155 179 137 155 179 137 155 179 136 155 179 137 155 179 137 155 179 137 155 179 137 155 179 137 155 179 137 155 179 137 155 179 136 155 179 137 155 179 137 155 179 137 155 179 137 155 179 137 155 179 137 155 179 136 155 179 136 155 179 137 155 179 137 155 179 137 155 179 137 155 179 137 155 179 137 155 179 137 155 179 137 155 179 137 155 179 136 155 178 136 155 179 137 155 179 137 155 179 137 155 179 136 154 178 136 155 179 136 155 178 136 155 179 137 155 179 136 154 179 136 155 179 137 155 178 136 154 178 137 155 179 137 155 179 137 155 179 136 155 178 137 155 179 136 155 179 136 155 179 137 155 178 137 155 178 137 155 179 137 155 179 136 155 179 137 155 179 137 155 178 137 155 179 137 155 179 136 154 178 137 155 179 136 154 178 137 155 179 137 155 178 137 155 179 136 155 179 136 154 178 137 155 179 137 155 179 137 155 179 136 155 179 137 155 179 137 155 179 136 155 179 136 155 179 137 155 178 137 155 179 136 155 179 136 155 179 137 155 179 136 155 179 136 155 178 136 155 179 137 155 178 137 155 179 136 155 179 136 155 178 136 155 179 136 154 178 136 154 179 136 155 179 136 154 178 137 155 179 136 155 178 136 155 178 137 155 179 136 154 178 136 154 178 136 155 179 136 155 178 136 155 179 136 154 178 137 155 179 137 155 179 136 155 178 137 155 179 136 155 178 136 155 179 137 155 179 137 155 178 136 155 179 137 155 179 136 154 178 137 155 179 137 155 179 137 155 178 136 155 179 137 155 179 136 155 178 137 155 179 137 155 179 137 155 179 136 155 179 136 155 179 137 155 179 136 154 178 137 155 179 137 155 179 137 155 179 137 155 179 136 155 179 136 155 179 136 154 178 136 155 179 137 155 179 137 155 179 137 155 179 137 155 179 137 155 179 137 155 179 137 155 179 136 154 178 137 155 179 136 155 179 136 155 179 137 155 179 137 155 179 136 155 179 136 155 178 136 154 178 136 155 179 137 155 179 136 155 179 137 155 179 137 155 179 136 155 179 137 155 179 136 154 178 137 155 179 136 155 179 137 155 180 137 156 179 137 155 179 137 155 180 
137 156 180 137 156 180 137 156 180 137 155 180 137 155 179 137 156 180 137 156 180 137 156 180 138 156 180 137 155 180 137 155 179 137 155 180 137 155 179 137 155 179 137 155 180 137 155 180 137 155 179 137 155 179 138 156 180 137 155 179 137 156 180 137 155 179 137 155 180 137 156 180 137 155 179 137 156 180 137 156 180 137 155 180 137 155 179 137 155 179 137 156 180 137 155 180 137 155 180 137 156 180 137 155 179 137 156 180 137 155 180 137 156 180 137 155 180 137 155 180 137 155 179 137 156 180 137 155 180 137 155 180 137 155 180 137 155 180 137 155 179 137 155 179 137 155 179 136 154 179 137 155 179 137 155 179 137 155 180 137 155 179 137 155 179 137 155 179 137 155 179 137 156 180 137 156 179 137 155 179 137 155 179 137 156 180 137 155 179 137 155 179 137 155 179 136 155 178 137 155 179 137 156 180 137 155 180 137 155 179 137 156 179 137 155 180 137 155 179 137 155 179 137 155 180 137 156 180 137 155 180 137 155 179 137 155 179 137 155 179 137 155 179 137 155 179 137 155 179 137 155 179 137 155 179 137 155 179 137 156 180 137 155 179 136 155 179 137 155 179 137 155 179 136 155 178 136 155 179 137 155 179 137 155 179 137 155 179 137 155 179 137 155 179 137 155 179 137 155 179 137 155 179 137 155 179 137 155 179 137 155 179 137 155 179 137 155 179 137 155 180 137 155 179 137 155 179 137 155 179 137 155 179 137 155 179 137 155 179 136 154 178 137 155 179 136 155 179 136 155 179 137 155 179 136 155 179 136 155 179 137 155 179 136 155 179 137 155 179 137 155 179 136 155 178 137 155 179 137 155 179 136 155 179 137 155 179 137 155 178 137 155 179 137 155 179 136 155 179 137 155 179 136 155 179 136 155 179 136 155 179 137 155 179 137 155 179 136 155 179 136 154 178 136 154 179 137 155 179 137 155 179 136 154 178 137 155 179 137 155 178 136 155 179 137 155 179 136 154 178 137 155 179 136 155 179 136 155 179 137 155 180 137 155 179 137 155 179 136 155 179 137 155 179 137 155 179 136 155 179 136 154 178 136 155 179 137 155 179 137 155 178 136 155 178 136 155 179 137 155 179 137 155 179 136 155 179 137 155 179 136 155 179 137 155 179 137 155 179 136 155 179 137 155 179 137 155 179 137 155 179 137 155 179 136 155 179 137 155 179 136 155 179 137 155 179 136 155 179 136 154 179 136 155 179 137 155 179 136 155 179 137 155 178 136 154 178 136 155 179 137 155 179 136 155 179 136 155 179 137 155 179 136 155 178 137 155 179 137 155 179 137 155 179 137 155 179 136 154 178 136 155 178 136 154 178 137 155 179 137 155 179 137 155 178 137 155 179 137 155 179 136 155 178 137 155 179 137 155 179 136 155 179 137 155 179 137 155 179 137 155 179 137 155 179 136 155 179 136 155 178 137 155 178 137 155 179 137 155 179 136 155 179 136 155 179 137 155 179 137 155 179 136 155 178 136 155 179 137 155 179 137 155 179 136 155 179 136 154 178 137 155 179 137 155 179 136 154 178 136 155 179 137 155 179 136 155 179 137 155 179 137 155 179 137 155 179 137 155 179 137 155 179 136 154 179 137 155 179 137 155 179 137 155 179 137 155 179 137 155 179 136 155 179 137 155 179 137 155 179 137 155 179 137 155 179 137 155 179 137 155 179 137 155 179 
137 156 180 137 156 180 137 155 180 137 156 180 137 155 179 137 155 179 137 156 180 137 156 180 138 156 180 137 155 179 137 155 179 137 155 180 137 155 179 137 156 180 137 155 180 137 156 180 137 156 180 138 156 180 137 156 180 137 155 179 137 156 179 137 156 180 137 156 180 138 156 179 137 156 180 137 155 179 137 155 179 137 155 179 137 156 180 137 155 179 137 156 180 137 156 179 137 156 180 137 155 179 137 155 180 137 155 180 137 156 180 137 155 179 137 155 180 137 156 180 137 156 180 137 156 180 138 156 180 137 156 180 137 155 179 137 155 180 137 156 180 136 155 179 137 155 180 137 155 179 137 155 180 137 155 179 137 156 180 137 155 179 137 155 179 137 155 179 137 155 180 137 156 180 137 155 180 137 155 179 137 155 179 137 155 179 137 155 179 137 155 179 137 155 179 137 155 179 137 155 179 137 155 179 137 155 179 137 156 180 137 155 179 137 155 179 137 155 179 137 155 179 137 155 179 137 155 179 137 155 179 137 155 180 137 155 179 137 155 179 137 155 179 136 155 179 137 155 179 136 155 179 137 155 179 137 155 179 137 155 179 137 155 179 137 155 179 137 155 179 137 155 180 137 155 179 137 155 179 137 155 180 137 156 180 136 155 179 137 155 179 137 156 179 137 155 179 137 155 179 136 155 179 137 155 179 136 154 179 137 155 180 137 156 180 137 155 179 137 155 179 137 155 179 137 155 179 137 155 179 137 155 179 137 155 179 136 155 179 137 155 179 137 155 179 137 155 179 136 155 179 137 155 179 136 155 179 136 155 179 137 155 179 137 155 179 137 155 179 136 155 179 137 155 179 136 154 178 137 155 179 137 155 179 137 155 179 137 155 179 137 155 179 137 155 179 137 155 179 136 155 179 137 155 179 137 155 179 137 155 179 137 155 179 137 155 179 137 155 179 137 155 179 136 155 179 136 155 179 136 155 179 136 155 179 137 155 179 136 155 179 136 155 179 136 154 178 137 155 179 136 155 179 136 155 179 136 155 178 137 155 179 137 155 179 137 155 178 137 155 179 137 155 179 137 155 179 136 155 178 137 155 179 136 155 179 137 155 179 136 155 179 137 155 178 137 155 179 137 155 179 137 155 179 136 155 179 136 155 178 136 155 179 136 155 179 136 155 179 137 155 179 137 155 179 137 155 179 136 155 179 137 155 179 137 155 179 137 155 179 137 155 178 137 155 179 136 155 179 137 155 179 136 155 179 137 155 179 137 155 179 136 154 178 137 155 178 136 155 179 136 154 178 137 155 179 136 155 179 137 155 178 137 155 179 136 155 178 137 155 179 136 155 179 137 155 179 136 155 179 136 155 179 136 155 179 137 155 179 136 155 179 136 155 179 137 155 179 137 155 179 136 155 179 137 155 179 137 155 178 137 155 179 136 155 179 137 155 180 137 155 179 137 155 179 136 155 179 136 155 179 137 155 179 137 155 179 136 155 179 137 155 179 137 155 179 136 155 179 137 155 179 136 155 179 136 155 179 137 155 179 137 155 180 137 155 179 137 155 179 137 155 179 136 155 179 136 155 179 137 155 179 136 155 179 136 155 178 137 155 179 137 156 180 137 155 179 137 155 179 137 155 179 137 155 179 136 155 179 137 155 179 136 155 179 137 155 179 137 156 179 137 155 179 137 155 179 137 156 180 136 155 179 137 155 179 137 155 179 137 155 179 137 155 179 
137 156 180 137 156 180 137 155 180 137 156 180 138 156 180 137 156 180 137 155 180 137 156 180 137 155 179 137 156 180 137 156 180 137 156 179 137 156 180 137 156 180 137 155 179 137 156 180 137 156 180 137 156 180 137 156 180 137 155 180 137 155 179 137 155 179 137 156 180 137 156 180 137 156 180 137 156 180 137 155 179 137 155 179 137 155 179 137 156 180 137 155 180 137 156 180 137 155 180 137 155 179 137 155 180 137 155 179 137 155 180 137 155 179 137 156 180 137 155 179 137 156 180 137 155 179 137 155 179 137 155 180 137 156 180 137 155 179 137 155 179 137 155 179 137 155 179 137 155 179 138 156 180 137 155 179 137 155 180 137 155 179 137 155 180 137 155 180 137 155 179 137 155 179 137 156 180 137 155 179 137 156 180 137 155 180 137 155 179 137 155 179 137 155 179 137 156 180 137 155 180 137 155 179 136 155 179 137 155 180 137 155 180 137 155 179 137 155 180 137 155 179 137 155 179 137 155 179 137 156 180 136 155 179 136 155 179 137 155 179 137 155 179 137 155 179 137 156 180 137 155 179 137 155 179 137 155 179 137 155 179 136 155 179 137 155 179 136 155 179 137 155 179 137 155 179 137 155 179 137 155 179 137 155 179 137 155 179 136 155 179 137 155 179 137 155 179 137 155 179 137 155 180 137 155 179 137 155 179 137 155 179 137 155 179 137 155 179 136 155 179 137 156 180 137 155 179 136 155 179 137 156 179 137 155 179 137 155 179 137 155 179 137 155 179 137 155 180 137 155 179 137 155 179 137 155 179 137 155 179 137 155 179 137 155 179 137 155 179 137 155 179 137 155 179 137 155 179 137 155 179 137 155 179 137 155 179 137 155 179 137 155 179 136 154 178 137 155 179 137 155 179 137 155 179 137 155 179 137 155 179 137 155 179 137 155 179 137 155 179 136 154 178 137 155 179 136 155 179 137 155 179 136 155 179 136 155 179 137 155 179 137 155 179 137 155 179 136 155 179 137 155 179 137 155 179 137 155 179 137 155 179 137 155 179 137 155 179 137 155 179 136 155 179 137 155 179 137 155 179 137 155 179 137 155 179 136 154 178 137 155 179 137 155 179 137 156 179 136 155 178 136 155 179 137 155 179 136 155 179 137 155 179 137 155 179 136 155 179 137 155 179 137 155 179 136 155 179 137 155 179 137 155 179 136 155 179 137 155 179 136 155 179 137 155 179 137 155 179 137 155 179 137 155 179 136 154 179 136 155 179 137 155 179 136 154 178 136 155 178 137 155 179 137 155 179 137 155 179 137 155 179 136 155 179 137 155 179 137 155 179 137 155 179 137 155 179 137 155 179 137 155 179 136 155 179 137 155 179 137 156 180 136 155 179 137 155 179 137 155 179 137 155 179 137 155 179 137 155 178 137 155 179 137 155 179 137 155 179 137 155 179 137 155 180 136 154 178 137 155 179 136 155 179 137 155 180 137 155 179 136 155 179 137 155 179 136 155 179 137 155 179 137 155 179 137 155 179 137 155 179 136 155 179 137 155 179 137 155 179 137 155 179 137 155 179 137 155 179 137 155 179 137 155 179 137 155 179 136 155 179 137 155 179 136 154 178 137 155 179 137 155 179 137 155 179 137 155 179 137 155 179 137 155 179 137 155 179 136 154 178 137 155 179 137 155 179 136 155 179 137 155 179 136 155 179 137 155 179 137 155 179 137 155 179 
137 156 180 137 156 180 137 156 180 138 156 180 137 156 180 137 155 180 137 156 180 137 155 179 137 155 180 137 156 180 138 156 180 137 156 180 137 156 180 137 156 180 137 156 180 137 155 179 137 155 180 138 156 180 137 155 179 137 156 180 137 156 180 137 155 179 137 156 180 137 156 180 138 156 180 137 156 180 137 155 179 137 155 180 137 155 179 137 155 179 137 156 180 137 156 180 137 156 180 137 155 180 137 155 179 137 155 179 137 156 179 137 155 179 137 155 179 137 155 179 137 155 179 137 156 180 137 155 179 137 156 180 137 155 179 137 156 180 138 156 180 137 155 180 137 155 179 137 155 179 137 155 179 137 155 179 137 155 179 137 156 180 136 155 180 137 155 180 137 156 180 137 155 179 137 155 179 137 155 180 137 155 180 137 155 179 137 155 179 137 155 179 137 156 180 137 155 179 137 155 179 137 156 180 137 155 179 137 156 180 137 155 180 137 156 180 137 156 180 137 155 179 137 155 180 137 155 180 137 155 179 137 155 179 137 155 179 137 156 180 137 155 179 137 155 180 137 155 179 137 155 179 137 155 179 137 155 179 137 155 179 137 155 179 137 155 179 137 156 180 136 155 179 137 156 180 137 155 179 136 155 179 137 155 179 137 156 179 137 155 179 137 155 179 137 155 180 137 155 179 137 155 179 137 155 179 137 155 179 137 155 179 137 155 179 137 155 179 137 155 179 137 155 179 137 155 179 137 155 179 137 155 179 136 154 178 136 155 179 137 155 179 137 155 179 137 156 180 137 155 179 137 155 179 137 155 179 136 155 179 137 155 179 137 155 179 137 155 179 137 155 179 137 155 179 137 155 179 136 155 179 137 155 179 137 155 179 136 155 179 136 155 179 137 155 179 136 155 179 137 155 179 136 155 179 137 155 179 137 155 179 137 155 179 137 155 179 137 155 179 136 155 179 137 155 179 137 155 179 136 155 179 137 155 179 137 155 179 136 155 178 137 155 179 136 155 179 137 155 179 137 155 179 137 155 179 137 155 179 136 155 179 137 155 179 137 155 179 137 155 179 137 155 179 137 155 179 137 155 179 137 155 179 136 155 179 137 155 179 137 155 179 137 156 180 137 155 179 137 155 179 136 155 179 137 155 179 137 155 179 137 155 179 136 155 179 136 155 179 136 155 179 137 155 179 137 155 179 137 155 179 137 155 179 137 155 179 136 154 178 137 155 178 136 155 179 136 155 179 137 155 179 137 155 179 137 155 179 136 155 179 136 155 179 136 155 179 136 155 179 136 155 179 137 155 179 137 155 179 137 155 179 137 155 179 137 155 179 136 155 179 137 155 179 137 155 179 137 155 179 137 155 179 137 155 179 137 155 179 137 155 180 137 155 179 137 155 179 137 155 179 136 154 178 137 155 179 137 155 179 137 155 179 137 155 179 137 155 179 137 155 179 136 155 179 137 155 179 137 155 179 137 155 179 137 155 179 136 155 179 137 155 179 137 155 179 136 155 179 136 155 179 137 155 179 136 155 179 137 155 179 137 155 179 136 155 179 137 155 179 137 156 179 137 155 179 137 155 179 136 155 179 137 155 179 137 155 179 137 155 179 136 155 179 137 155 179 137 155 179 137 155 179 137 155 179 137 155 179 137 155 179 137 155 179 137 155 179 137 155 179 137 155 180 137 155 179 137 155 179 137 155 179 137 155 179 137 155 179 137 155 179 137 155 179 
137 156 180 137 155 179 137 156 180 137 156 180 137 155 180 137 156 180 137 155 179 137 156 180 137 156 180 137 156 180 137 155 180 137 156 180 137 156 180 137 156 180 137 156 180 137 156 180 137 155 180 137 155 180 137 156 180 137 155 180 137 156 180 137 155 180 137 156 180 137 155 180 137 156 180 137 156 180 137 155 180 137 155 180 137 156 180 138 156 180 137 156 180 137 155 180 137 156 179 137 155 180 137 156 180 137 155 180 137 156 180 137 155 180 137 155 179 137 156 180 137 156 180 137 156 180 137 156 180 137 155 179 137 156 180 137 155 179 137 156 180 137 155 180 137 155 179 137 155 179 137 155 179 137 156 180 137 155 179 138 156 180 137 155 179 137 155 179 137 155 179 137 156 180 137 155 180 137 155 179 137 155 180 137 156 180 137 155 179 137 155 179 137 156 180 137 155 180 137 155 179 137 155 179 137 156 180 137 155 179 137 155 179 137 155 179 137 155 180 137 155 179 137 156 179 137 155 180 137 155 179 137 155 179 137 155 180 137 155 179 137 155 179 137 155 179 137 155 179 137 155 180 137 155 179 137 155 179 137 156 180 137 155 179 137 155 179 137 155 179 136 155 179 137 156 180 137 155 179 137 155 179 137 155 179 137 155 179 137 155 179 137 155 179 137 155 180 137 155 179 137 155 179 137 155 179 136 155 179 136 155 179 136 155 179 137 155 179 137 156 180 137 155 179 137 155 179 137 155 179 137 155 179 137 155 179 137 155 179 137 155 179 137 155 179 137 156 180 137 155 179 137 155 179 136 155 179 137 155 179 137 155 179 137 155 179 137 155 179 137 155 179 137 155 179 137 155 179 137 155 179 137 155 179 137 155 179 137 155 179 137 155 179 137 155 178 136 155 179 137 155 179 137 155 179 137 155 179 137 155 179 137 156 180 137 155 179 137 155 179 137 156 180 137 155 179 137 155 179 137 155 179 137 155 179 137 155 179 136 155 179 136 155 179 137 155 179 137 155 179 137 155 179 137 155 179 136 155 179 137 155 179 137 155 179 137 155 179 136 155 179 137 155 179 137 155 179 137 155 179 137 155 179 137 155 179 137 155 179 137 155 179 137 155 179 137 155 179 137 155 180 137 155 179 136 155 179 137 155 179 137 155 179 136 155 179 137 155 179 137 155 179 137 155 179 137 155 179 136 155 179 137 155 179 137 155 179 137 155 179 137 155 179 136 155 179 137 155 179 137 155 179 137 155 179 137 155 179 136 155 179 137 155 179 137 155 179 137 155 179 136 155 179 137 155 179 136 155 179 136 155 178 136 155 179 137 156 179 137 156 179 137 155 179 136 155 179 137 155 180 137 155 179 137 155 179 137 155 179 137 155 179 137 155 179 136 155 179 137 155 179 137 155 179 137 155 179 137 155 179 136 155 179 137 155 179 137 155 179 137 155 179 137 155 179 137 155 179 137 155 179 137 155 179 137 155 179 137 155 179 136 155 179 137 155 179 137 155 179 137 155 179 137 155 179 136 155 179 137 155 179 137 155 179 137 155 179 137 155 179 136 155 179 137 155 179 137 155 179 137 155 179 137 155 179 137 155 179 137 155 179 137 155 179 137 155 179 137 155 179 137 155 179 137 156 180 137 155 179 137 155 179 137 155 180 137 155 179 137 155 179 137 155 179 137 155 179 137 156 180 136 155 179 137 155 180 137 155 179 137 155 179 137 156 180 
137 155 180 137 156 180 137 156 180 137 156 180 137 156 180 137 156 180 137 156 180 137 155 180 137 156 180 137 155 180 137 155 180 137 156 180 137 156 180 137 155 179 137 156 180 137 156 180 137 156 180 137 156 180 137 156 180 137 156 180 137 156 180 137 155 179 137 155 180 137 155 179 137 156 180 137 156 180 137 156 180 137 155 180 137 155 180 137 155 180 137 156 179 137 155 179 137 156 180 138 156 180 137 156 180 137 156 180 137 155 180 137 156 180 137 156 180 137 156 180 137 156 180 137 155 180 137 155 180 137 156 180 137 156 180 137 156 180 137 155 179 137 156 180 137 155 180 137 155 180 137 156 180 137 155 180 137 155 180 137 156 180 137 155 180 137 155 180 137 156 180 137 155 179 137 155 179 137 156 179 137 155 179 137 155 180 137 155 180 137 156 180 137 155 180 137 155 179 137 156 180 137 156 180 137 155 180 137 155 180 137 155 180 137 156 180 137 155 179 137 155 180 137 155 180 137 155 179 137 155 180 137 155 180 137 155 179 137 155 179 137 155 180 137 155 180 137 155 179 137 155 179 137 155 179 137 155 179 137 155 180 137 155 179 137 155 179 137 155 179 137 155 179 137 155 179 137 155 179 137 156 180 137 156 180 137 155 179 137 155 179 137 156 180 137 155 179 137 155 179 137 155 179 137 155 179 137 155 179 137 156 180 137 156 179 137 155 179 137 155 180 137 155 179 137 155 179 137 155 180 137 155 179 136 155 179 137 155 179 137 155 179 137 155 179 137 155 179 137 155 179 137 155 180 137 156 180 137 156 180 137 155 180 137 155 180 137 156 180 137 155 180 137 155 179 137 155 179 136 155 179 137 155 179 137 155 180 137 155 179 137 156 180 137 155 179 137 155 179 137 155 179 137 155 179 136 155 179 137 155 180 137 156 180 137 155 180 137 155 179 137 155 179 137 155 179 137 155 179 136 155 179 137 155 179 137 155 179 137 155 179 137 155 179 136 155 179 137 155 179 137 155 179 137 155 179 137 155 179 137 155 180 137 155 179 137 155 179 137 155 179 137 155 179 137 155 179 137 155 179 137 155 179 136 154 178 137 155 179 137 155 179 137 155 179 137 155 179 136 155 178 136 155 179 137 155 179 137 155 179 136 155 179 137 156 180 137 155 179 137 155 179 137 155 179 136 155 179 137 155 179 136 155 179 137 155 179 136 155 179 137 155 179 137 155 179 137 155 179 137 155 179 137 155 179 137 155 179 137 155 179 137 155 179 137 155 178 137 155 179 137 155 179 137 155 179 137 155 179 137 155 179 137 155 179 137 155 179 137 155 179 137 156 180 137 155 179 137 155 179 137 155 179 136 155 179 136 155 179 137 156 180 137 155 179 137 155 179 137 155 179 137 155 179 136 155 179 136 155 179 137 155 179 137 155 179 137 155 179 137 155 179 137 155 179 136 155 179 137 155 179 137 155 180 137 155 179 136 155 179 136 155 179 137 155 180 137 155 179 136 155 179 137 155 179 137 155 179 137 155 179 137 155 179 137 155 179 137 155 179 136 155 179 136 155 179 137 155 179 136 155 178 137 156 180 137 155 179 137 155 180 137 155 179 137 155 179 137 155 179 137 155 179 137 155 179 137 155 180 137 155 179 137 155 179 137 155 179 137 155 179 137 155 179 136 155 179 137 155 179 137 155 179 137 155 179 137 155 179 137 156 180 137 155 179 
137 156 180 137 156 180 138 156 180 137 155 180 137 155 180 138 156 180 137 155 180 138 156 180 137 156 180 137 156 180 137 156 180 137 156 180 137 156 180 137 156 180 137 156 180 137 155 180 137 155 180 137 155 180 137 156 180 137 156 180 137 155 179 137 156 180 137 156 180 138 156 180 137 155 179 137 156 180 137 156 180 137 156 180 137 156 180 138 156 180 137 155 180 137 155 180 137 156 180 137 156 180 137 156 180 138 156 180 137 155 179 137 155 180 138 156 180 137 156 180 137 156 180 137 156 180 137 156 180 137 155 180 137 155 180 137 156 180 137 155 179 137 156 180 137 156 180 137 156 180 137 156 180 137 156 180 137 155 179 137 155 179 137 156 180 138 156 179 137 155 180 137 155 179 137 155 180 137 155 180 137 155 179 137 155 179 137 155 179 137 155 179 137 155 179 137 155 179 137 155 179 137 155 179 137 155 179 137 155 180 137 156 180 137 155 180 137 155 179 137 155 179 137 156 179 137 155 179 137 155 180 137 155 179 137 155 179 137 155 180 137 155 179 137 155 179 137 155 179 137 155 180 137 155 179 137 155 179 137 156 180 137 155 179 137 156 180 137 155 179 137 155 179 137 155 180 137 155 180 137 156 180 137 156 180 137 155 180 137 156 180 137 155 179 137 155 179 137 155 179 137 155 179 137 155 179 137 156 180 137 155 179 137 155 179 137 155 179 137 155 179 137 156 180 137 155 179 137 155 179 137 155 179 137 155 179 137 155 179 137 155 179 137 155 179 137 156 180 137 155 179 137 155 179 137 155 179 137 155 179 137 155 179 137 155 179 137 155 179 137 155 179 137 155 179 137 155 179 137 155 179 137 155 179 137 155 179 137 155 179 137 156 180 137 155 179 137 155 179 137 155 179 137 155 179 137 155 179 137 155 179 137 155 179 137 155 179 137 155 179 137 155 179 137 155 179 137 155 179 137 156 180 137 155 179 136 155 179 138 156 180 137 155 180 137 155 179 137 155 179 137 155 179 137 155 179 136 155 179 137 155 179 137 155 179 137 155 179 137 155 179 136 155 178 137 155 179 137 155 179 137 155 179 136 155 179 137 155 179 137 155 179 137 155 179 137 155 179 137 155 179 137 155 179 137 155 179 137 155 179 137 155 179 137 156 180 137 155 179 137 155 179 137 155 179 137 155 179 137 155 179 137 155 179 137 155 179 137 155 180 137 155 179 137 155 180 137 155 179 137 155 179 137 155 179 137 155 179 137 155 179 137 155 179 137 155 179 136 155 179 136 155 178 137 155 179 136 155 179 137 155 179 137 155 179 137 155 179 137 156 180 137 155 180 137 155 179 137 155 179 137 155 179 137 155 179 136 155 179 137 155 179 136 155 179 137 156 180 137 155 179 137 155 179 137 156 180 137 155 179 137 155 179 137 155 179 137 155 179 137 155 179 137 155 179 137 156 180 137 155 179 137 155 179 137 155 179 137 155 179 137 155 179 137 155 179 137 156 180 137 155 179 137 155 179 137 155 179 136 155 179 137 155 179 137 155 179 137 155 179 136 155 179 137 156 180 137 155 179 137 155 179 137 155 179 137 155 179 137 155 179 136 155 179 137 155 179 137 155 179 137 155 179 137 155 179 136 155 179 137 155 179 136 155 179 136 154 178 137 156 180 137 156 180 137 155 179 137 156 180 137 155 179 137 155 180 137 155 179 137 155 180 137 155 179 
138 156 180 137 156 180 137 156 180 138 156 180 137 156 180 137 156 180 137 156 180 137 156 180 137 156 180 137 156 180 137 156 180 137 156 180 137 156 180 137 155 180 137 155 180 137 155 180 137 155 180 137 156 180 137 156 180 137 156 180 137 156 180 137 156 180 137 156 180 137 155 180 137 156 180 137 156 180 137 156 180 137 156 180 137 156 180 137 156 180 137 155 179 137 156 180 137 156 180 138 156 180 137 156 180 137 156 180 137 155 179 137 156 180 137 156 180 137 156 180 138 156 180 137 156 180 137 155 180 137 155 180 138 156 180 137 155 180 137 156 180 138 156 180 137 156 180 137 155 179 137 155 179 137 156 180 137 155 180 137 155 180 137 156 180 137 155 180 137 156 180 137 156 180 138 156 180 137 156 180 137 156 180 137 155 180 137 155 180 137 155 179 137 156 180 138 156 180 137 155 180 137 155 179 137 155 179 137 156 180 137 155 180 137 155 179 137 156 180 137 156 180 137 155 179 137 155 179 137 155 179 137 156 180 137 155 179 137 155 179 137 155 179 137 155 179 137 156 179 137 155 179 137 155 180 137 155 179 137 155 179 137 156 180 137 155 179 137 155 179 137 155 179 137 155 179 137 155 179 137 155 180 138 156 180 137 155 179 137 155 180 136 155 179 137 155 180 137 155 179 137 155 179 137 155 180 137 156 180 137 155 179 137 155 179 137 155 179 137 155 179 137 155 179 137 156 180 137 156 180 137 155 179 137 155 179 137 155 179 137 155 179 137 155 180 136 155 179 137 156 180 137 155 179 136 155 179 137 155 180 137 155 179 137 155 179 137 155 179 137 155 180 137 155 179 137 155 179 137 155 179 137 155 179 137 156 180 137 155 180 137 155 179 137 155 179 137 156 180 137 155 179 137 156 180 137 155 180 137 155 179 137 155 179 137 155 179 137 155 179 137 155 180 137 155 179 137 155 179 137 155 179 137 155 179 137 155 179 137 155 179 137 155 179 137 155 179 137 155 180 137 155 179 136 155 179 137 155 179 137 155 179 137 155 179 137 155 179 137 155 179 136 155 179 137 155 179 137 155 179 137 155 179 137 155 179 137 155 180 137 155 179 137 155 179 137 155 180 137 155 179 137 155 179 137 155 180 137 155 179 137 155 180 137 155 180 137 155 179 137 155 179 137 156 180 137 155 179 137 155 179 137 155 179 137 156 180 137 155 179 136 155 179 137 155 179 137 155 179 137 155 179 137 155 179 137 155 179 137 156 180 137 155 179 137 155 179 137 156 180 137 155 179 137 156 180 137 155 179 137 155 180 137 155 179 136 155 179 137 155 179 137 155 179 137 155 180 137 156 180 138 156 180 136 155 179 137 156 180 137 155 179 137 155 179 137 155 179 137 155 179 137 155 179 137 156 180 137 155 179 137 156 180 137 155 179 137 155 179 137 155 179 137 155 179 137 155 179 137 156 179 137 155 180 137 155 179 137 155 180 137 155 180 137 155 179 137 155 179 137 155 179 137 155 179 137 155 179 137 155 179 137 155 179 137 156 180 137 155 179 137 155 179 137 155 179 137 155 179 136 155 179 137 155 179 137 155 179 137 155 179 137 155 179 137 155 179 137 155 179 137 156 180 137 155 179 137 155 179 137 155 179 138 156 180 136 155 179 137 155 179 137 155 179 137 155 179 137 155 179 137 155 179 137 155 179 137 155 180 137 155 179 137 155 179 
137 155 180 137 156 180 137 155 179 137 156 180 137 155 180 137 156 180 137 156 180 137 156 180 137 156 180 137 156 180 137 155 180 137 156 180 137 156 180 137 156 180 137 156 180 137 156 180 137 155 180 137 156 180 137 156 180 137 156 180 137 156 180 137 156 180 137 156 180 137 155 180 137 156 180 137 156 180 137 155 179 137 155 180 138 156 180 137 156 180 137 156 180 137 156 180 137 155 179 137 155 180 137 155 179 137 156 180 137 156 180 137 156 180 137 156 180 137 155 179 137 155 179 137 155 179 137 156 180 137 155 180 137 155 179 137 155 179 138 156 180 137 156 180 137 155 179 137 155 179 137 155 180 137 156 180 137 155 179 137 155 180 137 155 179 137 155 180 137 155 179 137 155 179 137 155 179 137 155 180 137 156 180 138 156 180 137 156 180 137 156 180 137 155 179 137 155 179 137 155 180 137 155 179 137 155 179 137 155 180 137 156 180 137 156 179 137 156 180 137 155 179 137 155 179 137 156 180 137 156 180 137 155 179 137 155 179 137 155 179 137 155 179 137 156 180 137 155 179 137 156 180 137 156 180 137 155 179 137 155 179 137 155 180 137 156 180 137 156 180 137 155 179 137 155 180 137 155 179 137 156 180 137 155 179 136 155 179 137 155 180 137 155 179 137 155 179 137 155 179 137 155 180 137 155 179 137 155 179 136 155 179 137 155 179 137 155 179 137 155 179 137 155 179 137 156 180 137 155 179 137 155 179 137 155 179 137 155 180 137 155 179 137 155 179 137 155 179 137 155 179 137 155 179 137 155 179 137 155 179 137 155 180 137 155 179 137 155 179 137 155 179 137 155 179 137 155 179 137 155 179 137 155 179 137 155 179 137 155 179 137 155 179 137 156 180 137 156 180 137 155 179 136 155 179 137 155 179 137 155 179 137 156 180 137 155 179 137 156 180 137 155 179 137 155 179 137 155 179 137 155 180 137 155 179 137 155 179 137 155 179 137 155 179 137 155 179 137 155 179 137 155 179 137 156 180 137 155 179 137 156 180 137 155 179 137 155 179 136 155 179 137 155 179 137 155 180 137 155 179 137 155 179 137 155 179 137 155 179 137 155 179 137 156 179 137 155 179 137 155 179 137 155 179 137 155 179 138 156 180 137 155 179 137 155 179 137 155 179 137 155 179 137 155 179 137 155 180 137 155 179 137 155 179 137 155 179 137 155 180 136 155 179 136 155 179 137 156 180 137 155 179 137 155 179 136 155 179 137 155 179 137 156 180 137 155 179 137 155 179 137 155 179 137 155 179 137 155 179 137 155 179 137 155 179 137 155 180 137 155 179 137 155 179 137 155 179 137 155 179 137 156 180 137 155 180 137 155 179 137 156 180 137 155 180 137 155 179 136 155 179 137 156 180 136 155 179 137 155 179 137 155 179 137 155 179 138 156 180 137 155 180 137 155 179 137 155 179 136 155 179 136 155 179 137 155 179 137 155 179 137 155 179 137 155 179 137 155 179 137 155 179 137 155 179 137 155 179 137 155 179 137 155 179 137 155 179 137 156 180 137 156 180 137 155 179 137 156 180 137 155 179 137 155 179 137 155 180 137 155 179 137 155 180 137 155 179 137 155 180 137 155 179 137 155 179 137 155 179 137 156 180 137 155 179 137 156 180 137 155 179 137 155 179 137 155 179 137 155 179 137 155 179 137 156 180 137 156 180 137 155 179 137 155 179 
137 156 180 137 156 180 137 155 180 137 155 179 137 156 180 137 156 180 137 156 180 137 156 180 137 155 179 137 156 180 137 155 180 137 156 180 137 156 180 137 156 180 137 155 179 138 156 180 137 156 180 137 156 180 137 156 180 137 156 180 137 156 180 137 156 180 137 156 180 137 156 180 137 155 180 137 155 180 137 155 179 137 156 180 137 156 180 137 156 180 137 155 180 137 155 180 137 156 180 137 155 180 137 156 180 138 156 180 137 156 180 138 156 180 137 156 180 137 156 180 137 156 180 137 155 180 137 156 180 137 155 180 137 155 180 137 156 180 137 155 179 137 155 180 137 156 180 137 155 180 137 155 180 137 155 179 137 156 180 137 155 179 138 156 180 138 156 180 137 156 180 137 156 180 137 155 179 137 155 180 137 155 180 137 156 180 137 156 180 137 156 180 137 155 179 137 156 180 137 156 180 137 156 179 137 155 179 137 156 180 137 155 180 137 155 180 137 155 179 137 156 180 137 155 179 137 155 179 137 155 179 137 155 179 138 156 180 137 156 180 137 155 179 137 155 180 137 156 180 137 155 179 137 155 179 137 155 180 137 155 179 137 156 180 137 156 180 137 156 179 137 156 180 137 156 180 137 155 179 137 156 180 137 155 179 137 155 180 137 155 179 137 156 180 137 155 179 137 156 180 137 155 179 137 156 180 137 156 180 137 155 179 137 156 180 137 155 179 137 155 179 137 155 179 137 155 180 137 155 180 137 155 179 137 156 180 137 155 179 136 155 179 137 155 180 137 156 180 137 155 180 137 155 179 137 155 179 137 155 179 137 155 179 137 156 179 137 155 180 137 155 179 137 155 179 137 155 179 137 155 179 137 155 179 137 155 179 137 155 180 137 155 180 137 155 179 137 155 179 137 155 179 136 155 179 137 155 179 137 155 179 137 155 179 136 155 179 137 155 179 138 156 180 137 156 180 137 155 180 137 156 180 137 155 179 137 155 180 137 155 179 137 155 180 137 155 179 137 155 180 137 155 179 137 156 180 137 155 180 137 156 180 137 155 179 137 155 179 137 155 179 137 155 180 137 156 180 137 155 179 137 155 180 137 155 179 137 155 179 137 155 179 137 155 179 138 156 180 137 155 179 137 155 179 137 156 180 137 155 180 137 156 180 137 155 179 136 155 178 137 155 179 137 155 179 136 155 179 137 155 180 137 155 179 137 155 179 137 155 179 137 155 179 136 155 179 137 155 179 137 155 180 137 155 179 137 155 179 137 155 179 137 155 179 137 155 179 137 156 180 137 155 179 137 155 179 137 155 179 137 155 179 137 155 180 137 155 179 137 155 180 137 155 179 137 155 179 137 155 179 137 155 179 137 155 179 137 155 179 137 155 179 137 155 179 137 155 179 137 155 179 137 155 179 137 155 179 137 156 180 137 155 179 137 155 180 137 155 179 137 155 180 137 155 179 137 156 179 137 155 179 137 155 179 137 156 180 137 155 179 137 156 180 137 155 179 137 155 179 137 155 179 137 156 180 137 156 180 137 155 179 137 155 179 137 155 179 137 155 179 137 156 180 137 155 179 137 155 179 137 156 180 137 155 179 137 156 180 137 155 179 137 155 179 137 155 179 137 155 180 137 156 180 137 156 180 137 155 180 137 155 179 137 155 179 137 156 180 137 155 179 137 155 179 137 156 180 137 155 179 137 155 180 137 155 179 137 155 179 137 155 179 137 155 179 
